tono/assets/cubes/bianco_nero_cortina_33.cube
TITLE "Cortina"
LUT_3D_SIZE 5
DOMAIN_MIN 0.0 0.0 0.0
DOMAIN_MAX 1.0 1.0 1.0
0.000000 0.000000 0.000000
0.110664 0.110664 0.110664
0.287156 0.287156 0.287156
0.507407 0.507407 0.507407
0.518588 0.518588 0.518588
0.130567 0.130567 0.130567
0.212156 0.212156 0.212156
0.307745 0.307745 0.307745
0.449952 0.449952 0.449952
0.578275 0.578275 0.578275
0.309257 0.309257 0.309257
0.349644 0.349644 0.349644
0.425039 0.425039 0.425039
0.516904 0.516904 0.516904
0.628399 0.628399 0.628399
0.569363 0.569363 0.569363
0.566042 0.566042 0.566042
0.602311 0.602311 0.602311
0.678893 0.678893 0.678893
0.770721 0.770721 0.770721
0.730617 0.730617 0.730617
0.760797 0.760797 0.760797
0.812002 0.812002 0.812002
0.874042 0.874042 0.874042
0.923991 0.923991 0.923991
0.067130 0.067130 0.067130
0.144531 0.144531 0.144531
0.279445 0.279445 0.279445
0.501397 0.501397 0.501397
0.533827 0.533827 0.533827
0.170292 0.170292 0.170292
0.249999 0.249999 0.249999
0.340698 0.340698 0.340698
0.462248 0.462248 0.462248
0.593989 0.593989 0.593989
0.305039 0.305039 0.305039
0.375322 0.375322 0.375322
0.459655 0.459655 0.459655
0.544703 0.544703 0.544703
0.648106 0.648106 0.648106
0.560978 0.560978 0.560978
0.569301 0.569301 0.569301
0.614587 0.614587 0.614587
0.693954 0.693954 0.693954
0.784339 0.784339 0.784339
0.741563 0.741563 0.741563
0.772802 0.772802 0.772802
0.820239 0.820239 0.820239
0.880699 0.880699 0.880699
0.929924 0.929924 0.929924
0.127983 0.127983 0.127983
0.177259 0.177259 0.177259
0.299198 0.299198 0.299198
0.439343 0.439343 0.439343
0.538424 0.538424 0.538424
0.207705 0.207705 0.207705
0.287123 0.287123 0.287123
0.380816 0.380816 0.380816
0.488140 0.488140 0.488140
0.613399 0.613399 0.613399
0.342707 0.342707 0.342707
0.415762 0.415762 0.415762
0.499997 0.499997 0.499997
0.578988 0.578988 0.578988
0.673093 0.673093 0.673093
0.555109 0.555109 0.555109
0.587693 0.587693 0.587693
0.639847 0.639847 0.639847
0.716398 0.716398 0.716398
0.803056 0.803056 0.803056
0.770239 0.770239 0.770239
0.798430 0.798430 0.798430
0.838952 0.838952 0.838952
0.900456 0.900456 0.900456
0.951229 0.951229 0.951229
0.162638 0.162638 0.162638
0.202191 0.202191 0.202191
0.319455 0.319455 0.319455
0.458293 0.458293 0.458293
0.585688 0.585688 0.585688
0.220026 0.220026 0.220026
0.282010 0.282010 0.282010
0.392794 0.392794 0.392794
0.520811 0.520811 0.520811
0.646721 0.646721 0.646721
0.370181 0.370181 0.370181
0.460851 0.460851 0.460851
0.534677 0.534677 0.534677
0.612315 0.612315 0.612315
0.706056 0.706056 0.706056
0.586763 0.586763 0.586763
0.627820 0.627820 0.627820
0.674854 0.674854 0.674854
0.749984 0.749984 0.749984
0.834356 0.834356 0.834356
0.813123 0.813123 0.813123
0.828804 0.828804 0.828804
0.870211 0.870211 0.870211
0.927886 0.927886 0.927886
0.975626 0.975626 0.975626
0.206493 0.206493 0.206493
0.249980 0.249980 0.249980
0.344234 0.344234 0.344234
0.477231 0.477231 0.477231
0.614152 0.614152 0.614152
0.250837 0.250837 0.250837
0.300637 0.300637 0.300637
0.388527 0.388527 0.388527
0.526820 0.526820 0.526820
0.670242 0.670242 0.670242
0.380270 0.380270 0.380270
0.463900 0.463900 0.463900
0.542599 0.542599 0.542599
0.635671 0.635671 0.635671
0.735174 0.735174 0.735174
0.637391 0.637391 0.637391
0.672759 0.672759 0.672759
0.713251 0.713251 0.713251
0.784974 0.784974 0.784974
0.863617 0.863617 0.863617
0.842964 0.842964 0.842964
0.855697 0.855697 0.855697
0.897915 0.897915 0.897915
0.949906 0.949906 0.949906
0.992272 0.992272 0.992272
