tono/assets/cubes/bianco_nero_cortina_33.cube
TITLE "Cortina"
LUT_3D_SIZE 9
DOMAIN_MIN 0.0 0.0 0.0
DOMAIN_MAX 1.0 1.0 1.0
0.000000 0.000000 0.000000
0.040434 0.040434 0.040434
0.110664 0.110664 0.110664
0.200363 0.200363 0.200363
0.287156 0.287156 0.287156
0.420868 0.420868 0.420868
0.507407 0.507407 0.507407
0.510994 0.510994 0.510994
0.518588 0.518588 0.518588
0.055283 0.055283 0.055283
0.090748 0.090748 0.090748
0.151725 0.151725 0.151725
0.217073 0.217073 0.217073
0.277512 0.277512 0.277512
0.366178 0.366178 0.366178
0.457979 0.457979 0.457979
0.522927 0.522927 0.522927
0.538832 0.538832 0.538832
0.130567 0.130567 0.130567
0.161222 0.161222 0.161222
0.212156 0.212156 0.212156
0.264661 0.264661 0.264661
0.307745 0.307745 0.307745
0.368295 0.368295 0.368295
0.449952 0.449952 0.449952
0.525004 0.525004 0.525004
0.578275 0.578275 0.578275
0.212330 0.212330 0.212330
0.235501 0.235501 0.235501
0.284008 0.284008 0.284008
0.334119 0.334119 0.334119
0.371822 0.371822 0.371822
0.413300 0.413300 0.413300
0.479959 0.479959 0.479959
0.548175 0.548175 0.548175
0.602213 0.602213 0.602213
0.309257 0.309257 0.309257
0.318463 0.318463 0.318463
0.349644 0.349644 0.349644
0.393894 0.393894 0.393894
0.425039 0.425039 0.425039
0.462886 0.462886 0.462886
0.516904 0.516904 0.516904
0.575237 0.575237 0.575237
0.628399 0.628399 0.628399
0.432521 0.432521 0.432521
0.427296 0.427296 0.427296
0.443507 0.443507 0.443507
0.475526 0.475526 0.475526
0.502273 0.502273 0.502273
0.537455 0.537455 0.537455
0.584610 0.584610 0.584610
0.636359 0.636359 0.636359
0.687409 0.687409 0.687409
0.569363 0.569363 0.569363
0.559515 0.559515 0.559515
0.566042 0.566042 0.566042
0.584963 0.584963 0.584963
0.602311 0.602311 0.602311
0.636290 0.636290 0.636290
0.678893 0.678893 0.678893
0.724980 0.724980 0.724980
0.770721 0.770721 0.770721
0.676776 0.676776 0.676776
0.677316 0.677316 0.677316
0.684819 0.684819 0.684819
0.694792 0.694792 0.694792
0.712835 0.712835 0.712835
0.744065 0.744065 0.744065
0.782680 0.782680 0.782680
0.820659 0.820659 0.820659
0.856260 0.856260 0.856260
0.730617 0.730617 0.730617
0.741741 0.741741 0.741741
0.760797 0.760797 0.760797
0.782649 0.782649 0.782649
0.812002 0.812002 0.812002
0.842440 0.842440 0.842440
0.874042 0.874042 0.874042
0.901190 0.901190 0.901190
0.923991 0.923991 0.923991
0.019356 0.019356 0.019356
0.058853 0.058853 0.058853
0.118000 0.118000 0.118000
0.203020 0.203020 0.203020
0.287515 0.287515 0.287515
0.415266 0.415266 0.415266
0.511689 0.511689 0.511689
0.516057 0.516057 0.516057
0.524927 0.524927 0.524927
0.072361 0.072361 0.072361
0.107281 0.107281 0.107281
0.163813 0.163813 0.163813
0.225112 0.225112 0.225112
0.281774 0.281774 0.281774
0.366147 0.366147 0.366147
0.455292 0.455292 0.455292
0.524539 0.524539 0.524539
0.544916 0.544916 0.544916
0.145156 0.145156 0.145156
0.170691 0.170691 0.170691
0.223796 0.223796 0.223796
0.278383 0.278383 0.278383
0.319039 0.319039 0.319039
0.374263 0.374263 0.374263
0.450880 0.450880 0.450880
0.527047 0.527047 0.527047
0.583427 0.583427 0.583427
0.219532 0.219532 0.219532
0.244625 0.244625 0.244625
0.293193 0.293193 0.293193
0.342142 0.342142 0.342142
0.380942 0.380942 0.380942
0.424129 0.424129 0.424129
0.485770 0.485770 0.485770
0.552203 0.552203 0.552203
0.607796 0.607796 0.607796
0.311521 0.311521 0.311521
0.321279 0.321279 0.321279
0.356207 0.356207 0.356207
0.401869 0.401869 0.401869
0.436349 0.436349 0.436349
0.474914 0.474914 0.474914
0.525928 0.525928 0.525928
0.581974 0.581974 0.581974
0.635319 0.635319 0.635319
0.430046 0.430046 0.430046
0.425775 0.425775 0.425775
0.444228 0.444228 0.444228
0.476685 0.476685 0.476685
0.505332 0.505332 0.505332
0.542247 0.542247 0.542247
0.590682 0.590682 0.590682
0.642780 0.642780 0.642780
0.694208 0.694208 0.694208
0.564491 0.564491 0.564491
0.556051 0.556051 0.556051
0.564384 0.564384 0.564384
0.585420 0.585420 0.585420
0.604032 0.604032 0.604032
0.638916 0.638916 0.638916
0.683021 0.683021 0.683021
0.729828 0.729828 0.729828
0.775637 0.775637 0.775637
0.676107 0.676107 0.676107
0.677124 0.677124 0.677124
0.685508 0.685508 0.685508
0.696573 0.696573 0.696573
0.715366 0.715366 0.715366
0.747293 0.747293 0.747293
0.785946 0.785946 0.785946
0.824152 0.824152 0.824152
0.859540 0.859540 0.859540
0.734465 0.734465 0.734465
0.745762 0.745762 0.745762
0.765040 0.765040 0.765040
0.786914 0.786914 0.786914
0.814926 0.814926 0.814926
0.845466 0.845466 0.845466
0.876558 0.876558 0.876558
0.903543 0.903543 0.903543
0.925952 0.925952 0.925952
0.067130 0.067130 0.067130
0.080193 0.080193 0.080193
0.144531 0.144531 0.144531
0.202441 0.202441 0.202441
0.279445 0.279445 0.279445
0.410723 0.410723 0.410723
0.501397 0.501397 0.501397
0.525330 0.525330 0.525330
0.533827 0.533827 0.533827
0.101069 0.101069 0.101069
0.134305 0.134305 0.134305
0.187323 0.187323 0.187323
0.240620 0.240620 0.240620
0.289754 0.289754 0.289754
0.369218 0.369218 0.369218
0.457534 0.457534 0.457534
0.529630 0.529630 0.529630
0.556253 0.556253 0.556253
0.170292 0.170292 0.170292
0.194988 0.194988 0.194988
0.249999 0.249999 0.249999
0.301238 0.301238 0.301238
0.340698 0.340698 0.340698
0.390931 0.390931 0.390931
0.462248 0.462248 0.462248
0.536204 0.536204 0.536204
0.593989 0.593989 0.593989
0.244751 0.244751 0.244751
0.262144 0.262144 0.262144
0.317503 0.317503 0.317503
0.368163 0.368163 0.368163
0.406482 0.406482 0.406482
0.447156 0.447156 0.447156
0.502872 0.502872 0.502872
0.564973 0.564973 0.564973
0.620260 0.620260 0.620260
0.305039 0.305039 0.305039
0.327635 0.327635 0.327635
0.375322 0.375322 0.375322
0.423914 0.423914 0.423914
0.459655 0.459655 0.459655
0.496395 0.496395 0.496395
0.544703 0.544703 0.544703
0.597118 0.597118 0.597118
0.648106 0.648106 0.648106
0.430772 0.430772 0.430772
0.428764 0.428764 0.428764
0.453213 0.453213 0.453213
0.491846 0.491846 0.491846
0.522026 0.522026 0.522026
0.558630 0.558630 0.558630
0.605783 0.605783 0.605783
0.656334 0.656334 0.656334
0.706627 0.706627 0.706627
0.560978 0.560978 0.560978
0.556374 0.556374 0.556374
0.569301 0.569301 0.569301
0.593399 0.593399 0.593399
0.614587 0.614587 0.614587
0.649131 0.649131 0.649131
0.693954 0.693954 0.693954
0.739816 0.739816 0.739816
0.784339 0.784339 0.784339
0.676153 0.676153 0.676153
0.678661 0.678661 0.678661
0.689298 0.689298 0.689298
0.702488 0.702488 0.702488
0.722232 0.722232 0.722232
0.753949 0.753949 0.753949
0.792894 0.792894 0.792894
0.830996 0.830996 0.830996
0.865101 0.865101 0.865101
0.741563 0.741563 0.741563
0.753173 0.753173 0.753173
0.772802 0.772802 0.772802
0.793740 0.793740 0.793740
0.820239 0.820239 0.820239
0.849922 0.849922 0.849922
0.880699 0.880699 0.880699
0.907677 0.907677 0.907677
0.929924 0.929924 0.929924
0.105600 0.105600 0.105600
0.097322 0.097322 0.097322
0.163809 0.163809 0.163809
0.232021 0.232021 0.232021
0.286821 0.286821 0.286821
0.390505 0.390505 0.390505
0.470342 0.470342 0.470342
0.527538 0.527538 0.527538
0.536592 0.536592 0.536592
0.122767 0.122767 0.122767
0.133915 0.133915 0.133915
0.201715 0.201715 0.201715
0.263552 0.263552 0.263552
0.308090 0.308090 0.308090
0.370097 0.370097 0.370097
0.453471 0.453471 0.453471
0.529234 0.529234 0.529234
0.564890 0.564890 0.564890
0.195307 0.195307 0.195307
0.222311 0.222311 0.222311
0.274463 0.274463 0.274463
0.325267 0.325267 0.325267
0.364289 0.364289 0.364289
0.411341 0.411341 0.411341
0.476817 0.476817 0.476817
0.546961 0.546961 0.546961
0.604692 0.604692 0.604692
0.269257 0.269257 0.269257
0.283050 0.283050 0.283050
0.341613 0.341613 0.341613
0.392717 0.392717 0.392717
0.430707 0.430707 0.430707
0.470057 0.470057 0.470057
0.523008 0.523008 0.523008
0.580917 0.580917 0.580917
0.633780 0.633780 0.633780
0.326200 0.326200 0.326200
0.343105 0.343105 0.343105
0.397737 0.397737 0.397737
0.447192 0.447192 0.447192
0.483105 0.483105 0.483105
0.518667 0.518667 0.518667
0.564985 0.564985 0.564985
0.614400 0.614400 0.614400
0.662118 0.662118 0.662118
0.424803 0.424803 0.424803
0.432942 0.432942 0.432942
0.469900 0.469900 0.469900
0.511565 0.511565 0.511565
0.541985 0.541985 0.541985
0.577593 0.577593 0.577593
0.623040 0.623040 0.623040
0.671295 0.671295 0.671295
0.718273 0.718273 0.718273
0.558248 0.558248 0.558248
0.559315 0.559315 0.559315
0.577490 0.577490 0.577490
0.605834 0.605834 0.605834
0.628779 0.628779 0.628779
0.663814 0.663814 0.663814
0.706302 0.706302 0.706302
0.750155 0.750155 0.750155
0.792284 0.792284 0.792284
0.676075 0.676075 0.676075
0.680984 0.680984 0.680984
0.694544 0.694544 0.694544
0.708908 0.708908 0.708908
0.729436 0.729436 0.729436
0.763142 0.763142 0.763142
0.800481 0.800481 0.800481
0.836906 0.836906 0.836906
0.870926 0.870926 0.870926
0.752247 0.752247 0.752247
0.763775 0.763775 0.763775
0.782850 0.782850 0.782850
0.799940 0.799940 0.799940
0.825833 0.825833 0.825833
0.857578 0.857578 0.857578
0.888081 0.888081 0.888081
0.915084 0.915084 0.915084
0.938535 0.938535 0.938535
0.127983 0.127983 0.127983
0.109914 0.109914 0.109914
0.177259 0.177259 0.177259
0.249163 0.249163 0.249163
0.299198 0.299198 0.299198
0.365502 0.365502 0.365502
0.439343 0.439343 0.439343
0.511100 0.511100 0.511100
0.538424 0.538424 0.538424
0.136575 0.136575 0.136575
0.137773 0.137773 0.137773
0.204898 0.204898 0.204898
0.272627 0.272627 0.272627
0.322057 0.322057 0.322057
0.380375 0.380375 0.380375
0.450711 0.450711 0.450711
0.524981 0.524981 0.524981
0.573649 0.573649 0.573649
0.207705 0.207705 0.207705
0.213919 0.213919 0.213919
0.287123 0.287123 0.287123
0.341479 0.341479 0.341479
0.380816 0.380816 0.380816
0.426957 0.426957 0.426957
0.488140 0.488140 0.488140
0.554702 0.554702 0.554702
0.613399 0.613399 0.613399
0.286774 0.286774 0.286774
0.307031 0.307031 0.307031
0.360824 0.360824 0.360824
0.410685 0.410685 0.410685
0.448117 0.448117 0.448117
0.486229 0.486229 0.486229
0.537345 0.537345 0.537345
0.592669 0.592669 0.592669
0.644094 0.644094 0.644094
0.342707 0.342707 0.342707
0.362140 0.362140 0.362140
0.415762 0.415762 0.415762
0.464564 0.464564 0.464564
0.499997 0.499997 0.499997
0.534462 0.534462 0.534462
0.578988 0.578988 0.578988
0.626614 0.626614 0.626614
0.673093 0.673093 0.673093
0.423341 0.423341 0.423341
0.445150 0.445150 0.445150
0.484771 0.484771 0.484771
0.526290 0.526290 0.526290
0.556350 0.556350 0.556350
0.591232 0.591232 0.591232
0.635366 0.635366 0.635366
0.682302 0.682302 0.682302
0.728819 0.728819 0.728819
0.555109 0.555109 0.555109
0.563445 0.563445 0.563445
0.587693 0.587693 0.587693
0.617019 0.617019 0.617019
0.639847 0.639847 0.639847
0.674492 0.674492 0.674492
0.716398 0.716398 0.716398
0.760067 0.760067 0.760067
0.803056 0.803056 0.803056
0.681392 0.681392 0.681392
0.688165 0.688165 0.688165
0.702790 0.702790 0.702790
0.718250 0.718250 0.718250
0.739956 0.739956 0.739956
0.773649 0.773649 0.773649
0.811097 0.811097 0.811097
0.847926 0.847926 0.847926
0.882566 0.882566 0.882566
0.770239 0.770239 0.770239
0.781065 0.781065 0.781065
0.798430 0.798430 0.798430
0.812477 0.812477 0.812477
0.838952 0.838952 0.838952
0.870221 0.870221 0.870221
0.900456 0.900456 0.900456
0.927522 0.927522 0.927522
0.951229 0.951229 0.951229
0.138681 0.138681 0.138681
0.120716 0.120716 0.120716
0.179153 0.179153 0.179153
0.250584 0.250584 0.250584
0.307213 0.307213 0.307213
0.372958 0.372958 0.372958
0.444782 0.444782 0.444782
0.513373 0.513373 0.513373
0.559533 0.559533 0.559533
0.150037 0.150037 0.150037
0.143592 0.143592 0.143592
0.208965 0.208965 0.208965
0.276810 0.276810 0.276810
0.330456 0.330456 0.330456
0.393572 0.393572 0.393572
0.465681 0.465681 0.465681
0.534896 0.534896 0.534896
0.592964 0.592964 0.592964
0.213005 0.213005 0.213005
0.215070 0.215070 0.215070
0.282832 0.282832 0.282832
0.343907 0.343907 0.343907
0.390803 0.390803 0.390803
0.442233 0.442233 0.442233
0.505549 0.505549 0.505549
0.569452 0.569452 0.569452
0.627920 0.627920 0.627920
0.299942 0.299942 0.299942
0.320986 0.320986 0.320986
0.380636 0.380636 0.380636
0.427969 0.427969 0.427969
0.464559 0.464559 0.464559
0.502555 0.502555 0.502555
0.553469 0.553469 0.553469
0.608351 0.608351 0.608351
0.659456 0.659456 0.659456
0.355675 0.355675 0.355675
0.388159 0.388159 0.388159
0.435754 0.435754 0.435754
0.481717 0.481717 0.481717
0.515641 0.515641 0.515641
0.549867 0.549867 0.549867
0.594216 0.594216 0.594216
0.641920 0.641920 0.641920
0.688829 0.688829 0.688829
0.438887 0.438887 0.438887
0.465822 0.465822 0.465822
0.504292 0.504292 0.504292
0.543622 0.543622 0.543622
0.572453 0.572453 0.572453
0.607272 0.607272 0.607272
0.651137 0.651137 0.651137
0.697908 0.697908 0.697908
0.744546 0.744546 0.744546
0.565892 0.565892 0.565892
0.580026 0.580026 0.580026
0.605737 0.605737 0.605737
0.633564 0.633564 0.633564
0.655904 0.655904 0.655904
0.690446 0.690446 0.690446
0.732074 0.732074 0.732074
0.775498 0.775498 0.775498
0.818343 0.818343 0.818343
0.693344 0.693344 0.693344
0.703000 0.703000 0.703000
0.719182 0.719182 0.719182
0.733748 0.733748 0.733748
0.756005 0.756005 0.756005
0.789362 0.789362 0.789362
0.826238 0.826238 0.826238
0.862550 0.862550 0.862550
0.896749 0.896749 0.896749
0.792122 0.792122 0.792122
0.801929 0.801929 0.801929
0.814262 0.814262 0.814262
0.828785 0.828785 0.828785
0.854805 0.854805 0.854805
0.885212 0.885212 0.885212
0.914668 0.914668 0.914668
0.941135 0.941135 0.941135
0.964358 0.964358 0.964358
0.162638 0.162638 0.162638
0.156001 0.156001 0.156001
0.202191 0.202191 0.202191
0.264772 0.264772 0.264772
0.319455 0.319455 0.319455
0.385423 0.385423 0.385423
0.458293 0.458293 0.458293
0.527022 0.527022 0.527022
0.585688 0.585688 0.585688
0.173175 0.173175 0.173175
0.168230 0.168230 0.168230
0.216391 0.216391 0.216391
0.278405 0.278405 0.278405
0.335273 0.335273 0.335273
0.402612 0.402612 0.402612
0.480527 0.480527 0.480527
0.552664 0.552664 0.552664
0.614012 0.614012 0.614012
0.220026 0.220026 0.220026
0.221464 0.221464 0.221464
0.282010 0.282010 0.282010
0.341627 0.341627 0.341627
0.392794 0.392794 0.392794
0.449903 0.449903 0.449903
0.520811 0.520811 0.520811
0.588625 0.588625 0.588625
0.646721 0.646721 0.646721
0.305389 0.305389 0.305389
0.314652 0.314652 0.314652
0.379143 0.379143 0.379143
0.436566 0.436566 0.436566
0.478482 0.478482 0.478482
0.518372 0.518372 0.518372
0.571064 0.571064 0.571064
0.626743 0.626743 0.626743
0.676630 0.676630 0.676630
0.370181 0.370181 0.370181
0.410442 0.410442 0.410442
0.460851 0.460851 0.460851
0.503023 0.503023 0.503023
0.534677 0.534677 0.534677
0.568517 0.568517 0.568517
0.612315 0.612315 0.612315
0.659496 0.659496 0.659496
0.706056 0.706056 0.706056
0.468867 0.468867 0.468867
0.494006 0.494006 0.494006
0.529152 0.529152 0.529152
0.565168 0.565168 0.565168
0.592115 0.592115 0.592115
0.626532 0.626532 0.626532
0.669632 0.669632 0.669632
0.715648 0.715648 0.715648
0.761614 0.761614 0.761614
0.586763 0.586763 0.586763
0.603020 0.603020 0.603020
0.627820 0.627820 0.627820
0.653070 0.653070 0.653070
0.674854 0.674854 0.674854
0.709107 0.709107 0.709107
0.749984 0.749984 0.749984
0.792474 0.792474 0.792474
0.834356 0.834356 0.834356
0.712519 0.712519 0.712519
0.722690 0.722690 0.722690
0.737516 0.737516 0.737516
0.750587 0.750587 0.750587
0.773579 0.773579 0.773579
0.806342 0.806342 0.806342
0.842174 0.842174 0.842174
0.877379 0.877379 0.877379
0.910469 0.910469 0.910469
0.813123 0.813123 0.813123
0.821124 0.821124 0.821124
0.828804 0.828804 0.828804
0.844580 0.844580 0.844580
0.870211 0.870211 0.870211
0.899554 0.899554 0.899554
0.927886 0.927886 0.927886
0.953337 0.953337 0.953337
0.975626 0.975626 0.975626
0.187241 0.187241 0.187241
0.183445 0.183445 0.183445
0.227835 0.227835 0.227835
0.282401 0.282401 0.282401
0.332194 0.332194 0.332194
0.394849 0.394849 0.394849
0.470115 0.470115 0.470115
0.540540 0.540540 0.540540
0.602101 0.602101 0.602101
0.198347 0.198347 0.198347
0.194944 0.194944 0.194944
0.241959 0.241959 0.241959
0.295704 0.295704 0.295704
0.346654 0.346654 0.346654
0.410431 0.410431 0.410431
0.490250 0.490250 0.490250
0.565873 0.565873 0.565873
0.629829 0.629829 0.629829
0.232181 0.232181 0.232181
0.230488 0.230488 0.230488
0.282316 0.282316 0.282316
0.338449 0.338449 0.338449
0.389155 0.389155 0.389155
0.448821 0.448821 0.448821
0.525660 0.525660 0.525660
0.600151 0.600151 0.600151
0.661978 0.661978 0.661978
0.307851 0.307851 0.307851
0.318031 0.318031 0.318031
0.376401 0.376401 0.376401
0.427733 0.427733 0.427733
0.471363 0.471363 0.471363
0.519158 0.519158 0.519158
0.579564 0.579564 0.579564
0.640005 0.640005 0.640005
0.691391 0.691391 0.691391
0.375523 0.375523 0.375523
0.416389 0.416389 0.416389
0.462320 0.462320 0.462320
0.512528 0.512528 0.512528
0.554084 0.554084 0.554084
0.587544 0.587544 0.587544
0.629969 0.629969 0.629969
0.675758 0.675758 0.675758
0.722380 0.722380 0.722380
0.495313 0.495313 0.495313
0.519607 0.519607 0.519607
0.555167 0.555167 0.555167
0.587287 0.587287 0.587287
0.612158 0.612158 0.612158
0.646138 0.646138 0.646138
0.688272 0.688272 0.688272
0.733237 0.733237 0.733237
0.778149 0.778149 0.778149
0.611771 0.611771 0.611771
0.628216 0.628216 0.628216
0.650835 0.650835 0.650835
0.672704 0.672704 0.672704
0.694306 0.694306 0.694306
0.728106 0.728106 0.728106
0.767812 0.767812 0.767812
0.808964 0.808964 0.808964
0.849474 0.849474 0.849474
0.733041 0.733041 0.733041
0.742548 0.742548 0.742548
0.755098 0.755098 0.755098
0.767358 0.767358 0.767358
0.791076 0.791076 0.791076
0.823001 0.823001 0.823001
0.857458 0.857458 0.857458
0.891180 0.891180 0.891180
0.922773 0.922773 0.922773
0.830572 0.830572 0.830572
0.834941 0.834941 0.834941
0.842298 0.842298 0.842298
0.859289 0.859289 0.859289
0.884443 0.884443 0.884443
0.912530 0.912530 0.912530
0.939481 0.939481 0.939481
0.963638 0.963638 0.963638
0.984722 0.984722 0.984722
0.206493 0.206493 0.206493
0.202922 0.202922 0.202922
0.249980 0.249980 0.249980
0.299323 0.299323 0.299323
0.344234 0.344234 0.344234
0.402415 0.402415 0.402415
0.477231 0.477231 0.477231
0.550109 0.550109 0.550109
0.614152 0.614152 0.614152
0.218750 0.218750 0.218750
0.215494 0.215494 0.215494
0.265504 0.265504 0.265504
0.313818 0.313818 0.313818
0.359298 0.359298 0.359298
0.418524 0.418524 0.418524
0.496980 0.496980 0.496980
0.574557 0.574557 0.574557
0.640648 0.640648 0.640648
0.250837 0.250837 0.250837
0.249113 0.249113 0.249113
0.300637 0.300637 0.300637
0.344931 0.344931 0.344931
0.388527 0.388527 0.388527
0.447719 0.447719 0.447719
0.526820 0.526820 0.526820
0.605303 0.605303 0.605303
0.670242 0.670242 0.670242
0.310084 0.310084 0.310084
0.326918 0.326918 0.326918
0.379676 0.379676 0.379676
0.426831 0.426831 0.426831
0.468048 0.468048 0.468048
0.518177 0.518177 0.518177
0.582463 0.582463 0.582463
0.646312 0.646312 0.646312
0.699236 0.699236 0.699236
0.380270 0.380270 0.380270
0.423796 0.423796 0.423796
0.463900 0.463900 0.463900
0.506639 0.506639 0.506639
0.542599 0.542599 0.542599
0.585669 0.585669 0.585669
0.635671 0.635671 0.635671
0.686589 0.686589 0.686589
0.735174 0.735174 0.735174
0.513048 0.513048 0.513048
0.536678 0.536678 0.536678
0.569359 0.569359 0.569359
0.608039 0.608039 0.608039
0.631321 0.631321 0.631321
0.665062 0.665062 0.665062
0.706228 0.706228 0.706228
0.750041 0.750041 0.750041
0.793799 0.793799 0.793799
0.637391 0.637391 0.637391
0.652965 0.652965 0.652965
0.672759 0.672759 0.672759
0.690836 0.690836 0.690836
0.713251 0.713251 0.713251
0.746547 0.746547 0.746547
0.784974 0.784974 0.784974
0.824679 0.824679 0.824679
0.863617 0.863617 0.863617
0.753157 0.753157 0.753157
0.761202 0.761202 0.761202
0.770828 0.770828 0.770828
0.783951 0.783951 0.783951
0.808173 0.808173 0.808173
0.839085 0.839085 0.839085
0.871961 0.871961 0.871961
0.903963 0.903963 0.903963
0.933867 0.933867 0.933867
0.842964 0.842964 0.842964
0.846399 0.846399 0.846399
0.855697 0.855697 0.855697
0.873483 0.873483 0.873483
0.897915 0.897915 0.897915
0.924538 0.924538 0.924538
0.949906 0.949906 0.949906
0.972576 0.972576 0.972576
0.992272 0.992272 0.992272
