tono/assets/cubes/bianco_nero_cortina_33.cube
TITLE "Cortina"
LUT_3D_SIZE 33
DOMAIN_MIN 0.0 0.0 0.0
DOMAIN_MAX 1.0 1.0 1.0
0.000000 0.000000 0.000000
0.007064 0.007064 0.007064
0.015715 0.015715 0.015715
0.026838 0.026838 0.026838
0.040434 0.040434 0.040434
0.056095 0.056095 0.056095
0.073068 0.073068 0.073068
0.091056 0.091056 0.091056
0.110664 0.110664 0.110664
0.132577 0.132577 0.132577
0.156220 0.156220 0.156220
0.179305 0.179305 0.179305
0.200363 0.200363 0.200363
0.218036 0.218036 0.218036
0.236348 0.236348 0.236348
0.259603 0.259603 0.259603
0.287156 0.287156 0.287156
0.317708 0.317708 0.317708
0.350917 0.350917 0.350917
0.385634 0.385634 0.385634
0.420868 0.420868 0.420868
0.455464 0.455464 0.455464
0.486168 0.486168 0.486168
0.506811 0.506811 0.506811
0.507407 0.507407 0.507407
0.508286 0.508286 0.508286
0.509123 0.509123 0.509123
0.509975 0.509975 0.509975
0.510994 0.510994 0.510994
0.512284 0.512284 0.512284
0.513921 0.513921 0.513921
0.515990 0.515990 0.515990
0.518588 0.518588 0.518588
0.011111 0.011111 0.011111
0.018241 0.018241 0.018241
0.027987 0.027987 0.027987
0.040879 0.040879 0.040879
0.055395 0.055395 0.055395
0.070798 0.070798 0.070798
0.087308 0.087308 0.087308
0.104777 0.104777 0.104777
0.123750 0.123750 0.123750
0.144625 0.144625 0.144625
0.166364 0.166364 0.166364
0.187807 0.187807 0.187807
0.207419 0.207419 0.207419
0.223933 0.223933 0.223933
0.242455 0.242455 0.242455
0.265804 0.265804 0.265804
0.293359 0.293359 0.293359
0.323848 0.323848 0.323848
0.356905 0.356905 0.356905
0.391360 0.391360 0.391360
0.426416 0.426416 0.426416
0.460399 0.460399 0.460399
0.482044 0.482044 0.482044
0.491250 0.491250 0.491250
0.498503 0.498503 0.498503
0.507009 0.507009 0.507009
0.510792 0.510792 0.510792
0.511813 0.511813 0.511813
0.513085 0.513085 0.513085
0.514665 0.514665 0.514665
0.516625 0.516625 0.516625
0.519049 0.519049 0.519049
0.522030 0.522030 0.522030
0.024028 0.024028 0.024028
0.030542 0.030542 0.030542
0.039705 0.039705 0.039705
0.052395 0.052395 0.052395
0.068128 0.068128 0.068128
0.084405 0.084405 0.084405
0.101512 0.101512 0.101512
0.119220 0.119220 0.119220
0.136957 0.136957 0.136957
0.156317 0.156317 0.156317
0.176558 0.176558 0.176558
0.196578 0.196578 0.196578
0.214814 0.214814 0.214814
0.230438 0.230438 0.230438
0.249226 0.249226 0.249226
0.272713 0.272713 0.272713
0.300293 0.300293 0.300293
0.330724 0.330724 0.330724
0.363614 0.363614 0.363614
0.397767 0.397767 0.397767
0.418954 0.418954 0.418954
0.436835 0.436835 0.436835
0.452608 0.452608 0.452608
0.468962 0.468962 0.468962
0.483709 0.483709 0.483709
0.496997 0.496997 0.496997
0.509160 0.509160 0.509160
0.514476 0.514476 0.514476
0.516018 0.516018 0.516018
0.517897 0.517897 0.517897
0.520183 0.520183 0.520183
0.522957 0.522957 0.522957
0.526306 0.526306 0.526306
0.038881 0.038881 0.038881
0.045006 0.045006 0.045006
0.053118 0.053118 0.053118
0.064031 0.064031 0.064031
0.077711 0.077711 0.077711
0.093666 0.093666 0.093666
0.110315 0.110315 0.110315
0.127357 0.127357 0.127357
0.144638 0.144638 0.144638
0.162974 0.162974 0.162974
0.182396 0.182396 0.182396
0.201784 0.201784 0.201784
0.219458 0.219458 0.219458
0.234259 0.234259 0.234259
0.251038 0.251038 0.251038
0.271006 0.271006 0.271006
0.293006 0.293006 0.293006
0.315719 0.315719 0.315719
0.338176 0.338176 0.338176
0.360987 0.360987 0.360987
0.383857 0.383857 0.383857
0.406402 0.406402 0.406402
0.428925 0.428925 0.428925
0.450510 0.450510 0.450510
0.469604 0.469604 0.469604
0.486447 0.486447 0.486447
0.501673 0.501673 0.501673
0.514877 0.514877 0.514877
0.520226 0.520226 0.520226
0.522417 0.522417 0.522417
0.525038 0.525038 0.525038
0.528162 0.528162 0.528162
0.531868 0.531868 0.531868
0.055283 0.055283 0.055283
0.061245 0.061245 0.061245
0.068836 0.068836 0.068836
0.078558 0.078558 0.078558
0.090748 0.090748 0.090748
0.104159 0.104159 0.104159
0.119349 0.119349 0.119349
0.135537 0.135537 0.135537
0.151725 0.151725 0.151725
0.167717 0.167717 0.167717
0.183904 0.183904 0.183904
0.200614 0.200614 0.200614
0.217073 0.217073 0.217073
0.232102 0.232102 0.232102
0.244976 0.244976 0.244976
0.259761 0.259761 0.259761
0.277512 0.277512 0.277512
0.297677 0.297677 0.297677
0.319669 0.319669 0.319669
0.342682 0.342682 0.342682
0.366178 0.366178 0.366178
0.389830 0.389830 0.389830
0.413142 0.413142 0.413142
0.436604 0.436604 0.436604
0.457979 0.457979 0.457979
0.477097 0.477097 0.477097
0.494594 0.494594 0.494594
0.510174 0.510174 0.510174
0.522927 0.522927 0.522927
0.528406 0.528406 0.528406
0.531350 0.531350 0.531350
0.534802 0.534802 0.534802
0.538832 0.538832 0.538832
0.072942 0.072942 0.072942
0.078773 0.078773 0.078773
0.086069 0.086069 0.086069
0.095259 0.095259 0.095259
0.106689 0.106689 0.106689
0.119385 0.119385 0.119385
0.132933 0.132933 0.132933
0.147493 0.147493 0.147493
0.163453 0.163453 0.163453
0.179052 0.179052 0.179052
0.194101 0.194101 0.194101
0.208834 0.208834 0.208834
0.223642 0.223642 0.223642
0.237933 0.237933 0.237933
0.250744 0.250744 0.250744
0.262757 0.262757 0.262757
0.277563 0.277563 0.277563
0.295010 0.295010 0.295010
0.314667 0.314667 0.314667
0.336043 0.336043 0.336043
0.358584 0.358584 0.358584
0.381432 0.381432 0.381432
0.404459 0.404459 0.404459
0.427748 0.427748 0.427748
0.450036 0.450036 0.450036
0.470332 0.470332 0.470332
0.489232 0.489232 0.489232
0.506431 0.506431 0.506431
0.521081 0.521081 0.521081
0.533725 0.533725 0.533725
0.539129 0.539129 0.539129
0.542867 0.542867 0.542867
0.547165 0.547165 0.547165
0.091568 0.091568 0.091568
0.097275 0.097275 0.097275
0.104429 0.104429 0.104429
0.113126 0.113126 0.113126
0.124133 0.124133 0.124133
0.136371 0.136371 0.136371
0.149477 0.149477 0.149477
0.163151 0.163151 0.163151
0.177137 0.177137 0.177137
0.192521 0.192521 0.192521
0.207628 0.207628 0.207628
0.221871 0.221871 0.221871
0.235392 0.235392 0.235392
0.248532 0.248532 0.248532
0.260831 0.260831 0.260831
0.271782 0.271782 0.271782
0.284409 0.284409 0.284409
0.299636 0.299636 0.299636
0.317140 0.317140 0.317140
0.336538 0.336538 0.336538
0.357402 0.357402 0.357402
0.379269 0.379269 0.379269
0.401415 0.401415 0.401415
0.423918 0.423918 0.423918
0.446237 0.446237 0.446237
0.466885 0.466885 0.466885
0.486428 0.486428 0.486428
0.504572 0.504572 0.504572
0.520636 0.520636 0.520636
0.534539 0.534539 0.534539
0.547002 0.547002 0.547002
0.552211 0.552211 0.552211
0.556704 0.556704 0.556704
0.110875 0.110875 0.110875
0.116457 0.116457 0.116457
0.123459 0.123459 0.123459
0.131702 0.131702 0.131702
0.142453 0.142453 0.142453
0.154402 0.154402 0.154402
0.167187 0.167187 0.167187
0.180558 0.180558 0.180558
0.194235 0.194235 0.194235
0.207977 0.207977 0.207977
0.221875 0.221875 0.221875
0.236382 0.236382 0.236382
0.249799 0.249799 0.249799
0.262163 0.262163 0.262163
0.273687 0.273687 0.273687
0.284025 0.284025 0.284025
0.294996 0.294996 0.294996
0.308520 0.308520 0.308520
0.324279 0.324279 0.324279
0.341955 0.341955 0.341955
0.361192 0.361192 0.361192
0.381601 0.381601 0.381601
0.402772 0.402772 0.402772
0.424604 0.424604 0.424604
0.446429 0.446429 0.446429
0.466872 0.466872 0.466872
0.486481 0.486481 0.486481
0.505000 0.505000 0.505000
0.522013 0.522013 0.522013
0.536689 0.536689 0.536689
0.550089 0.550089 0.550089
0.562267 0.562267 0.562267
0.567184 0.567184 0.567184
0.130567 0.130567 0.130567
0.136015 0.136015 0.136015
0.142858 0.142858 0.142858
0.150667 0.150667 0.150667
0.161222 0.161222 0.161222
0.173004 0.173004 0.173004
0.185567 0.185567 0.185567
0.198701 0.198701 0.198701
0.212156 0.212156 0.212156
0.225675 0.225675 0.225675
0.239025 0.239025 0.239025
0.251990 0.251990 0.251990
0.264661 0.264661 0.264661
0.277099 0.277099 0.277099
0.288250 0.288250 0.288250
0.298154 0.298154 0.298154
0.307745 0.307745 0.307745
0.319681 0.319681 0.319681
0.334069 0.334069 0.334069
0.350402 0.350402 0.350402
0.368295 0.368295 0.368295
0.387408 0.387408 0.387408
0.407385 0.407385 0.407385
0.428506 0.428506 0.428506
0.449952 0.449952 0.449952
0.469941 0.469941 0.469941
0.489236 0.489236 0.489236
0.507705 0.507705 0.507705
0.525004 0.525004 0.525004
0.540303 0.540303 0.540303
0.554220 0.554220 0.554220
0.567050 0.567050 0.567050
0.578275 0.578275 0.578275
0.150337 0.150337 0.150337
0.155640 0.155640 0.155640
0.162307 0.162307 0.162307
0.169900 0.169900 0.169900
0.180068 0.180068 0.180068
0.191790 0.191790 0.191790
0.204208 0.204208 0.204208
0.217173 0.217173 0.217173
0.230450 0.230450 0.230450
0.243798 0.243798 0.243798
0.256977 0.256977 0.256977
0.269771 0.269771 0.269771
0.281971 0.281971 0.281971
0.293366 0.293366 0.293366
0.303743 0.303743 0.303743
0.313082 0.313082 0.313082
0.321938 0.321938 0.321938
0.332537 0.332537 0.332537
0.345247 0.345247 0.345247
0.360164 0.360164 0.360164
0.377104 0.377104 0.377104
0.395242 0.395242 0.395242
0.414327 0.414327 0.414327
0.434938 0.434938 0.434938
0.455637 0.455637 0.455637
0.475213 0.475213 0.475213
0.494237 0.494237 0.494237
0.512372 0.512372 0.512372
0.529550 0.529550 0.529550
0.545257 0.545257 0.545257
0.559334 0.559334 0.559334
0.572456 0.572456 0.572456
0.584651 0.584651 0.584651
0.169859 0.169859 0.169859
0.175008 0.175008 0.175008
0.181478 0.181478 0.181478
0.188837 0.188837 0.188837
0.198639 0.198639 0.198639
0.210407 0.210407 0.210407
0.222750 0.222750 0.222750
0.235605 0.235605 0.235605
0.248754 0.248754 0.248754
0.261962 0.261962 0.261962
0.275001 0.275001 0.275001
0.287652 0.287652 0.287652
0.299711 0.299711 0.299711
0.310984 0.310984 0.310984
0.321275 0.321275 0.321275
0.330394 0.330394 0.330394
0.338455 0.338455 0.338455
0.347690 0.347690 0.347690
0.358402 0.358402 0.358402
0.371250 0.371250 0.371250
0.386414 0.386414 0.386414
0.403575 0.403575 0.403575
0.423055 0.423055 0.423055
0.442999 0.442999 0.442999
0.462967 0.462967 0.462967
0.481956 0.481956 0.481956
0.500449 0.500449 0.500449
0.518368 0.518368 0.518368
0.535353 0.535353 0.535353
0.551245 0.551245 0.551245
0.565216 0.565216 0.565216
0.578332 0.578332 0.578332
0.590615 0.590615 0.590615
0.188787 0.188787 0.188787
0.193763 0.193763 0.193763
0.200020 0.200020 0.200020
0.207122 0.207122 0.207122
0.216587 0.216587 0.216587
0.228509 0.228509 0.228509
0.240847 0.240847 0.240847
0.253650 0.253650 0.253650
0.266719 0.266719 0.266719
0.279826 0.279826 0.279826
0.292749 0.292749 0.292749
0.305275 0.305275 0.305275
0.317204 0.317204 0.317204
0.328347 0.328347 0.328347
0.338525 0.338525 0.338525
0.347561 0.347561 0.347561
0.355453 0.355453 0.355453
0.364286 0.364286 0.364286
0.374557 0.374557 0.374557
0.386050 0.386050 0.386050
0.398554 0.398554 0.398554
0.413535 0.413535 0.413535
0.432351 0.432351 0.432351
0.451898 0.451898 0.451898
0.471256 0.471256 0.471256
0.489673 0.489673 0.489673
0.507610 0.507610 0.507610
0.525016 0.525016 0.525016
0.541641 0.541641 0.541641
0.557385 0.557385 0.557385
0.571560 0.571560 0.571560
0.584438 0.584438 0.584438
0.596562 0.596562 0.596562
0.212330 0.212330 0.212330
0.217206 0.217206 0.217206
0.222731 0.222731 0.222731
0.228383 0.228383 0.228383
0.235501 0.235501 0.235501
0.245757 0.245757 0.245757
0.258160 0.258160 0.258160
0.270969 0.270969 0.270969
0.284008 0.284008 0.284008
0.297057 0.297057 0.297057
0.309894 0.309894 0.309894
0.322313 0.322313 0.322313
0.334119 0.334119 0.334119
0.345130 0.345130 0.345130
0.355175 0.355175 0.355175
0.364091 0.364091 0.364091
0.371822 0.371822 0.371822
0.380314 0.380314 0.380314
0.390199 0.390199 0.390199
0.401263 0.401263 0.401263
0.413300 0.413300 0.413300
0.426116 0.426116 0.426116
0.442459 0.442459 0.442459
0.461168 0.461168 0.461168
0.479959 0.479959 0.479959
0.497829 0.497829 0.497829
0.515215 0.515215 0.515215
0.532063 0.532063 0.532063
0.548175 0.548175 0.548175
0.563488 0.563488 0.563488
0.577764 0.577764 0.577764
0.590352 0.590352 0.590352
0.602213 0.602213 0.602213
0.239865 0.239865 0.239865
0.244199 0.244199 0.244199
0.248395 0.248395 0.248395
0.252681 0.252681 0.252681
0.258113 0.258113 0.258113
0.266396 0.266396 0.266396
0.276191 0.276191 0.276191
0.287227 0.287227 0.287227
0.300291 0.300291 0.300291
0.312749 0.312749 0.312749
0.326112 0.326112 0.326112
0.338447 0.338447 0.338447
0.350141 0.350141 0.350141
0.361019 0.361019 0.361019
0.370917 0.370917 0.370917
0.379684 0.379684 0.379684
0.387246 0.387246 0.387246
0.395452 0.395452 0.395452
0.404999 0.404999 0.404999
0.415675 0.415675 0.415675
0.427280 0.427280 0.427280
0.439622 0.439622 0.439622
0.453772 0.453772 0.453772
0.470772 0.470772 0.470772
0.488816 0.488816 0.488816
0.506102 0.506102 0.506102
0.522885 0.522885 0.522885
0.539115 0.539115 0.539115
0.554641 0.554641 0.554641
0.569433 0.569433 0.569433
0.583438 0.583438 0.583438
0.595796 0.595796 0.595796
0.607180 0.607180 0.607180
0.266150 0.266150 0.266150
0.269225 0.269225 0.269225
0.272382 0.272382 0.272382
0.275727 0.275727 0.275727
0.280002 0.280002 0.280002
0.287046 0.287046 0.287046
0.295833 0.295833 0.295833
0.305790 0.305790 0.305790
0.316539 0.316539 0.316539
0.328301 0.328301 0.328301
0.342204 0.342204 0.342204
0.353256 0.353256 0.353256
0.364957 0.364957 0.364957
0.375706 0.375706 0.375706
0.385448 0.385448 0.385448
0.394041 0.394041 0.394041
0.401420 0.401420 0.401420
0.409393 0.409393 0.409393
0.418650 0.418650 0.418650
0.428979 0.428979 0.428979
0.440183 0.440183 0.440183
0.452075 0.452075 0.452075
0.465490 0.465490 0.465490
0.480977 0.480977 0.480977
0.497799 0.497799 0.497799
0.514306 0.514306 0.514306
0.530350 0.530350 0.530350
0.545865 0.545865 0.545865
0.560730 0.560730 0.560730
0.574921 0.574921 0.574921
0.588370 0.588370 0.588370
0.600790 0.600790 0.600790
0.612034 0.612034 0.612034
0.287803 0.287803 0.287803
0.290181 0.290181 0.290181
0.292691 0.292691 0.292691
0.295392 0.295392 0.295392
0.299025 0.299025 0.299025
0.305657 0.305657 0.305657
0.314039 0.314039 0.314039
0.323463 0.323463 0.323463
0.333587 0.333587 0.333587
0.344237 0.344237 0.344237
0.358589 0.358589 0.358589
0.369395 0.369395 0.369395
0.379472 0.379472 0.379472
0.388879 0.388879 0.388879
0.398461 0.398461 0.398461
0.406863 0.406863 0.406863
0.414050 0.414050 0.414050
0.421845 0.421845 0.421845
0.430858 0.430858 0.430858
0.440881 0.440881 0.440881
0.451718 0.451718 0.451718
0.463565 0.463565 0.463565
0.476878 0.476878 0.476878
0.491119 0.491119 0.491119
0.506718 0.506718 0.506718
0.522198 0.522198 0.522198
0.537418 0.537418 0.537418
0.552291 0.552291 0.552291
0.566748 0.566748 0.566748
0.580761 0.580761 0.580761
0.594294 0.594294 0.594294
0.607338 0.607338 0.607338
0.619039 0.619039 0.619039
0.309257 0.309257 0.309257
0.311314 0.311314 0.311314
0.313517 0.313517 0.313517
0.315931 0.315931 0.315931
0.318463 0.318463 0.318463
0.323591 0.323591 0.323591
0.331061 0.331061 0.331061
0.339957 0.339957 0.339957
0.349644 0.349644 0.349644
0.359643 0.359643 0.359643
0.373019 0.373019 0.373019
0.383935 0.383935 0.383935
0.393894 0.393894 0.393894
0.402931 0.402931 0.402931
0.411274 0.411274 0.411274
0.418022 0.418022 0.418022
0.425039 0.425039 0.425039
0.432757 0.432757 0.432757
0.441647 0.441647 0.441647
0.451562 0.451562 0.451562
0.462886 0.462886 0.462886
0.475149 0.475149 0.475149
0.488249 0.488249 0.488249
0.502210 0.502210 0.502210
0.516904 0.516904 0.516904
0.531640 0.531640 0.531640
0.546369 0.546369 0.546369
0.560931 0.560931 0.560931
0.575237 0.575237 0.575237
0.589210 0.589210 0.589210
0.602803 0.602803 0.602803
0.616002 0.616002 0.616002
0.628399 0.628399 0.628399
0.334529 0.334529 0.334529
0.336255 0.336255 0.336255
0.338123 0.338123 0.338123
0.340222 0.340222 0.340222
0.340897 0.340897 0.340897
0.345154 0.345154 0.345154
0.351822 0.351822 0.351822
0.359746 0.359746 0.359746
0.368739 0.368739 0.368739
0.378264 0.378264 0.378264
0.387899 0.387899 0.387899
0.400410 0.400410 0.400410
0.410269 0.410269 0.410269
0.419199 0.419199 0.419199
0.427139 0.427139 0.427139
0.434131 0.434131 0.434131
0.440407 0.440407 0.440407
0.447713 0.447713 0.447713
0.455731 0.455731 0.455731
0.466007 0.466007 0.466007
0.477322 0.477322 0.477322
0.489568 0.489568 0.489568
0.502679 0.502679 0.502679
0.516539 0.516539 0.516539
0.530380 0.530380 0.530380
0.544280 0.544280 0.544280
0.558370 0.558370 0.558370
0.572512 0.572512 0.572512
0.586537 0.586537 0.586537
0.600347 0.600347 0.600347
0.613884 0.613884 0.613884
0.627125 0.627125 0.627125
0.640073 0.640073 0.640073
0.363907 0.363907 0.363907
0.365359 0.365359 0.365359
0.366944 0.366944 0.366944
0.368773 0.368773 0.368773
0.366884 0.366884 0.366884
0.369768 0.369768 0.369768
0.375380 0.375380 0.375380
0.382911 0.382911 0.382911
0.391212 0.391212 0.391212
0.400071 0.400071 0.400071
0.409226 0.409226 0.409226
0.419924 0.419924 0.419924
0.429489 0.429489 0.429489
0.438216 0.438216 0.438216
0.446014 0.446014 0.446014
0.452819 0.452819 0.452819
0.458945 0.458945 0.458945
0.466188 0.466188 0.466188
0.474704 0.474704 0.474704
0.484438 0.484438 0.484438
0.495337 0.495337 0.495337
0.507287 0.507287 0.507287
0.520025 0.520025 0.520025
0.533132 0.533132 0.533132
0.546443 0.546443 0.546443
0.559858 0.559858 0.559858
0.573373 0.573373 0.573373
0.587004 0.587004 0.587004
0.600633 0.600633 0.600633
0.614162 0.614162 0.614162
0.627526 0.627526 0.627526
0.640693 0.640693 0.640693
0.653898 0.653898 0.653898
0.396798 0.396798 0.396798
0.398034 0.398034 0.398034
0.399389 0.399389 0.399389
0.398505 0.398505 0.398505
0.395894 0.395894 0.395894
0.397622 0.397622 0.397622
0.402014 0.402014 0.402014
0.408409 0.408409 0.408409
0.416238 0.416238 0.416238
0.424801 0.424801 0.424801
0.433279 0.433279 0.433279
0.441825 0.441825 0.441825
0.451326 0.451326 0.451326
0.459662 0.459662 0.459662
0.467109 0.467109 0.467109
0.473578 0.473578 0.473578
0.479652 0.479652 0.479652
0.486983 0.486983 0.486983
0.495526 0.495526 0.495526
0.505175 0.505175 0.505175
0.515784 0.515784 0.515784
0.527121 0.527121 0.527121
0.539159 0.539159 0.539159
0.551711 0.551711 0.551711
0.564584 0.564584 0.564584
0.577691 0.577691 0.577691
0.590944 0.590944 0.590944
0.604204 0.604204 0.604204
0.617393 0.617393 0.617393
0.630553 0.630553 0.630553
0.643649 0.643649 0.643649
0.656751 0.656751 0.656751
0.669798 0.669798 0.669798
0.432521 0.432521 0.432521
0.433588 0.433588 0.433588
0.434762 0.434762 0.434762
0.429743 0.429743 0.429743
0.427296 0.427296 0.427296
0.428121 0.428121 0.428121
0.431420 0.431420 0.431420
0.436714 0.436714 0.436714
0.443507 0.443507 0.443507
0.451296 0.451296 0.451296
0.459627 0.459627 0.459627
0.467649 0.467649 0.467649
0.475526 0.475526 0.475526
0.483307 0.483307 0.483307
0.490243 0.490243 0.490243
0.496220 0.496220 0.496220
0.502273 0.502273 0.502273
0.509649 0.509649 0.509649
0.518185 0.518185 0.518185
0.527392 0.527392 0.527392
0.537455 0.537455 0.537455
0.548369 0.548369 0.548369
0.559965 0.559965 0.559965
0.572078 0.572078 0.572078
0.584610 0.584610 0.584610
0.597425 0.597425 0.597425
0.610405 0.610405 0.610405
0.623411 0.623411 0.623411
0.636359 0.636359 0.636359
0.649227 0.649227 0.649227
0.662003 0.662003 0.662003
0.674718 0.674718 0.674718
0.687409 0.687409 0.687409
0.470302 0.470302 0.470302
0.471236 0.471236 0.471236
0.468718 0.468718 0.468718
0.462770 0.462770 0.462770
0.460438 0.460438 0.460438
0.460612 0.460612 0.460612
0.463000 0.463000 0.463000
0.467294 0.467294 0.467294
0.473086 0.473086 0.473086
0.479915 0.479915 0.479915
0.487329 0.487329 0.487329
0.494930 0.494930 0.494930
0.502379 0.502379 0.502379
0.508872 0.508872 0.508872
0.515157 0.515157 0.515157
0.520563 0.520563 0.520563
0.526575 0.526575 0.526575
0.533513 0.533513 0.533513
0.541510 0.541510 0.541510
0.550518 0.550518 0.550518
0.560409 0.560409 0.560409
0.571038 0.571038 0.571038
0.582307 0.582307 0.582307
0.594109 0.594109 0.594109
0.606315 0.606315 0.606315
0.618805 0.618805 0.618805
0.631474 0.631474 0.631474
0.644190 0.644190 0.644190
0.656870 0.656870 0.656870
0.669484 0.669484 0.669484
0.682025 0.682025 0.682025
0.694491 0.694491 0.694491
0.706890 0.706890 0.706890
0.509267 0.509267 0.509267
0.507143 0.507143 0.507143
0.500924 0.500924 0.500924
0.496823 0.496823 0.496823
0.494652 0.494652 0.494652
0.494416 0.494416 0.494416
0.496103 0.496103 0.496103
0.499547 0.499547 0.499547
0.504426 0.504426 0.504426
0.510331 0.510331 0.510331
0.516832 0.516832 0.516832
0.523533 0.523533 0.523533
0.530025 0.530025 0.530025
0.535129 0.535129 0.535129
0.540669 0.540669 0.540669
0.545340 0.545340 0.545340
0.551009 0.551009 0.551009
0.557944 0.557944 0.557944
0.565957 0.565957 0.565957
0.574886 0.574886 0.574886
0.584620 0.584620 0.584620
0.595050 0.595050 0.595050
0.606069 0.606069 0.606069
0.617569 0.617569 0.617569
0.629442 0.629442 0.629442
0.641584 0.641584 0.641584
0.653904 0.653904 0.653904
0.666284 0.666284 0.666284
0.678644 0.678644 0.678644
0.690955 0.690955 0.690955
0.703204 0.703204 0.703204
0.715384 0.715384 0.715384
0.727501 0.727501 0.727501
0.542812 0.542812 0.542812
0.536721 0.536721 0.536721
0.532908 0.532908 0.532908
0.529830 0.529830 0.529830
0.527915 0.527915 0.527915
0.527485 0.527485 0.527485
0.528670 0.528670 0.528670
0.531398 0.531398 0.531398
0.535417 0.535417 0.535417
0.540369 0.540369 0.540369
0.545869 0.545869 0.545869
0.551542 0.551542 0.551542
0.557060 0.557060 0.557060
0.562152 0.562152 0.562152
0.565606 0.565606 0.565606
0.570313 0.570313 0.570313
0.576377 0.576377 0.576377
0.583558 0.583558 0.583558
0.591537 0.591537 0.591537
0.600393 0.600393 0.600393
0.609995 0.609995 0.609995
0.620231 0.620231 0.620231
0.630997 0.630997 0.630997
0.642193 0.642193 0.642193
0.653725 0.653725 0.653725
0.665502 0.665502 0.665502
0.677443 0.677443 0.677443
0.689444 0.689444 0.689444
0.701433 0.701433 0.701433
0.713382 0.713382 0.713382
0.725274 0.725274 0.725274
0.737102 0.737102 0.737102
0.748866 0.748866 0.748866
0.569363 0.569363 0.569363
0.565856 0.565856 0.565856
0.563312 0.563312 0.563312
0.561027 0.561027 0.561027
0.559515 0.559515 0.559515
0.559167 0.559167 0.559167
0.560178 0.560178 0.560178
0.562533 0.562533 0.562533
0.566042 0.566042 0.566042
0.570395 0.570395 0.570395
0.575230 0.575230 0.575230
0.580192 0.580192 0.580192
0.584963 0.584963 0.584963
0.589280 0.589280 0.589280
0.592973 0.592973 0.592973
0.596188 0.596188 0.596188
0.602311 0.602311 0.602311
0.609588 0.609588 0.609588
0.617840 0.617840 0.617840
0.626838 0.626838 0.626838
0.636290 0.636290 0.636290
0.646320 0.646320 0.646320
0.656825 0.656825 0.656825
0.667712 0.667712 0.667712
0.678893 0.678893 0.678893
0.690288 0.690288 0.690288
0.701824 0.701824 0.701824
0.713409 0.713409 0.713409
0.724980 0.724980 0.724980
0.736510 0.736510 0.736510
0.747983 0.747983 0.747983
0.759388 0.759388 0.759388
0.770721 0.770721 0.770721
0.597625 0.597625 0.597625
0.595365 0.595365 0.595365
0.593640 0.593640 0.593640
0.592015 0.592015 0.592015
0.590940 0.590940 0.590940
0.590788 0.590788 0.590788
0.591762 0.591762 0.591762
0.593875 0.593875 0.593875
0.596974 0.596974 0.596974
0.600788 0.600788 0.600788
0.604988 0.604988 0.604988
0.609242 0.609242 0.609242
0.613251 0.613251 0.613251
0.616765 0.616765 0.616765
0.620003 0.620003 0.620003
0.622854 0.622854 0.622854
0.629045 0.629045 0.629045
0.636328 0.636328 0.636328
0.644526 0.644526 0.644526
0.653485 0.653485 0.653485
0.663068 0.663068 0.663068
0.673053 0.673053 0.673053
0.683289 0.683289 0.683289
0.693857 0.693857 0.693857
0.704675 0.704675 0.704675
0.715668 0.715668 0.715668
0.726773 0.726773 0.726773
0.737907 0.737907 0.737907
0.749016 0.749016 0.749016
0.760074 0.760074 0.760074
0.771066 0.771066 0.771066
0.781980 0.781980 0.781980
0.792809 0.792809 0.792809
0.625486 0.625486 0.625486
0.624060 0.624060 0.624060
0.622988 0.622988 0.622988
0.621978 0.621978 0.621978
0.621394 0.621394 0.621394
0.621553 0.621553 0.621553
0.622634 0.622634 0.622634
0.624654 0.624654 0.624654
0.627477 0.627477 0.627477
0.630858 0.630858 0.630858
0.634499 0.634499 0.634499
0.638091 0.638091 0.638091
0.641357 0.641357 0.641357
0.644074 0.644074 0.644074
0.647353 0.647353 0.647353
0.652030 0.652030 0.652030
0.656244 0.656244 0.656244
0.663553 0.663553 0.663553
0.671712 0.671712 0.671712
0.680569 0.680569 0.680569
0.689990 0.689990 0.689990
0.699855 0.699855 0.699855
0.710062 0.710062 0.710062
0.720354 0.720354 0.720354
0.730792 0.730792 0.730792
0.741363 0.741363 0.741363
0.752007 0.752007 0.752007
0.762655 0.762655 0.762655
