tono/assets/cubes/caffe_crema_33.cube
TITLE "Crema"
LUT_3D_SIZE 33
DOMAIN_MIN 0.0 0.0 0.0
DOMAIN_MAX 1.0 1.0 1.0
0.008819 0.003221 0.000000
0.035902 0.003745 0.000000
0.064494 0.004642 0.000000
0.096955 0.006073 0.000000
0.131384 0.010103 0.000000
0.167419 0.017309 0.000000
0.205156 0.026585 0.000000
0.244931 0.036565 0.000000
0.286237 0.046330 0.000000
0.327987 0.055752 0.000000
0.369764 0.064718 0.000000
0.411104 0.073186 0.000000
0.447355 0.089345 0.000119
0.481289 0.106219 0.013397
0.516338 0.124272 0.031526
0.554283 0.144276 0.052593
0.595422 0.165131 0.072865
0.638684 0.187745 0.094199
0.683586 0.211855 0.116484
0.729555 0.237126 0.139512
0.774872 0.264443 0.164378
0.817529 0.294533 0.191940
0.858675 0.323952 0.218689
0.882452 0.341127 0.234292
0.883196 0.342116 0.236122
0.883998 0.343189 0.238077
0.884718 0.344152 0.239829
0.885544 0.345256 0.241844
0.886550 0.346609 0.244281
0.887774 0.348265 0.247219
0.889262 0.350294 0.250755
0.891063 0.352773 0.254989
0.893229 0.355788 0.260021
0.010683 0.030578 0.000000
0.040169 0.030166 0.000000
0.073402 0.029280 0.000000
0.109272 0.030739 0.000000
0.146939 0.033165 0.000000
0.181928 0.039832 0.000000
0.218266 0.048298 0.000000
0.256280 0.057234 0.000000
0.296493 0.064754 0.000000
0.337313 0.072282 0.000000
0.378270 0.079688 0.000000
0.418862 0.086860 0.000000
0.454693 0.100638 0.000000
0.488152 0.115984 0.013529
0.523348 0.133061 0.032477
0.561349 0.152297 0.054110
0.602535 0.172475 0.074681
0.645780 0.194516 0.096251
0.690598 0.218134 0.118710
0.736409 0.242969 0.141849
0.780971 0.270507 0.167469
0.823290 0.300129 0.194978
0.846736 0.317212 0.210059
0.858779 0.326548 0.217598
0.869811 0.334869 0.226125
0.883563 0.345133 0.236529
0.886108 0.347548 0.239374
0.887051 0.348978 0.241292
0.888196 0.350713 0.243631
0.889569 0.352787 0.246464
0.891212 0.355266 0.249888
0.893172 0.358221 0.254004
0.895497 0.361733 0.258913
0.017102 0.058277 0.000000
0.040890 0.059548 0.000000
0.070401 0.058953 0.000000
0.111111 0.056729 0.000000
0.151860 0.057424 0.000000
0.190063 0.061354 0.000000
0.228862 0.067325 0.000000
0.268161 0.074742 0.000000
0.307422 0.080896 0.000000
0.347376 0.087190 0.000000
0.387538 0.093483 0.000000
0.427370 0.099662 0.000000
0.462680 0.111631 0.000000
0.495785 0.125756 0.013893
0.531151 0.142007 0.033779
0.569238 0.160551 0.055962
0.610475 0.180123 0.076852
0.653698 0.201640 0.098672
0.698416 0.224796 0.121311
0.741283 0.247799 0.143097
0.767385 0.263797 0.157343
0.788208 0.278846 0.170565
0.807955 0.293343 0.183065
0.829009 0.308818 0.196468
0.848196 0.322792 0.210325
0.866892 0.336500 0.223995
0.885291 0.350200 0.237123
0.889078 0.353851 0.240718
0.890354 0.355950 0.242946
0.891867 0.358418 0.245660
0.893656 0.361318 0.248956
0.895761 0.364715 0.252936
0.898228 0.368683 0.257702
0.026521 0.088248 0.000000
0.047723 0.089796 0.000000
0.069768 0.090408 0.000000
0.101795 0.089163 0.000000
0.142668 0.087298 0.000000
0.182637 0.087791 0.000000
0.222027 0.090496 0.000000
0.261526 0.095009 0.000000
0.301713 0.100548 0.000000
0.343450 0.105333 0.000000
0.385070 0.110328 0.000000
0.425847 0.115384 0.000000
0.463258 0.122877 0.000000
0.495554 0.135006 0.008382
0.528426 0.148811 0.026295
0.561881 0.164126 0.046877
0.595274 0.179988 0.065433
0.627886 0.195649 0.081928
0.659171 0.211403 0.097602
0.690111 0.227493 0.113076
0.720634 0.243804 0.128347
0.750589 0.260197 0.143349
0.778090 0.278584 0.160501
0.804322 0.297066 0.177481
0.827764 0.313651 0.194209
0.849726 0.329390 0.210164
0.870776 0.344773 0.225115
0.889987 0.359162 0.238722
0.893280 0.362913 0.242048
0.894928 0.365772 0.244604
0.896856 0.369086 0.247729
0.899100 0.372915 0.251524
0.901699 0.377323 0.256094
0.039482 0.119557 0.000000
0.058602 0.120930 0.000000
0.075968 0.121994 0.000000
0.100339 0.121839 0.000000
0.134137 0.120507 0.000000
0.170964 0.119900 0.000000
0.208644 0.120472 0.000000
0.246438 0.122429 0.000000
0.284175 0.125725 0.000000
0.321730 0.130187 0.000000
0.360230 0.134114 0.000000
0.398208 0.138237 0.000000
0.435090 0.142505 0.000000
0.470341 0.146832 0.000000
0.500934 0.155108 0.000000
0.531314 0.166230 0.015112
0.562682 0.178985 0.035371
0.594667 0.193127 0.055671
0.627308 0.207916 0.074019
0.660243 0.223182 0.091167
0.692878 0.239080 0.107988
0.724969 0.255374 0.124421
0.755937 0.272272 0.140967
0.784128 0.291227 0.159695
0.809782 0.308725 0.178134
0.833695 0.325337 0.195702
0.856541 0.341602 0.212061
0.877701 0.357082 0.227045
0.896106 0.371095 0.240266
0.898841 0.374965 0.243270
0.900902 0.378676 0.246187
0.903275 0.382915 0.249754
0.905992 0.387738 0.254080
0.055655 0.151933 0.000000
0.071310 0.153115 0.000000
0.085489 0.154362 0.000000
0.105616 0.154417 0.000000
0.134373 0.153358 0.000000
0.167519 0.152689 0.000000
0.202941 0.152613 0.000000
0.239265 0.153352 0.000000
0.275748 0.155067 0.000000
0.312024 0.157790 0.000000
0.347863 0.161441 0.000000
0.384039 0.164912 0.000000
0.419588 0.168520 0.000000
0.453963 0.172300 0.000000
0.486746 0.176188 0.000000
0.518466 0.181100 0.000000
0.548443 0.190879 0.008262
0.579315 0.202265 0.029390
0.610780 0.215083 0.051561
0.642620 0.229025 0.071770
0.675110 0.243219 0.089431
0.707337 0.258170 0.106617
0.739051 0.273646 0.123295
0.768290 0.291355 0.142400
0.794993 0.308717 0.162050
0.819917 0.325330 0.180886
0.843815 0.341759 0.198372
0.866343 0.357719 0.214532
0.885892 0.372290 0.228606
0.903627 0.385970 0.241600
0.905812 0.390053 0.244283
0.908301 0.394669 0.247592
0.911122 0.399868 0.251640
0.071982 0.185210 0.000000
0.085221 0.186191 0.000000
0.097343 0.187297 0.000000
0.113826 0.187696 0.000000
0.138937 0.186528 0.000000
0.168758 0.185800 0.000000
0.201698 0.185520 0.000000
0.236375 0.185750 0.000000
0.271756 0.186622 0.000000
0.307176 0.188243 0.000000
0.342231 0.190651 0.000000
0.376641 0.193809 0.000000
0.411004 0.196897 0.000000
0.444477 0.200182 0.000000
0.476629 0.203662 0.000000
0.507524 0.207326 0.000000
0.539878 0.211414 0.000000
0.571296 0.218725 0.000000
0.601842 0.229097 0.022205
0.632801 0.240857 0.046896
0.663927 0.253820 0.068845
0.695522 0.267201 0.087642
0.726973 0.281184 0.105148
0.756511 0.297196 0.124698
0.783598 0.313760 0.145494
0.808910 0.329757 0.165554
0.833294 0.345781 0.184078
0.856429 0.361562 0.201120
0.877074 0.376417 0.216212
0.895840 0.390539 0.230047
0.911549 0.403089 0.241933
0.914138 0.408041 0.244970
0.917039 0.413569 0.248722
0.084619 0.219715 0.000000
0.096729 0.220493 0.000000
0.108144 0.221355 0.000000
0.122773 0.221937 0.000000
0.146130 0.220215 0.000000
0.173174 0.219261 0.000000
0.203627 0.218828 0.000000
0.236439 0.218814 0.000000
0.270521 0.219261 0.000000
0.305050 0.220246 0.000000
0.339442 0.221840 0.000000
0.373289 0.224074 0.000000
0.406365 0.226878 0.000000
0.438988 0.229726 0.000000
0.470453 0.232824 0.000000
0.500472 0.236136 0.000000
0.531139 0.239817 0.000000
0.563546 0.243955 0.000000
0.597339 0.248583 0.000000
0.627629 0.258135 0.011520
0.658107 0.269011 0.039093
0.688574 0.281046 0.063409
0.719131 0.293756 0.084034
0.748280 0.308240 0.105440
0.775405 0.323596 0.127698
0.800734 0.338562 0.149230
0.825225 0.353769 0.168904
0.848597 0.368971 0.186859
0.870089 0.383723 0.203071
0.889216 0.397735 0.217442
0.907196 0.411414 0.231125
0.920690 0.422838 0.241792
0.923644 0.428641 0.245252
0.096974 0.254712 0.000000
0.107707 0.255411 0.000000
0.117979 0.256187 0.000000
0.130322 0.257250 0.000000
0.152501 0.254941 0.000000
0.179048 0.253263 0.000000
0.208062 0.252391 0.000000
0.238921 0.252187 0.000000
0.271522 0.252381 0.000000
0.304976 0.253002 0.000000
0.338604 0.254096 0.000000
0.371890 0.255706 0.000000
0.404447 0.257854 0.000000
0.436184 0.260386 0.000000
0.466987 0.263128 0.000000
0.496421 0.266132 0.000000
0.525711 0.269465 0.000000
0.556688 0.273258 0.000000
0.589091 0.277503 0.000000
0.622640 0.282187 0.000000
0.655415 0.288737 0.000000
0.685427 0.298844 0.025508
0.715232 0.310057 0.053949
0.742899 0.323842 0.083138
0.769936 0.337744 0.107649
0.795106 0.351415 0.131231
0.819491 0.365524 0.152383
0.842864 0.379854 0.171425
0.865047 0.394167 0.189004
0.884279 0.407799 0.203922
0.902448 0.421237 0.218113
0.919590 0.434463 0.231718
0.930795 0.444862 0.241157
0.109035 0.289995 0.000000
0.118617 0.290635 0.000000
0.127877 0.291346 0.000000
0.139012 0.292346 0.000000
0.158957 0.290128 0.000000
0.184406 0.287949 0.000000
0.212628 0.286593 0.000000
0.242943 0.285830 0.000000
0.274494 0.285654 0.000000
0.306731 0.286027 0.000000
0.339441 0.286802 0.000000
0.372047 0.288005 0.000000
0.404097 0.289662 0.000000
0.435276 0.291759 0.000000
0.465479 0.294161 0.000000
0.494387 0.296862 0.000000
0.522650 0.299888 0.000000
0.552423 0.303368 0.000000
0.583585 0.307301 0.000000
0.615871 0.311685 0.000000
0.649017 0.316509 0.000000
0.682736 0.321779 0.000000
0.713291 0.330403 0.008604
0.740471 0.342555 0.050959
0.766721 0.355466 0.083305
0.791508 0.367850 0.110767
0.815719 0.380679 0.133967
0.838981 0.393934 0.154420
0.861125 0.407369 0.173088
0.880957 0.420565 0.189331
0.899122 0.433549 0.204090
0.916323 0.446435 0.218221
0.932601 0.459208 0.231886
0.120780 0.325354 0.000000
0.129378 0.325946 0.000000
0.137752 0.326606 0.000000
0.147800 0.327537 0.000000
0.165707 0.325449 0.000000
0.190276 0.322718 0.000000
0.217555 0.320976 0.000000
0.247025 0.319850 0.000000
0.277950 0.319265 0.000000
0.309694 0.319190 0.000000
0.341739 0.319599 0.000000
0.373643 0.320478 0.000000
0.405077 0.321792 0.000000
0.435763 0.323503 0.000000
0.465441 0.325575 0.000000
0.493863 0.327976 0.000000
0.521345 0.330714 0.000000
0.550116 0.333897 0.000000
0.580217 0.337535 0.000000
0.611407 0.341624 0.000000
0.643433 0.346160 0.000000
0.676034 0.351147 0.000000
0.708834 0.356692 0.000000
0.739302 0.364546 0.002813
0.765550 0.375772 0.048548
0.789782 0.386952 0.084965
0.813369 0.398784 0.113159
0.836511 0.410833 0.135503
0.858558 0.423233 0.155576
0.878996 0.435751 0.173569
0.897026 0.448117 0.189020
0.914140 0.460489 0.203778
0.930375 0.472840 0.218034
0.132182 0.360560 0.000000
0.139930 0.361114 0.000000
0.147510 0.361733 0.000000
0.156568 0.362605 0.000000
0.172684 0.360628 0.000000
0.196532 0.357315 0.000000
0.222991 0.355201 0.000000
0.251725 0.353731 0.000000
0.282008 0.352805 0.000000
0.313180 0.352387 0.000000
0.344704 0.352450 0.000000
0.376141 0.352971 0.000000
0.407114 0.353933 0.000000
0.437336 0.355307 0.000000
0.466552 0.357060 0.000000
0.494521 0.359167 0.000000
0.521393 0.361622 0.000000
0.549332 0.364517 0.000000
0.578535 0.367868 0.000000
0.608776 0.371667 0.000000
0.639809 0.375918 0.000000
0.671325 0.380677 0.000000
0.703120 0.385922 0.000000
0.734990 0.391635 0.000000
0.764950 0.398693 0.000000
0.789190 0.408289 0.050383
0.812628 0.418774 0.086162
0.835126 0.429971 0.113853
0.856908 0.441374 0.136453
0.877764 0.452976 0.156404
0.895856 0.464627 0.173036
0.912787 0.476352 0.188570
0.928867 0.488134 0.203547
0.143202 0.395367 0.000000
0.150203 0.395888 0.000000
0.157082 0.396471 0.000000
0.165225 0.397291 0.000000
0.179861 0.395342 0.000000
0.203100 0.391467 0.000000
0.228844 0.389002 0.000000
0.235203 0.391996 0.000000
0.270848 0.390013 0.000000
0.317343 0.385236 0.000000
0.348416 0.384980 0.000000
0.379423 0.385182 0.000000
0.409993 0.385820 0.000000
0.439805 0.386876 0.000000
0.468604 0.388325 0.000000
0.496162 0.390143 0.000000
0.522529 0.392320 0.000000
0.549779 0.394933 0.000000
0.578226 0.397999 0.000000
0.607646 0.401513 0.000000
0.637754 0.405513 0.000000
0.668360 0.409979 0.000000
0.699252 0.414906 0.000000
0.730205 0.420300 0.000000
0.760864 0.425745 0.000000
0.788724 0.431602 0.002112
0.812274 0.440677 0.052724
0.834796 0.450560 0.086800
0.856200 0.461016 0.114128
0.876523 0.471878 0.137759
0.895274 0.482705 0.156562
0.911967 0.493683 0.173037
0.927821 0.504784 0.188887
0.153794 0.429505 0.000000
0.160143 0.429995 0.000000
0.166398 0.430543 0.000000
0.173699 0.431317 0.000000
0.187273 0.429216 0.000000
0.209927 0.424879 0.000000
0.235055 0.422104 0.000000
0.262591 0.420030 0.000000
0.271229 0.423321 0.000000
0.306959 0.421526 0.000000
0.342023 0.420174 0.000000
0.383428 0.416828 0.000000
0.413625 0.417171 0.000000
0.443068 0.417931 0.000000
0.471487 0.419090 0.000000
0.498653 0.420627 0.000000
0.524583 0.422531 0.000000
0.551268 0.424867 0.000000
0.579066 0.427658 0.000000
0.607745 0.430907 0.000000
0.637096 0.434611 0.000000
0.666907 0.438768 0.000000
0.696975 0.443375 0.000000
0.727089 0.448434 0.000000
0.756785 0.453295 0.000000
0.785735 0.457573 0.000000
0.811793 0.463969 0.008848
0.834437 0.472575 0.055795
0.855886 0.481830 0.088757
0.876183 0.491584 0.115732
0.895310 0.501714 0.139189
0.911447 0.512064 0.157845
0.926999 0.522423 0.174813
0.163903 0.462677 0.000000
0.169661 0.463138 0.000000
0.175362 0.463653 0.000000
0.181893 0.464378 0.000000
0.194930 0.461863 0.000000
0.216991 0.457239 0.000000
0.241585 0.454216 0.000000
0.268654 0.451898 0.000000
0.297504 0.450118 0.000000
0.307985 0.453637 0.000000
0.343358 0.452039 0.000000
0.377694 0.450883 0.000000
0.410741 0.450192 0.000000
0.442293 0.449983 0.000000
0.475130 0.449084 0.000000
0.501926 0.450350 0.000000
0.527460 0.451987 0.000000
0.553674 0.454057 0.000000
0.580928 0.456574 0.000000
0.609008 0.459534 0.000000
0.637698 0.462939 0.000000
0.666805 0.466780 0.000000
0.696124 0.471060 0.000000
0.725469 0.475772 0.000000
0.754148 0.479906 0.000000
0.782273 0.483928 0.000000
0.810015 0.488542 0.000000
0.833832 0.495405 0.019548
0.855377 0.503505 0.062394
0.875707 0.512155 0.093748
0.894889 0.521248 0.120051
0.911691 0.530849 0.141560
0.926859 0.540895 0.160381
0.173465 0.494557 0.000000
0.178703 0.494990 0.000000
0.183906 0.495474 0.000000
0.189732 0.496158 0.000000
0.202799 0.492918 0.000000
0.224269 0.488222 0.000000
0.248412 0.485033 0.000000
0.275108 0.482525 0.000000
0.303639 0.480539 0.000000
0.309442 0.484535 0.000000
0.345160 0.482724 0.000000
0.379755 0.481336 0.000000
0.412994 0.480386 0.000000
0.444676 0.479895 0.000000
0.474643 0.479872 0.000000
0.502764 0.480325 0.000000
0.529177 0.481255 0.000000
0.555947 0.482691 0.000000
0.583384 0.484659 0.000000
0.611281 0.487177 0.000000
0.639463 0.490246 0.000000
0.667940 0.493770 0.000000
0.696587 0.497712 0.000000
0.725134 0.501933 0.000000
0.752798 0.505323 0.000000
0.780195 0.509151 0.000000
0.807204 0.513548 0.000000
0.833019 0.518639 0.000000
0.854712 0.525941 0.036653
0.875176 0.533932 0.073230
0.894489 0.542541 0.102148
0.912324 0.551753 0.126636
0.927362 0.561662 0.146602
0.183086 0.527126 0.000000
0.187856 0.527577 0.000000
0.192597 0.528085 0.000000
0.197791 0.528803 0.000000
0.211314 0.523979 0.000000
0.232043 0.518811 0.000000
0.255734 0.515182 0.000000
0.282077 0.512293 0.000000
0.310319 0.509968 0.000000
0.311472 0.514295 0.000000
0.347563 0.512214 0.000000
0.382425 0.510565 0.000000
0.415844 0.509357 0.000000
0.447631 0.508599 0.000000
0.477637 0.508299 0.000000
0.505743 0.508465 0.000000
0.532171 0.509097 0.000000
0.558997 0.510219 0.000000
0.586423 0.511857 0.000000
0.614235 0.514032 0.000000
0.642249 0.516765 0.000000
0.670294 0.520068 0.000000
0.698352 0.523884 0.000000
0.725827 0.527352 0.000000
0.752782 0.530706 0.000000
0.779529 0.534686 0.000000
0.805908 0.539171 0.000000
0.831631 0.544075 0.000000
0.854213 0.550552 0.014619
0.874815 0.558086 0.056448
0.894248 0.566269 0.087590
0.912592 0.575055 0.114053
0.928127 0.584703 0.135889
0.196861 0.561569 0.000000
0.200879 0.562068 0.000000
0.204914 0.562623 0.000000
0.209310 0.563393 0.000000
0.220908 0.556796 0.000000
0.240898 0.551229 0.000000
0.264116 0.547088 0.000000
0.290102 0.543694 0.000000
0.318056 0.540885 0.000000
0.347192 0.538609 0.000000
0.350692 0.542910 0.000000
0.385841 0.540882 0.000000
0.419442 0.539323 0.000000
0.451323 0.538241 0.000000
0.481343 0.537644 0.000000
0.509397 0.537535 0.000000
0.535865 0.537917 0.000000
0.562807 0.538803 0.000000
0.590279 0.540214 0.000000
0.618066 0.542169 0.000000
0.645983 0.544687 0.000000
0.673868 0.547782 0.000000
0.701265 0.551041 0.000000
0.727790 0.553950 0.000000
0.754196 0.557440 0.000000
0.780347 0.561497 0.000000
0.806141 0.566019 0.000000
0.831271 0.570969 0.000000
0.853904 0.577113 0.007833
0.874577 0.584261 0.049036
0.894076 0.592067 0.080295
0.912473 0.600498 0.107036
0.929056 0.609691 0.130562
0.219696 0.596932 0.040858
0.223063 0.597446 0.040471
0.226462 0.598018 0.040139
0.230155 0.598553 0.039639
0.240089 0.589677 0.022342
0.255467 0.584397 0.007485
0.275149 0.580329 0.000000
0.299281 0.576764 0.000000
0.326957 0.573473 0.000000
0.355848 0.570733 0.000000
0.356852 0.574563 0.007874
0.390091 0.572836 0.000000
0.423873 0.570909 0.000000
0.455832 0.569485 0.000000
0.485843 0.568572 0.000000
0.513807 0.568175 0.000000
0.540372 0.568293 0.000000
0.567486 0.568931 0.000000
0.595049 0.570107 0.000000
0.622855 0.571837 0.000000
0.650717 0.574137 0.000000
0.678229 0.576708 0.000000
0.704797 0.578927 0.000000
0.731079 0.581779 0.000000
0.757024 0.585317 0.000000
0.782653 0.589377 0.000000
0.807883 0.593896 0.000000
0.832089 0.598987 0.000000
0.853929 0.605165 0.022358
0.874569 0.612005 0.055966
0.894049 0.619492 0.083907
0.912388 0.627624 0.109331
0.929378 0.636502 0.134966
0.244606 0.633895 0.079251
0.247422 0.634418 0.079115
0.250280 0.635002 0.079030
0.253388 0.631667 0.074371
0.261877 0.623478 0.062085
0.275436 0.618090 0.050621
0.293304 0.613722 0.037451
0.314860 0.610022 0.021103
0.339347 0.606867 0.003031
0.365942 0.604199 0.000000
0.394883 0.601612 0.000000
0.398963 0.604891 0.032819
0.430402 0.603378 0.004378
0.461231 0.602093 0.000000
0.491192 0.600851 0.000000
0.519020 0.600151 0.000000
0.545783 0.599989 0.000000
0.573119 0.600367 0.000000
0.600819 0.601298 0.000000
0.628676 0.602795 0.000000
0.656093 0.604374 0.000000
0.682791 0.605852 0.000000
0.709269 0.607980 0.000000
0.735433 0.610783 0.000000
0.761182 0.614181 0.000000
0.786427 0.618137 0.000000
0.810597 0.622774 0.000000
0.833122 0.628205 0.022959
0.854603 0.634230 0.051870
0.875039 0.640847 0.076311
0.894388 0.648073 0.099106
0.912607 0.655932 0.121543
0.929722 0.664425 0.143894
0.271393 0.672154 0.113866
0.273751 0.672682 0.113868
0.276156 0.673271 0.113920
0.278176 0.665025 0.104796
0.285575 0.657993 0.095319
0.297613 0.652570 0.085895
0.313827 0.647963 0.075492
0.333710 0.643967 0.063602
0.356582 0.640506 0.049798
0.381668 0.637541 0.033527
0.408183 0.635044 0.014237
0.409805 0.637955 0.071618
0.440354 0.636134 0.054904
0.470096 0.634682 0.036773
0.498418 0.633705 0.011661
0.525243 0.633119 0.000000
0.552207 0.632768 0.000000
0.579817 0.632872 0.000000
0.607625 0.633475 0.000000
0.634708 0.633776 0.000000
0.661609 0.634531 0.000000
0.688375 0.635971 0.000000
0.714839 0.638042 0.000000
0.740889 0.640704 0.000000
0.766300 0.643959 0.000000
0.790404 0.647942 0.007626
0.813586 0.652583 0.035656
0.835666 0.657869 0.059793
0.856648 0.663770 0.081628
0.876608 0.670249 0.102173
0.895565 0.677303 0.122011
0.913546 0.684926 0.141488
0.930587 0.693114 0.160834
0.299812 0.711373 0.147071
0.301791 0.711900 0.147164
0.302363 0.707898 0.143070
0.304280 0.699258 0.133969
0.310935 0.692937 0.125933
0.321746 0.687538 0.117564
0.336508 0.682758 0.108411
0.354840 0.678513 0.098251
0.376152 0.674776 0.086964
0.399729 0.671532 0.074510
0.424816 0.668765 0.060907
0.450692 0.666459 0.046218
0.452294 0.669621 0.091072
0.480826 0.667992 0.076971
0.508207 0.666763 0.062918
0.534259 0.665955 0.049214
0.560550 0.665369 0.034620
0.587101 0.664722 0.019430
0.614012 0.664415 0.007475
0.641131 0.664659 0.000000
0.668171 0.665465 0.000000
0.694876 0.666839 0.000000
0.721046 0.668797 0.007394
0.746526 0.671358 0.021782
0.771202 0.674540 0.038934
0.794996 0.678351 0.056747
0.817846 0.682795 0.074776
0.839589 0.687865 0.092820
0.860205 0.693551 0.110831
0.879734 0.699841 0.128834
0.898232 0.706715 0.146874
0.915782 0.714144 0.165000
0.932426 0.722118 0.183295
0.329563 0.751180 0.179647
0.329802 0.748174 0.176685
0.328941 0.740304 0.169208
0.331545 0.733821 0.162275
0.337709 0.728020 0.155119
0.347565 0.722697 0.147410
0.361096 0.717813 0.138977
0.378037 0.713376 0.129738
0.397888 0.709404 0.119684
0.419996 0.705907 0.108882
0.443650 0.702884 0.097477
0.468149 0.700330 0.085693
0.466409 0.703332 0.123726
0.493241 0.701030 0.112646
0.518954 0.699044 0.102513
0.543740 0.697387 0.093654
0.569379 0.696198 0.085537
0.595733 0.695505 0.078493
0.622441 0.695336 0.071657
0.649262 0.695687 0.065191
0.675975 0.696526 0.061901
0.702340 0.697878 0.062309
0.728162 0.699771 0.066471
0.753285 0.702231 0.073987
0.777597 0.705276 0.084207
0.801017 0.708921 0.096459
0.823485 0.713173 0.110178
0.844850 0.718030 0.124936
0.865098 0.723483 0.140442
0.884268 0.729524 0.156524
0.902410 0.736140 0.173080
0.919578 0.743317 0.190059
0.935831 0.751039 0.207435
0.356499 0.784988 0.208538
0.354623 0.777541 0.201825
0.355294 0.772263 0.196651
0.358277 0.766858 0.190853
0.364155 0.761474 0.184415
0.373291 0.756246 0.177327
0.385784 0.751266 0.169583
0.401451 0.746604 0.161210
0.419868 0.742306 0.152292
0.440442 0.738397 0.142984
0.462514 0.734900 0.133493
0.485419 0.731819 0.124097
0.508538 0.729155 0.115129
0.506207 0.732167 0.148079
0.530737 0.730150 0.139025
0.555106 0.728561 0.130779
0.580498 0.727432 0.123247
0.606571 0.726757 0.116869
0.633002 0.726544 0.112110
0.659495 0.726803 0.109397
0.685794 0.727566 0.108435
0.711714 0.728865 0.108128
0.737091 0.730679 0.110609
0.761772 0.733031 0.115778
0.785641 0.735940 0.123364
0.808617 0.739422 0.133006
0.830641 0.743485 0.144334
0.851577 0.748129 0.157006
0.871413 0.753349 0.170747
0.890189 0.759136 0.185350
0.907955 0.765480 0.200673
0.924765 0.772366 0.216615
0.940679 0.779779 0.233106
0.379223 0.811376 0.232947
0.379176 0.806663 0.228531
0.380716 0.802561 0.224370
0.384064 0.797894 0.219301
0.389885 0.792942 0.213427
0.398616 0.787941 0.206838
0.410419 0.783056 0.199599
0.425180 0.778405 0.191787
0.442540 0.774068 0.183516
0.461969 0.770094 0.174947
0.482845 0.766512 0.166294
0.504529 0.763334 0.157824
0.526425 0.760564 0.149835
0.521409 0.763641 0.180263
0.544752 0.761537 0.172182
0.568804 0.759884 0.164652
0.593860 0.758690 0.157810
0.619574 0.757950 0.152013
0.645626 0.757665 0.147631
0.671724 0.757845 0.144999
0.697612 0.758503 0.144376
0.723074 0.759659 0.145903
0.747933 0.761334 0.149592
0.772094 0.763567 0.153856
0.795448 0.766337 0.160075
0.817914 0.769655 0.168225
0.839432 0.773529 0.178054
0.859882 0.777959 0.189306
0.879257 0.782943 0.201747
0.897596 0.788471 0.215188
0.914947 0.794535 0.229476
0.931365 0.801119 0.244496
0.946911 0.808209 0.260156
0.404116 0.840124 0.258987
0.405095 0.836503 0.255420
0.407206 0.833075 0.251811
0.410871 0.828943 0.247232
0.416715 0.824365 0.241785
0.425171 0.819595 0.235592
0.436427 0.814829 0.228758
0.450409 0.810210 0.221396
0.466809 0.805841 0.213646
0.485145 0.801790 0.205678
0.504840 0.798097 0.197708
0.525290 0.794787 0.189978
0.545921 0.791872 0.182754
0.538383 0.794945 0.211605
0.560893 0.792723 0.204187
0.584628 0.790971 0.197204
0.609333 0.789681 0.190905
0.634664 0.788846 0.185594
0.660302 0.788464 0.181577
0.685961 0.788541 0.179132
0.711387 0.789090 0.178477
0.736367 0.790125 0.179743
0.760729 0.791663 0.182963
0.784338 0.793721 0.188078
0.807097 0.796311 0.194961
0.828971 0.799450 0.202788
0.849926 0.803131 0.211624
0.869837 0.807345 0.221868
0.888701 0.812088 0.233328
0.906556 0.817352 0.245835
0.923450 0.823128 0.259244
0.939439 0.829401 0.273436
0.954578 0.836149 0.288306
0.429886 0.868975 0.285587
0.431551 0.865986 0.282495
0.434110 0.863029 0.279262
0.438082 0.859330 0.275064
0.444020 0.855101 0.269983
0.452323 0.850581 0.264145
0.463175 0.845972 0.257677
0.476520 0.841431 0.250714
0.492084 0.837073 0.243411
0.509426 0.832979 0.235951
0.528007 0.829204 0.228543
0.547258 0.825779 0.221418
0.566631 0.822727 0.214815
0.585685 0.820064 0.208957
0.578991 0.823452 0.235574
0.602434 0.821598 0.229053
0.626799 0.820204 0.223227
0.651745 0.819262 0.218359
0.676958 0.818771 0.214713
0.702154 0.818735 0.212524
0.727084 0.819162 0.211977
0.751542 0.820065 0.213186
0.775359 0.821458 0.216186
0.798407 0.823356 0.220942
0.820594 0.825767 0.227358
0.841858 0.828700 0.235301
0.862161 0.832158 0.244621
0.881458 0.836141 0.254629
