tono/assets/cubes/caffe_crema_33.cube
TITLE "Crema"
LUT_3D_SIZE 9
DOMAIN_MIN 0.0 0.0 0.0
DOMAIN_MAX 1.0 1.0 1.0
0.008819 0.003221 0.000000
0.131384 0.010103 0.000000
0.286237 0.046330 0.000000
0.447355 0.089345 0.000119
0.595422 0.165131 0.072865
0.774872 0.264443 0.164378
0.883196 0.342116 0.236122
0.886550 0.346609 0.244281
0.893229 0.355788 0.260021
0.039482 0.119557 0.000000
0.134137 0.120507 0.000000
0.284175 0.125725 0.000000
0.435090 0.142505 0.000000
0.562682 0.178985 0.035371
0.692878 0.239080 0.107988
0.809782 0.308725 0.178134
0.896106 0.371095 0.240266
0.905992 0.387738 0.254080
0.096974 0.254712 0.000000
0.152501 0.254941 0.000000
0.271522 0.252381 0.000000
0.404447 0.257854 0.000000
0.525711 0.269465 0.000000
0.655415 0.288737 0.000000
0.769936 0.337744 0.107649
0.865047 0.394167 0.189004
0.930795 0.444862 0.241157
0.143202 0.395367 0.000000
0.179861 0.395342 0.000000
0.270848 0.390013 0.000000
0.409993 0.385820 0.000000
0.522529 0.392320 0.000000
0.637754 0.405513 0.000000
0.760864 0.425745 0.000000
0.856200 0.461016 0.114128
0.927821 0.504784 0.188887
0.183086 0.527126 0.000000
0.211314 0.523979 0.000000
0.310319 0.509968 0.000000
0.415844 0.509357 0.000000
0.532171 0.509097 0.000000
0.642249 0.516765 0.000000
0.752782 0.530706 0.000000
0.854213 0.550552 0.014619
0.928127 0.584703 0.135889
0.271393 0.672154 0.113866
0.285575 0.657993 0.095319
0.356582 0.640506 0.049798
0.440354 0.636134 0.054904
0.552207 0.632768 0.000000
0.661609 0.634531 0.000000
0.766300 0.643959 0.000000
0.856648 0.663770 0.081628
0.930587 0.693114 0.160834
0.379223 0.811376 0.232947
0.389885 0.792942 0.213427
0.442540 0.774068 0.183516
0.526425 0.760564 0.149835
0.593860 0.758690 0.157810
0.697612 0.758503 0.144376
0.795448 0.766337 0.160075
0.879257 0.782943 0.201747
0.946911 0.808209 0.260156
0.482229 0.924196 0.339151
0.498908 0.913175 0.325951
0.544157 0.896610 0.302390
0.610328 0.881974 0.277799
0.667062 0.879009 0.286744
0.763809 0.877060 0.278186
0.852459 0.882340 0.292946
0.926040 0.894897 0.328506
0.984608 0.914098 0.374670
0.550289 0.970751 0.414165
0.578083 0.972470 0.410340
0.632372 0.975905 0.403523
0.702982 0.980382 0.397086
0.761266 0.983245 0.411152
0.849930 0.979228 0.407022
0.926642 0.980953 0.420521
0.987751 0.988563 0.448342
1.000000 1.000000 0.486204
0.007523 0.007131 0.112226
0.146010 0.000771 0.104713
0.308332 0.002255 0.081027
0.454485 0.070552 0.089714
0.595915 0.153253 0.129860
0.767745 0.250587 0.201224
0.889050 0.336912 0.275118
0.893054 0.340639 0.286267
0.901386 0.348321 0.309107
0.006234 0.125809 0.102000
0.131321 0.121490 0.106062
0.293986 0.117698 0.082751
0.444252 0.129544 0.075515
0.564506 0.171420 0.105884
0.689915 0.231260 0.155247
0.804908 0.299059 0.214676
0.895833 0.363952 0.274651
0.911311 0.382811 0.299665
0.039382 0.262738 0.036044
0.128475 0.261725 0.036593
0.274273 0.253388 0.033845
0.415353 0.252272 0.039721
0.537412 0.259795 0.037551
0.654210 0.285232 0.089130
0.765580 0.332390 0.159928
0.863051 0.389745 0.228661
0.933058 0.442046 0.284370
0.094763 0.401872 0.000000
0.149559 0.401133 0.000000
0.279183 0.389638 0.000000
0.413063 0.385962 0.000000
0.530172 0.388598 0.000000
0.647636 0.396912 0.000000
0.759842 0.419164 0.078538
0.853811 0.457748 0.171017
0.926677 0.502427 0.240720
0.170708 0.527935 0.042823
0.199136 0.524970 0.033866
0.298996 0.512454 0.000000
0.412002 0.510266 0.000000
0.536215 0.506247 0.000000
0.645063 0.511889 0.000000
0.755678 0.524318 0.028325
0.851472 0.547765 0.122814
0.927439 0.581940 0.202145
0.262345 0.668112 0.148018
0.277992 0.654018 0.133393
0.351195 0.636916 0.103821
0.436305 0.632090 0.110239
0.547884 0.627942 0.071463
0.658356 0.629954 0.065220
0.763425 0.640367 0.102262
0.854450 0.660689 0.157907
0.928973 0.690328 0.220840
0.367309 0.805256 0.259107
0.379814 0.787709 0.241864
0.434813 0.769371 0.216497
0.520966 0.756263 0.190860
0.590241 0.754602 0.201765
0.694536 0.754885 0.194349
0.793151 0.763055 0.209928
0.877514 0.779933 0.249082
0.945567 0.805515 0.302162
0.472377 0.921206 0.365555
0.490158 0.910335 0.353186
0.537182 0.893865 0.331596
0.605214 0.879233 0.310128
0.663538 0.876032 0.320439
0.761111 0.874058 0.315767
0.850266 0.879452 0.331394
0.924423 0.892316 0.361269
0.983412 0.911760 0.403553
0.544951 0.972603 0.444097
0.573299 0.974176 0.440073
0.628471 0.977330 0.432956
0.699814 0.981455 0.426370
0.758255 0.981077 0.438548
0.847642 0.976923 0.435431
0.924807 0.978661 0.448443
0.986288 0.986546 0.471662
1.000000 0.999119 0.515577
0.005840 0.072812 0.197778
0.119737 0.022039 0.290482
0.305290 0.003270 0.254617
0.466700 0.008892 0.249721
0.608670 0.100153 0.265284
0.775293 0.209327 0.311304
0.882812 0.293562 0.353209
0.914351 0.319951 0.371754
0.924235 0.326135 0.395944
0.010475 0.126540 0.269075
0.132723 0.122219 0.265200
0.296904 0.112010 0.243262
0.450056 0.110313 0.234421
0.571854 0.143419 0.240723
0.693508 0.206074 0.264897
0.808282 0.276541 0.303724
0.902301 0.344491 0.350913
0.927418 0.368754 0.382388
0.007039 0.262864 0.228659
0.113871 0.261185 0.230648
0.265395 0.252775 0.232974
0.412839 0.250560 0.215593
0.539615 0.254008 0.204973
0.656569 0.276297 0.222921
0.767093 0.322624 0.262401
0.864622 0.379932 0.312746
0.940470 0.434358 0.363607
0.064983 0.400871 0.198492
0.133348 0.399449 0.196196
0.267890 0.389490 0.192012
0.407734 0.384529 0.190850
0.529682 0.384835 0.188748
0.648301 0.391525 0.184714
0.759030 0.413632 0.218934
0.853297 0.451732 0.272358
0.928691 0.496581 0.327979
0.134778 0.526808 0.202807
0.173380 0.522783 0.198001
0.287983 0.510697 0.183822
0.419225 0.504497 0.174059
0.534062 0.503349 0.172867
0.643410 0.507986 0.181014
0.752625 0.520372 0.204899
0.848989 0.543313 0.247756
0.926217 0.577085 0.302007
0.235332 0.664441 0.253267
0.257182 0.649367 0.241600
0.337621 0.633480 0.222247
0.449839 0.624072 0.204899
0.554801 0.620470 0.201354
0.658397 0.623987 0.210897
0.760302 0.635519 0.233898
0.851404 0.655918 0.269864
0.925395 0.685972 0.319893
0.341688 0.798548 0.331812
0.359377 0.782829 0.318049
0.420884 0.765062 0.298890
0.512482 0.751746 0.282777
0.584580 0.749885 0.289491
0.690325 0.749924 0.286272
0.789869 0.757851 0.302124
0.875482 0.774478 0.334100
0.943039 0.800724 0.377708
0.451613 0.916760 0.425847
0.472288 0.906289 0.415037
0.523665 0.890001 0.396757
0.595887 0.875177 0.379925
0.658041 0.871112 0.391534
0.756347 0.869243 0.386670
0.846555 0.874671 0.398270
0.921503 0.887571 0.424482
0.982925 0.906550 0.459374
0.535013 0.976395 0.503581
0.564414 0.977693 0.499403
0.621185 0.980296 0.492028
0.692966 0.981319 0.484197
0.775586 0.971927 0.476815
0.843361 0.972659 0.491330
0.921171 0.974616 0.498987
0.983458 0.982636 0.517944
1.000000 0.993255 0.581945
0.006091 0.124009 0.297038
0.085187 0.052667 0.405463
0.282779 0.034871 0.404995
0.462951 0.033864 0.406737
0.621406 0.050391 0.420965
0.797127 0.129351 0.445463
0.880433 0.216102 0.446644
0.948703 0.279915 0.467513
0.957912 0.287428 0.491311
0.006310 0.153339 0.335814
0.088565 0.136553 0.396373
0.274219 0.125607 0.392161
0.437865 0.121181 0.380303
0.569185 0.130384 0.382263
0.700730 0.169118 0.390879
0.820141 0.236067 0.411477
0.916903 0.308021 0.443553
0.954099 0.344275 0.474526
0.013299 0.264095 0.373292
0.122765 0.260686 0.372133
0.269137 0.253171 0.367162
0.415529 0.249361 0.356538
0.540258 0.252498 0.351032
0.659568 0.269597 0.358585
0.773364 0.310004 0.379581
0.872518 0.364796 0.413303
0.951258 0.419919 0.453307
0.026283 0.402003 0.356933
0.119652 0.398306 0.355600
0.259259 0.389554 0.354541
0.400087 0.384231 0.359386
0.526423 0.384142 0.346903
0.644646 0.390801 0.341197
0.759895 0.409196 0.352749
0.855792 0.445081 0.385703
0.933357 0.489298 0.426716
0.100172 0.527821 0.353163
0.158354 0.520972 0.346746
0.280473 0.510415 0.337551
0.410802 0.504552 0.338100
0.527123 0.502979 0.340143
0.638241 0.506733 0.342478
0.749553 0.517960 0.349632
0.848706 0.538996 0.370625
0.926743 0.571822 0.408520
0.191684 0.665325 0.380160
0.226528 0.647347 0.366549
0.323939 0.632333 0.353629
0.444275 0.622144 0.344237
0.550198 0.618298 0.344074
0.653588 0.621430 0.352659
0.756314 0.632265 0.366851
0.848404 0.652015 0.388707
0.919343 0.683092 0.430486
0.309395 0.791898 0.430869
0.336131 0.778773 0.420843
0.404316 0.762594 0.404556
0.501683 0.749532 0.391016
0.596790 0.742345 0.387229
0.695638 0.743118 0.392411
0.789773 0.752259 0.407485
0.872119 0.770001 0.432135
0.939978 0.796198 0.464712
0.427316 0.911784 0.504828
0.452658 0.902083 0.496049
0.510201 0.886247 0.481710
0.585904 0.871699 0.467485
0.672127 0.862776 0.459883
0.764976 0.861128 0.463827
0.849811 0.867554 0.477729
0.921435 0.881515 0.500903
0.979540 0.902055 0.532421
0.525389 0.981292 0.584142
0.556081 0.982205 0.579060
0.614459 0.984041 0.570252
0.685266 0.977597 0.559576
0.768639 0.968279 0.550506
0.853136 0.964531 0.552907
0.926319 0.967403 0.565118
0.985674 0.976507 0.585527
1.000000 0.990533 0.619400
0.006342 0.151660 0.355423
0.061036 0.080507 0.468637
0.249478 0.072158 0.488489
0.435985 0.072589 0.515753
0.593720 0.075956 0.531039
0.736180 0.097761 0.535268
0.866510 0.142262 0.545445
0.966141 0.215971 0.564891
0.989710 0.243032 0.596252
0.006519 0.169992 0.382284
0.062468 0.140322 0.461134
0.239988 0.135806 0.475542
0.410094 0.137611 0.483523
0.551543 0.148244 0.490081
0.688582 0.166249 0.500013
0.821967 0.202532 0.515150
0.928729 0.265964 0.538552
0.983100 0.315385 0.571752
0.007701 0.275090 0.462862
0.134950 0.263573 0.481928
0.272855 0.258212 0.475383
0.412975 0.255886 0.469847
0.534382 0.259965 0.468625
0.655374 0.273250 0.472876
0.775865 0.303092 0.484862
0.880327 0.350412 0.507811
0.963300 0.404022 0.541311
0.030814 0.404441 0.477968
0.132936 0.397331 0.472903
0.266227 0.389870 0.471444
0.404417 0.385106 0.470260
0.526315 0.385673 0.463869
0.641400 0.393454 0.458824
0.756253 0.410954 0.466053
0.856043 0.442757 0.486686
0.935785 0.484603 0.518458
0.079942 0.529840 0.476524
0.157533 0.519178 0.466965
0.277452 0.510552 0.464382
0.406800 0.504942 0.467550
0.521713 0.503183 0.473928
0.635018 0.506841 0.466709
0.746004 0.518189 0.466874
0.845557 0.538850 0.477517
0.925430 0.570120 0.506121
0.170472 0.655244 0.487224
0.220069 0.643794 0.478215
0.322705 0.631011 0.467412
0.439464 0.621827 0.465265
0.543932 0.618228 0.468810
0.648058 0.621019 0.474862
0.751741 0.631359 0.482634
0.844115 0.650792 0.497330
0.920005 0.679870 0.522746
0.281324 0.785726 0.525781
0.317174 0.775525 0.517011
0.397376 0.760410 0.504295
0.499313 0.747460 0.493802
0.593968 0.740645 0.490442
0.690950 0.741561 0.498596
0.784650 0.750513 0.512612
0.867364 0.767960 0.533538
0.935758 0.793963 0.563144
0.410484 0.906514 0.596259
0.439306 0.898193 0.587513
0.500097 0.883818 0.572770
0.580201 0.869321 0.560092
0.669259 0.860076 0.554126
0.762248 0.858452 0.556664
0.846309 0.864858 0.570967
0.917598 0.878758 0.593736
0.975792 0.899288 0.623576
0.522809 0.986187 0.680906
0.553058 0.986957 0.674727
0.610219 0.988419 0.663561
0.679386 0.975380 0.649959
0.765423 0.965437 0.642271
0.850058 0.961621 0.642795
0.923386 0.964480 0.652132
0.982533 0.973675 0.671056
1.000000 0.988134 0.696248
0.006441 0.159101 0.379132
0.035687 0.096878 0.501095
0.207351 0.093101 0.523696
0.374869 0.099333 0.562524
0.531308 0.107312 0.596226
0.691783 0.118553 0.623601
0.832343 0.147361 0.642123
0.949092 0.191090 0.664685
1.000000 0.237656 0.695119
0.006733 0.184505 0.424474
0.039307 0.151177 0.512445
0.209830 0.149020 0.530079
0.371728 0.155510 0.556303
0.519529 0.166985 0.578776
0.667712 0.183562 0.599589
0.804069 0.211596 0.617729
0.921936 0.252451 0.641154
1.000000 0.304377 0.672261
0.007846 0.272680 0.514230
0.057701 0.265300 0.550287
0.224635 0.265443 0.560763
0.381407 0.264589 0.569866
0.517635 0.269667 0.569939
0.645921 0.285564 0.575154
0.768355 0.311670 0.587219
0.880687 0.346690 0.608534
0.968750 0.394332 0.638633
0.067003 0.403274 0.580510
0.154360 0.398680 0.574526
0.279187 0.393279 0.567646
0.410645 0.389867 0.563320
0.527390 0.391501 0.559272
0.638293 0.400074 0.560135
0.751102 0.417697 0.568710
0.853458 0.446227 0.586340
0.936024 0.484845 0.614240
0.099087 0.523788 0.578802
0.174111 0.518317 0.571873
0.288991 0.511318 0.567654
0.414027 0.506164 0.567831
0.526663 0.504931 0.568047
0.635323 0.509429 0.565991
0.743978 0.521473 0.567144
0.841895 0.542604 0.577839
0.921362 0.573730 0.604535
0.170829 0.648638 0.589634
0.228521 0.641267 0.582316
0.328423 0.630894 0.574005
0.441035 0.622693 0.573318
0.542770 0.619469 0.577591
0.644946 0.622317 0.586923
0.749796 0.632775 0.587751
0.841638 0.652450 0.598971
0.916937 0.681681 0.621826
0.276944 0.779724 0.624287
0.321252 0.771720 0.616820
0.403230 0.758840 0.604675
0.500983 0.747365 0.596087
0.591552 0.741341 0.597624
0.687762 0.742432 0.605560
0.781182 0.751273 0.618227
0.864097 0.768549 0.635761
0.932575 0.794467 0.661513
0.404709 0.901914 0.687738
0.439192 0.894596 0.680448
0.503916 0.881343 0.667640
0.582568 0.867994 0.655238
0.669923 0.859599 0.650337
0.759518 0.858449 0.657358
0.842535 0.864839 0.670948
0.913700 0.878555 0.690658
0.971996 0.898906 0.716567
0.531617 0.990065 0.769376
0.561133 0.990537 0.763455
0.613233 0.986104 0.751777
0.682569 0.973372 0.738632
0.767093 0.964082 0.729906
0.848306 0.960688 0.733463
0.919557 0.963732 0.743956
0.978414 0.972908 0.760157
1.000000 0.987324 0.781406
0.006758 0.184205 0.433985
0.016176 0.124562 0.549472
0.180536 0.115335 0.562313
0.331086 0.123188 0.603661
0.481050 0.138743 0.649575
0.642207 0.152611 0.691763
0.797042 0.171052 0.723435
0.920702 0.209126 0.747615
1.000000 0.261531 0.774734
0.006972 0.200236 0.463483
0.017320 0.161421 0.558111
0.184605 0.160792 0.573416
0.333145 0.169249 0.607154
0.477168 0.184740 0.642578
0.629708 0.204839 0.676777
0.779906 0.232205 0.705849
0.901350 0.271304 0.729122
0.991964 0.322545 0.756438
0.008027 0.275006 0.555629
0.040817 0.263299 0.601268
0.202999 0.262618 0.611193
0.348977 0.267295 0.631230
0.485971 0.278943 0.648089
0.622111 0.299068 0.663185
0.756213 0.326425 0.680295
0.869945 0.360762 0.700133
0.959600 0.404706 0.726612
0.010156 0.401103 0.644695
0.109033 0.400212 0.650560
0.244559 0.403479 0.655708
0.416466 0.397875 0.660450
0.527818 0.400874 0.656972
0.629052 0.411033 0.661400
0.745269 0.428661 0.664055
0.847371 0.456662 0.678422
0.931048 0.492930 0.702252
0.129081 0.522871 0.674626
0.200843 0.519347 0.669716
0.308951 0.514169 0.662105
0.427297 0.510177 0.657584
0.533935 0.509973 0.655599
0.638375 0.515461 0.654455
0.743733 0.528356 0.656335
0.838412 0.550162 0.669112
0.916700 0.581749 0.691937
0.190521 0.645507 0.682714
0.250884 0.640383 0.677096
0.346163 0.632171 0.669108
0.452777 0.625097 0.667274
0.550765 0.622508 0.668609
0.651530 0.626024 0.672029
0.751897 0.637298 0.675686
0.841477 0.657567 0.685496
0.915443 0.687166 0.705405
0.292673 0.775308 0.710695
0.339581 0.769275 0.704632
0.418365 0.758800 0.693955
0.508601 0.748916 0.689269
0.596221 0.743761 0.690603
0.689987 0.745303 0.698790
0.780813 0.754348 0.712747
0.864009 0.771813 0.723108
0.931938 0.797902 0.743709
0.421717 0.897085 0.765313
0.456494 0.891145 0.759284
0.517583 0.879979 0.748068
0.591270 0.868367 0.737130
0.674402 0.861093 0.736962
0.761655 0.860443 0.743557
0.842648 0.866972 0.756048
0.912717 0.880612 0.772988
0.970638 0.900797 0.794397
0.553730 0.992344 0.838082
0.580036 0.992772 0.832866
0.624959 0.983862 0.822163
0.692575 0.972580 0.810191
0.771878 0.964327 0.806555
0.850092 0.961448 0.810359
0.919418 0.964697 0.819516
0.977214 0.973887 0.833337
1.000000 0.988216 0.851247
0.007150 0.210627 0.491196
0.007196 0.158605 0.601444
0.170558 0.150865 0.610360
0.306413 0.154849 0.644669
0.443091 0.169308 0.690185
0.595812 0.186547 0.738501
0.753546 0.205234 0.780114
0.887919 0.235967 0.810409
0.985296 0.286096 0.835901
0.007401 0.226533 0.522107
0.010954 0.187741 0.609967
0.171196 0.180557 0.615787
0.304487 0.185549 0.644783
0.439595 0.203907 0.686014
0.589109 0.228994 0.730146
0.743561 0.257831 0.768535
0.875488 0.294778 0.797071
0.972130 0.344475 0.821986
0.008205 0.279305 0.587421
0.030454 0.264415 0.641136
0.188753 0.264992 0.649506
0.322730 0.272519 0.672072
0.452609 0.287761 0.698992
0.589684 0.310663 0.726003
0.731231 0.340903 0.751527
0.854410 0.377926 0.774138
0.947231 0.422578 0.797106
0.010262 0.395079 0.689090
0.102394 0.392872 0.700194
0.230304 0.393515 0.705078
0.359477 0.398520 0.718895
0.483433 0.406141 0.731149
0.607699 0.418554 0.737417
0.731480 0.440163 0.743397
0.839357 0.470459 0.755157
0.923511 0.506875 0.774146
0.116194 0.522547 0.741680
0.194962 0.522457 0.740084
0.301053 0.526380 0.741094
0.441120 0.516878 0.740030
0.541948 0.518037 0.734854
0.642585 0.524633 0.732827
0.743843 0.538466 0.735597
0.836134 0.561048 0.745325
0.913171 0.593090 0.763384
0.223168 0.645439 0.760295
0.282748 0.641782 0.756153
0.371376 0.635524 0.748483
0.471128 0.630024 0.743097
0.563635 0.628512 0.741735
0.660710 0.633085 0.742532
0.756952 0.645282 0.745651
0.843549 0.666210 0.754114
0.915667 0.696228 0.771002
0.321937 0.773309 0.780147
0.368584 0.768795 0.775509
0.441679 0.760501 0.766713
0.524398 0.752295 0.762640
0.608630 0.748226 0.762911
0.699918 0.750464 0.768287
0.788758 0.760141 0.776667
0.868181 0.778167 0.787396
0.934157 0.804487 0.805114
0.450129 0.893992 0.824266
0.483081 0.889312 0.819528
0.538503 0.880182 0.810273
0.605813 0.870416 0.803118
0.686145 0.864385 0.803217
0.769961 0.864397 0.809229
0.847657 0.871247 0.820993
0.914938 0.884946 0.837398
0.972368 0.905028 0.852924
0.581709 0.994044 0.886467
0.602761 0.991214 0.882124
0.644117 0.982750 0.873286
0.708313 0.973092 0.864394
0.782886 0.965987 0.863340
0.857297 0.963794 0.867158
0.923555 0.967383 0.875779
0.979227 0.976652 0.888441
1.000000 0.990867 0.904005
0.007535 0.232596 0.542519
0.008919 0.187354 0.643600
0.169069 0.181144 0.650705
0.294120 0.183452 0.678973
0.418833 0.196108 0.720446
0.560966 0.214858 0.768982
0.714397 0.236809 0.815126
0.852004 0.267221 0.849889
0.955925 0.314735 0.875698
0.007825 0.248949 0.574950
0.019429 0.215156 0.654317
0.172371 0.209253 0.659071
0.294814 0.212226 0.682872
0.417738 0.227656 0.720395
0.557558 0.252428 0.765128
0.708708 0.283217 0.808025
0.844258 0.320791 0.840653
0.947059 0.369511 0.865521
0.008526 0.291638 0.628056
0.037664 0.272410 0.674381
0.182298 0.270047 0.678694
0.305732 0.278489 0.700914
0.427106 0.295887 0.731460
0.560583 0.322008 0.765352
0.703149 0.355828 0.797689
0.831341 0.395639 0.823985
0.929907 0.441725 0.846335
0.010397 0.393021 0.723474
0.114115 0.391239 0.732943
0.229722 0.391505 0.737807
0.347144 0.396872 0.751920
0.462834 0.408159 0.769606
0.586391 0.425972 0.785629
0.713517 0.451562 0.798527
0.826124 0.484157 0.811279
0.914299 0.521746 0.827464
0.124030 0.518870 0.785287
0.201911 0.518924 0.785065
0.298891 0.521502 0.787678
0.409037 0.529811 0.797537
0.550962 0.528498 0.800905
0.648107 0.536294 0.797479
0.746093 0.551238 0.797839
0.832680 0.574999 0.806492
0.910511 0.607403 0.818000
0.251832 0.648705 0.815163
0.309754 0.648006 0.812926
0.399835 0.641370 0.810319
0.491429 0.637591 0.803005
0.578859 0.637492 0.798361
0.671997 0.643170 0.797597
0.764258 0.656320 0.799419
0.847663 0.677959 0.806105
0.917630 0.708430 0.820138
0.359790 0.774073 0.831943
0.404217 0.770740 0.828482
0.470361 0.764361 0.821411
0.545090 0.757958 0.816663
0.626151 0.755200 0.815920
0.714060 0.758429 0.818735
0.799200 0.768970 0.824407
0.875096 0.787579 0.833822
0.938601 0.814010 0.849343
0.485846 0.893123 0.866467
0.515649 0.889507 0.862835
0.564197 0.882245 0.855424
0.626966 0.874350 0.850712
0.703732 0.869655 0.850907
0.783593 0.870467 0.855783
0.857956 0.877748 0.865102
0.922966 0.891627 0.877350
0.977579 0.911636 0.892163
0.611510 0.993304 0.919034
0.629622 0.989936 0.915637
0.669456 0.983043 0.908617
0.729128 0.975025 0.903505
0.799128 0.969185 0.903227
0.869081 0.967793 0.907026
0.931700 0.971794 0.915098
0.984574 0.981167 0.927146
1.000000 0.995226 0.942198
