tono/assets/cubes/caffe_crema_33.cube
TITLE "Crema"
LUT_3D_SIZE 5
DOMAIN_MIN 0.0 0.0 0.0
DOMAIN_MAX 1.0 1.0 1.0
0.008819 0.003221 0.000000
0.286237 0.046330 0.000000
0.595422 0.165131 0.072865
0.883196 0.342116 0.236122
0.893229 0.355788 0.260021
0.096974 0.254712 0.000000
0.271522 0.252381 0.000000
0.525711 0.269465 0.000000
0.769936 0.337744 0.107649
0.930795 0.444862 0.241157
0.183086 0.527126 0.000000
0.310319 0.509968 0.000000
0.532171 0.509097 0.000000
0.752782 0.530706 0.000000
0.928127 0.584703 0.135889
0.379223 0.811376 0.232947
0.442540 0.774068 0.183516
0.593860 0.758690 0.157810
0.795448 0.766337 0.160075
0.946911 0.808209 0.260156
0.550289 0.970751 0.414165
0.632372 0.975905 0.403523
0.761266 0.983245 0.411152
0.926642 0.980953 0.420521
1.000000 1.000000 0.486204
0.005840 0.072812 0.197778
0.305290 0.003270 0.254617
0.608670 0.100153 0.265284
0.882812 0.293562 0.353209
0.924235 0.326135 0.395944
0.007039 0.262864 0.228659
0.265395 0.252775 0.232974
0.539615 0.254008 0.204973
0.767093 0.322624 0.262401
0.940470 0.434358 0.363607
0.134778 0.526808 0.202807
0.287983 0.510697 0.183822
0.534062 0.503349 0.172867
0.752625 0.520372 0.204899
0.926217 0.577085 0.302007
0.341688 0.798548 0.331812
0.420884 0.765062 0.298890
0.584580 0.749885 0.289491
0.789869 0.757851 0.302124
0.943039 0.800724 0.377708
0.535013 0.976395 0.503581
0.621185 0.980296 0.492028
0.775586 0.971927 0.476815
0.921171 0.974616 0.498987
1.000000 0.993255 0.581945
0.006342 0.151660 0.355423
0.249478 0.072158 0.488489
0.593720 0.075956 0.531039
0.866510 0.142262 0.545445
0.989710 0.243032 0.596252
0.007701 0.275090 0.462862
0.272855 0.258212 0.475383
0.534382 0.259965 0.468625
0.775865 0.303092 0.484862
0.963300 0.404022 0.541311
0.079942 0.529840 0.476524
0.277452 0.510552 0.464382
0.521713 0.503183 0.473928
0.746004 0.518189 0.466874
0.925430 0.570120 0.506121
0.281324 0.785726 0.525781
0.397376 0.760410 0.504295
0.593968 0.740645 0.490442
0.784650 0.750513 0.512612
0.935758 0.793963 0.563144
0.522809 0.986187 0.680906
0.610219 0.988419 0.663561
0.765423 0.965437 0.642271
0.923386 0.964480 0.652132
1.000000 0.988134 0.696248
0.006758 0.184205 0.433985
0.180536 0.115335 0.562313
0.481050 0.138743 0.649575
0.797042 0.171052 0.723435
1.000000 0.261531 0.774734
0.008027 0.275006 0.555629
0.202999 0.262618 0.611193
0.485971 0.278943 0.648089
0.756213 0.326425 0.680295
0.959600 0.404706 0.726612
0.129081 0.522871 0.674626
0.308951 0.514169 0.662105
0.533935 0.509973 0.655599
0.743733 0.528356 0.656335
0.916700 0.581749 0.691937
0.292673 0.775308 0.710695
0.418365 0.758800 0.693955
0.596221 0.743761 0.690603
0.780813 0.754348 0.712747
0.931938 0.797902 0.743709
0.553730 0.992344 0.838082
0.624959 0.983862 0.822163
0.771878 0.964327 0.806555
0.919418 0.964697 0.819516
1.000000 0.988216 0.851247
0.007535 0.232596 0.542519
0.169069 0.181144 0.650705
0.418833 0.196108 0.720446
0.714397 0.236809 0.815126
0.955925 0.314735 0.875698
0.008526 0.291638 0.628056
0.182298 0.270047 0.678694
0.427106 0.295887 0.731460
0.703149 0.355828 0.797689
0.929907 0.441725 0.846335
0.124030 0.518870 0.785287
0.298891 0.521502 0.787678
0.550962 0.528498 0.800905
0.746093 0.551238 0.797839
0.910511 0.607403 0.818000
0.359790 0.774073 0.831943
0.470361 0.764361 0.821411
0.626151 0.755200 0.815920
0.799200 0.768970 0.824407
0.938601 0.814010 0.849343
0.611510 0.993304 0.919034
0.669456 0.983043 0.908617
0.799128 0.969185 0.903227
0.931700 0.971794 0.915098
1.000000 0.995226 0.942198
