tono/assets/cubes/dolomiti_cima_33.cube
TITLE "Cima"
LUT_3D_SIZE 9
DOMAIN_MIN 0.0 0.0 0.0
DOMAIN_MAX 1.0 1.0 1.0
0.000000 0.000000 0.015069
0.111563 0.000000 0.016073
0.280788 0.007452 0.031226
0.433162 0.068594 0.076755
0.568884 0.146639 0.136377
0.749254 0.249394 0.221569
0.865773 0.335349 0.295598
0.868541 0.339234 0.302636
0.873882 0.346990 0.316075
0.000000 0.115062 0.028370
0.101907 0.115347 0.009096
0.269167 0.111755 0.035012
0.424109 0.122339 0.065180
0.538084 0.161428 0.113414
0.666249 0.225313 0.175712
0.786383 0.297393 0.240481
0.869858 0.359653 0.298607
0.884183 0.380242 0.315240
0.000000 0.257956 0.066287
0.046400 0.263962 0.013017
0.239052 0.253909 0.006185
0.392849 0.250250 0.030645
0.510281 0.256476 0.062533
0.626127 0.280407 0.117130
0.742260 0.330540 0.190686
0.837086 0.388592 0.262090
0.904085 0.441540 0.313194
0.000000 0.403998 0.097754
0.015159 0.408550 0.057938
0.218752 0.397949 0.030292
0.377745 0.392735 0.011730
0.499634 0.392797 0.022201
0.614259 0.400519 0.055118
0.731098 0.423377 0.133102
0.824888 0.459768 0.218488
0.893613 0.503165 0.282497
0.053878 0.526768 0.140630
0.100006 0.524942 0.135859
0.233381 0.513963 0.109292
0.362969 0.513221 0.109730
0.494669 0.508946 0.080636
0.603693 0.513759 0.095801
0.717134 0.525298 0.137579
0.814069 0.546268 0.200824
0.887785 0.578936 0.267056
0.190516 0.669879 0.232984
0.206801 0.655782 0.221258
0.293510 0.637772 0.201618
0.411445 0.628821 0.180594
0.497630 0.630152 0.185403
0.608445 0.631546 0.183168
0.717774 0.639566 0.208353
0.809513 0.659595 0.254696
0.881846 0.689338 0.312150
0.324434 0.812360 0.345356
0.333328 0.793960 0.328751
0.390212 0.774743 0.308217
0.478390 0.760541 0.291870
0.538991 0.757518 0.308243
0.641283 0.757690 0.304904
0.741935 0.765673 0.322134
0.829301 0.781591 0.359749
0.893657 0.807642 0.413589
0.441556 0.921979 0.453696
0.458216 0.912022 0.443333
0.504204 0.896590 0.426796
0.566347 0.882158 0.412941
0.640561 0.873373 0.409746
0.712251 0.876490 0.436906
0.800464 0.882271 0.457758
0.878129 0.893214 0.488920
0.930830 0.912738 0.535355
0.515740 0.963471 0.530939
0.543848 0.965031 0.530454
0.596126 0.968010 0.530802
0.660120 0.971720 0.534679
0.740184 0.970386 0.541951
0.804432 0.972299 0.570856
0.887757 0.971944 0.584706
0.940186 0.980700 0.614352
0.979501 0.993070 0.648082
0.000000 0.000000 0.139876
0.109811 0.000000 0.146275
0.282756 0.000000 0.138263
0.440969 0.036972 0.146012
0.570761 0.129464 0.182947
0.742496 0.233563 0.253694
0.871224 0.327151 0.330919
0.876087 0.331261 0.341636
0.883554 0.336781 0.363815
0.000000 0.114306 0.134237
0.103211 0.113196 0.129379
0.277881 0.101062 0.127720
0.429788 0.109982 0.137447
0.540900 0.150518 0.164596
0.663852 0.215357 0.213405
0.781622 0.285567 0.271383
0.870513 0.351062 0.329589
0.890539 0.373527 0.357860
0.000000 0.257510 0.137287
0.040185 0.263917 0.113788
0.240292 0.253474 0.096241
0.392852 0.249462 0.116147
0.511415 0.253741 0.129864
0.625522 0.275764 0.166442
0.738651 0.323235 0.228042
0.835416 0.383109 0.294564
0.905087 0.436644 0.350022
0.000000 0.403773 0.146255
0.000000 0.409101 0.117775
0.216771 0.398140 0.104930
0.377399 0.392349 0.094385
0.499441 0.391428 0.103804
0.612636 0.397602 0.126180
0.727152 0.417972 0.183345
0.823206 0.455434 0.256200
0.894334 0.499239 0.321336
0.027230 0.526759 0.169017
0.086153 0.524708 0.164853
0.228875 0.513757 0.144623
0.376682 0.508761 0.130340
0.493131 0.507236 0.132242
0.600488 0.510642 0.150080
0.713249 0.521274 0.187615
0.812145 0.542697 0.244358
0.887806 0.575234 0.309031
0.178207 0.665320 0.254690
0.196880 0.651287 0.243974
0.287450 0.633732 0.227588
0.405752 0.624909 0.207841
0.493529 0.624997 0.217014
0.609637 0.624531 0.215937
0.714732 0.635601 0.246856
0.807706 0.655929 0.293174
0.880800 0.685927 0.350891
0.310693 0.805712 0.365131
0.321762 0.788191 0.349877
0.381684 0.769502 0.331406
0.472774 0.755687 0.318216
0.534469 0.753313 0.333077
0.637568 0.753920 0.332196
0.745028 0.760139 0.348681
0.827406 0.778326 0.390504
0.892601 0.804628 0.442970
0.431619 0.918923 0.477692
0.449373 0.909037 0.467688
0.497216 0.893595 0.452022
0.561425 0.879104 0.439594
0.636690 0.870191 0.438224
0.709199 0.873366 0.463675
0.807474 0.876589 0.475820
0.876228 0.890655 0.512431
0.929593 0.910421 0.556447
0.511840 0.964875 0.560036
0.540418 0.966290 0.559161
0.593451 0.968997 0.558755
0.657985 0.972366 0.561742
0.737504 0.968176 0.566956
0.802471 0.969919 0.593786
0.885529 0.970110 0.603106
0.938614 0.978966 0.630609
0.978429 0.991525 0.661857
0.000000 0.064733 0.205713
0.076168 0.000000 0.322509
0.269227 0.000000 0.310916
0.440253 0.000000 0.313747
0.584128 0.046818 0.328678
0.754478 0.175412 0.370127
0.869203 0.271482 0.414240
0.901653 0.302072 0.431941
0.910432 0.305963 0.456074
0.000000 0.122271 0.275432
0.098558 0.097792 0.334035
0.271238 0.089013 0.312212
0.430493 0.084983 0.302030
0.548467 0.111100 0.305219
0.669639 0.179818 0.325568
0.787791 0.254942 0.362898
0.880060 0.325233 0.409185
0.909672 0.354127 0.443661
0.000000 0.255115 0.276820
0.035505 0.259299 0.282241
0.240461 0.249336 0.263638
0.396815 0.241877 0.264836
0.514504 0.244389 0.274136
0.628163 0.263834 0.290199
0.741080 0.310268 0.327137
0.838245 0.370643 0.377663
0.911270 0.425149 0.428312
0.000000 0.399410 0.281595
0.000000 0.403616 0.274235
0.209515 0.395310 0.257574
0.376493 0.388412 0.244927
0.499727 0.386556 0.250346
0.611072 0.392102 0.266326
0.727275 0.410471 0.296603
0.824070 0.447317 0.347629
0.898104 0.491479 0.403210
0.000000 0.522521 0.294308
0.000000 0.522599 0.282560
0.213119 0.511721 0.270631
0.370076 0.506030 0.262515
0.490401 0.503861 0.261444
0.598149 0.506457 0.272594
0.711213 0.516224 0.298933
0.811565 0.536523 0.339905
0.888458 0.568477 0.392674
0.138885 0.660698 0.345148
0.162879 0.646134 0.332714
0.264696 0.630665 0.315403
0.395503 0.621067 0.303899
0.502008 0.616952 0.303305
0.605447 0.619609 0.313777
0.711724 0.630107 0.338429
0.805723 0.650014 0.377101
0.878258 0.680436 0.429948
0.281204 0.797982 0.431942
0.298627 0.782312 0.419170
0.367125 0.764142 0.404022
0.461177 0.751147 0.389955
0.546618 0.744394 0.385614
0.644096 0.745339 0.395625
0.740687 0.754727 0.419334
0.824445 0.772790 0.455658
0.890696 0.799245 0.501372
0.412034 0.914012 0.535142
0.432674 0.904393 0.526153
0.484947 0.888947 0.512385
0.553545 0.874127 0.502317
0.629049 0.865540 0.498741
0.718333 0.864840 0.507353
0.802601 0.871861 0.528921
0.872714 0.885977 0.560284
0.927107 0.906027 0.597854
0.506924 0.967333 0.615392
0.536132 0.968491 0.614264
0.590079 0.970690 0.613184
0.654582 0.971818 0.614132
0.732708 0.964098 0.615384
0.812206 0.962563 0.623205
0.881248 0.966564 0.639714
0.935452 0.975543 0.662618
0.976250 0.988440 0.691016
0.000000 0.112357 0.298513
0.047484 0.000133 0.436686
0.238719 0.000000 0.449149
0.429165 0.000000 0.470073
0.585554 0.005044 0.489718
0.771008 0.080768 0.514267
0.862913 0.176695 0.513175
0.935936 0.253442 0.531188
0.942164 0.261796 0.553120
0.000000 0.136797 0.336903
0.033420 0.094276 0.438066
0.228404 0.088256 0.449769
0.407239 0.092029 0.450454
0.535493 0.107893 0.452963
0.670312 0.139542 0.461877
0.798914 0.203716 0.479356
0.896379 0.280671 0.507712
0.936223 0.325333 0.537251
0.000000 0.254326 0.425556
0.055930 0.250431 0.446466
0.236096 0.243416 0.435546
0.391437 0.238430 0.428326
0.510610 0.241404 0.428004
0.626895 0.256535 0.433702
0.745465 0.295497 0.450883
0.846087 0.352828 0.481952
0.922324 0.408963 0.519654
0.000000 0.398183 0.422040
0.000000 0.399253 0.424502
0.208668 0.392268 0.413147
0.377589 0.385351 0.397868
0.500832 0.382700 0.401558
0.608890 0.388614 0.413374
0.724688 0.405954 0.432946
0.824780 0.440044 0.462755
0.900910 0.483523 0.501748
0.000000 0.519888 0.435992
0.000000 0.517678 0.429281
0.203195 0.510170 0.416580
0.367830 0.504329 0.402967
0.491796 0.501185 0.397178
0.599448 0.502659 0.405071
0.710440 0.511851 0.427176
0.809716 0.531677 0.458417
0.888240 0.562515 0.494651
0.026109 0.661000 0.466652
0.105165 0.642949 0.453434
0.246529 0.628303 0.441603
0.387429 0.618419 0.432928
0.498213 0.613911 0.428038
0.603803 0.615683 0.431925
0.710832 0.625199 0.449304
0.804455 0.644573 0.479586
0.878351 0.674321 0.517130
0.249778 0.789195 0.524744
0.272281 0.776910 0.514452
0.346025 0.761050 0.500270
0.449612 0.747801 0.490008
0.539510 0.740534 0.486991
0.638739 0.741063 0.492961
0.736816 0.749864 0.509442
0.821629 0.767499 0.536044
0.888505 0.793899 0.570291
0.394850 0.907427 0.605530
0.419828 0.898436 0.598360
0.476322 0.883516 0.587202
0.543216 0.870082 0.575538
0.621091 0.861398 0.571664
0.712159 0.860352 0.577202
0.797728 0.867100 0.592954
0.868957 0.881100 0.618291
0.924350 0.901300 0.651792
0.508106 0.969796 0.689717
0.537610 0.970592 0.687161
0.591478 0.972085 0.683593
0.649691 0.967719 0.676711
0.726065 0.960621 0.673096
0.806527 0.958851 0.678683
0.876730 0.962751 0.693368
0.932188 0.971844 0.715717
0.974196 0.985072 0.743964
0.000000 0.143845 0.364683
0.024540 0.025083 0.491063
0.205940 0.012763 0.514746
0.391297 0.018566 0.558000
0.544093 0.027326 0.584922
0.697862 0.064035 0.598119
0.831708 0.123985 0.610120
0.935679 0.189696 0.631064
0.963712 0.227741 0.661637
0.000000 0.152898 0.377741
0.013015 0.101851 0.487210
0.194198 0.097821 0.507327
0.367923 0.107354 0.532234
0.508191 0.121880 0.548743
0.650518 0.144361 0.563877
0.787480 0.184636 0.580120
0.899789 0.244014 0.604066
0.958417 0.300768 0.636713
0.000000 0.256646 0.473433
0.000000 0.247059 0.518943
0.192324 0.244503 0.540808
0.364927 0.241080 0.545643
0.497143 0.245447 0.539961
0.617241 0.262271 0.541869
0.740122 0.293640 0.552445
0.848700 0.340864 0.574169
0.929528 0.395143 0.606940
0.000000 0.399490 0.534060
0.000000 0.395183 0.545435
0.216980 0.388511 0.536982
0.374911 0.383410 0.529121
0.496220 0.382697 0.526271
0.602930 0.389733 0.530384
0.717914 0.407468 0.540197
0.820960 0.438754 0.558739
0.899706 0.480078 0.589049
0.000000 0.519812 0.544729
0.000000 0.514226 0.540958
0.209900 0.507891 0.531254
0.369622 0.502749 0.519668
0.493467 0.499710 0.510200
0.598937 0.501141 0.516779
0.707811 0.510648 0.531717
0.805405 0.530709 0.555575
0.883836 0.561429 0.584843
0.000000 0.647752 0.563936
0.095154 0.637690 0.555854
0.245329 0.625552 0.546507
0.387983 0.616544 0.534902
0.498820 0.612253 0.527208
0.604839 0.613674 0.527111
0.711306 0.622645 0.540069
0.803731 0.641836 0.565213
0.876835 0.671584 0.599465
0.216967 0.781615 0.609148
0.254649 0.771858 0.600941
0.340777 0.757410 0.589110
0.445992 0.745035 0.579525
0.536456 0.738167 0.575069
0.637524 0.738521 0.575508
0.736511 0.746886 0.587043
0.821493 0.764172 0.611091
0.888451 0.790461 0.645825
0.386267 0.900641 0.690032
0.412098 0.893250 0.682112
0.468367 0.880149 0.669055
0.537860 0.866943 0.657399
0.617065 0.858625 0.652242
0.708717 0.857589 0.656338
0.795265 0.864096 0.669607
0.867538 0.877863 0.692500
0.923767 0.898028 0.724141
0.515727 0.972800 0.782466
0.542584 0.973713 0.778114
0.591203 0.975436 0.770379
0.645528 0.965541 0.758799
0.722347 0.958445 0.753114
0.803135 0.956528 0.756079
0.873967 0.960277 0.767963
0.930563 0.969312 0.786806
0.973680 0.982672 0.811693
0.000000 0.155800 0.396308
0.003120 0.066295 0.532986
0.169823 0.051967 0.549469
0.331985 0.062192 0.597053
0.477033 0.077036 0.640359
0.638843 0.092522 0.679286
0.792551 0.128460 0.707156
0.907832 0.187962 0.731236
0.964455 0.241878 0.762005
0.000000 0.168937 0.420076
0.000000 0.109591 0.533304
0.165457 0.109044 0.551155
0.324695 0.120183 0.589221
0.465079 0.136772 0.623396
0.615108 0.159627 0.655842
0.764397 0.195834 0.682710
0.881504 0.247927 0.707535
0.963203 0.307191 0.739939
0.000000 0.253538 0.515720
0.000000 0.240629 0.565890
0.170170 0.234496 0.591931
0.330963 0.238901 0.612139
0.466585 0.250873 0.625406
0.595716 0.272354 0.637406
0.727065 0.305452 0.652537
0.840352 0.345065 0.675461
0.926115 0.394242 0.707323
0.000000 0.394197 0.607741
0.000000 0.391931 0.628351
0.193314 0.394973 0.636575
0.376818 0.384331 0.635679
0.492278 0.386082 0.632301
0.596924 0.394960 0.633603
0.710268 0.413818 0.640690
0.813671 0.444019 0.657780
0.894677 0.482992 0.685986
0.000000 0.513728 0.643467
0.047511 0.511031 0.647101
0.229052 0.505556 0.637366
0.376409 0.501363 0.627458
0.492189 0.499685 0.621763
0.595808 0.502617 0.623438
0.703357 0.513102 0.634130
0.799921 0.533824 0.654458
0.877738 0.565078 0.681694
0.000000 0.639784 0.665810
0.122125 0.633063 0.659411
0.260892 0.623408 0.648652
0.395519 0.615723 0.636075
0.501988 0.612215 0.627557
0.607800 0.613980 0.623982
0.711890 0.623190 0.637539
0.802540 0.642809 0.660653
0.874728 0.672881 0.692455
0.214086 0.774362 0.705475
0.260994 0.766947 0.698512
0.348107 0.754871 0.687311
0.450181 0.743917 0.675999
0.540115 0.737821 0.667301
0.640579 0.738511 0.665567
0.739312 0.746763 0.674359
0.823665 0.763868 0.696578
0.889890 0.790200 0.729246
0.386475 0.895195 0.778138
0.416042 0.888936 0.771453
0.472392 0.877410 0.759550
0.538931 0.865424 0.748054
0.618808 0.857872 0.741469
0.711328 0.857072 0.740290
0.797801 0.863492 0.749348
0.869776 0.877092 0.768977
0.925812 0.897165 0.797273
0.529790 0.975936 0.866033
0.554143 0.976759 0.861609
0.594219 0.973826 0.852075
0.648456 0.964188 0.840755
0.724254 0.957543 0.834325
0.804959 0.955750 0.832602
0.875950 0.959454 0.839301
0.932464 0.968460 0.854298
0.975608 0.981869 0.875594
0.000000 0.182850 0.454624
0.000000 0.132167 0.559096
0.152081 0.100924 0.599122
0.295802 0.106149 0.640175
0.428061 0.120520 0.686905
0.579817 0.137466 0.736824
0.742031 0.160894 0.780796
0.874361 0.204562 0.813096
0.960636 0.264812 0.842204
0.000000 0.197099 0.482895
0.000000 0.158259 0.568660
0.148355 0.134978 0.601621
0.290027 0.141741 0.636286
0.421488 0.160661 0.678598
0.567117 0.186071 0.723316
0.724807 0.219204 0.764052
0.855941 0.265666 0.795347
0.944277 0.324311 0.824731
0.000000 0.254658 0.550339
0.000000 0.239763 0.604298
0.153214 0.233196 0.633649
0.298440 0.241867 0.658569
0.426740 0.258138 0.685930
0.557941 0.282180 0.713329
0.701577 0.315836 0.741411
0.825406 0.358146 0.767708
0.913652 0.407996 0.795917
0.000000 0.383476 0.659516
0.000000 0.379068 0.687629
0.176025 0.377929 0.696595
0.322893 0.382538 0.711493
0.449129 0.389268 0.723827
0.568428 0.400672 0.729699
0.694152 0.422734 0.735950
0.803173 0.455345 0.750213
0.884789 0.494133 0.773912
0.000000 0.508744 0.728434
0.078767 0.507784 0.734337
0.230025 0.509632 0.733131
0.388151 0.501881 0.733090
0.494247 0.502056 0.727672
0.593902 0.507035 0.727300
0.698838 0.519296 0.733746
0.794525 0.541273 0.746764
0.871317 0.573389 0.769447
0.083791 0.634665 0.760939
0.173331 0.629937 0.756233
0.289590 0.622357 0.747979
0.410386 0.616117 0.737192
0.508701 0.613746 0.730001
0.609362 0.616931 0.728539
0.711073 0.627674 0.735635
0.800299 0.648199 0.752590
0.871601 0.678846 0.778637
0.238678 0.768832 0.792075
0.287869 0.763309 0.786913
0.369472 0.753545 0.777762
0.463552 0.744343 0.765784
0.549069 0.739417 0.757148
0.647112 0.740914 0.754028
0.744487 0.749651 0.758113
0.826393 0.767110 0.778230
0.891059 0.793807 0.806513
0.404964 0.890419 0.852298
0.434940 0.885408 0.847226
0.487507 0.875710 0.837558
0.548766 0.865300 0.827491
0.628840 0.858941 0.818264
0.718838 0.858833 0.815584
0.803297 0.865539 0.821289
0.874027 0.879122 0.836730
0.929027 0.899086 0.861008
0.552502 0.978198 0.928451
0.573384 0.978933 0.924776
0.605327 0.972089 0.916084
0.659496 0.963644 0.906691
0.733920 0.957842 0.898491
0.811890 0.956574 0.895096
0.880765 0.960530 0.899167
0.936078 0.969585 0.910746
0.978555 0.982948 0.928389
0.000000 0.210508 0.514078
0.000000 0.173168 0.600779
0.143201 0.142589 0.647230
0.274386 0.145313 0.679951
0.393987 0.157869 0.723238
0.532130 0.176328 0.774529
0.690353 0.200035 0.826642
0.830501 0.236142 0.866437
0.928238 0.290439 0.896141
0.000000 0.224949 0.543967
0.000000 0.192004 0.621928
0.143153 0.171463 0.654086
0.272357 0.175127 0.681880
0.390737 0.190659 0.721212
0.524840 0.215236 0.767983
0.679543 0.248375 0.816435
0.817883 0.291621 0.854382
0.916151 0.347079 0.883799
0.000000 0.270813 0.601736
0.000000 0.250614 0.653874
0.141586 0.236551 0.670737
0.271339 0.242607 0.691807
0.389965 0.261573 0.724869
0.517604 0.289541 0.762050
0.664060 0.327548 0.801009
0.796484 0.372836 0.833761
0.893473 0.424035 0.861760
0.000000 0.376176 0.697069
0.003579 0.370225 0.731417
0.174771 0.369499 0.734713
0.304023 0.373871 0.749419
0.418673 0.385025 0.768636
0.536833 0.403406 0.787553
0.667414 0.431215 0.804903
0.783788 0.466992 0.821886
0.871338 0.507121 0.842584
0.000000 0.498950 0.784005
0.099587 0.497749 0.789340
0.227280 0.498370 0.790394
0.350373 0.505096 0.800471
0.458929 0.514412 0.813348
0.569736 0.522358 0.821330
0.684420 0.531677 0.821320
0.785442 0.552392 0.825122
0.864511 0.585347 0.840494
0.141892 0.631939 0.831771
0.214165 0.629603 0.828767
0.325402 0.624131 0.828828
0.430150 0.619318 0.821597
0.519194 0.618452 0.814926
0.615051 0.623358 0.812504
0.712614 0.635844 0.816208
0.799405 0.657564 0.827834
0.869420 0.688896 0.847775
0.280241 0.765983 0.860236
0.327585 0.761914 0.856775
0.400514 0.754249 0.849877
0.482827 0.746846 0.839917
0.563421 0.743289 0.832198
0.657311 0.745873 0.829278
0.749511 0.755763 0.833537
0.829016 0.774179 0.847169
0.892281 0.801243 0.869173
0.435721 0.887388 0.907385
0.463993 0.883479 0.903830
0.510415 0.875576 0.896523
0.567033 0.866983 0.887272
0.644657 0.862041 0.879106
0.730700 0.862804 0.876016
0.811585 0.870038 0.879529
0.880138 0.883822 0.890329
0.932958 0.903733 0.911435
0.579174 0.979918 0.970286
0.594038 0.977627 0.967199
0.623909 0.971320 0.960679
0.677500 0.964284 0.953175
0.748863 0.959587 0.945255
0.822653 0.959036 0.941832
0.888196 0.963389 0.944351
0.941378 0.972557 0.953114
0.982575 0.985798 0.967529
0.000000 0.232288 0.564777
0.000000 0.195266 0.652374
0.143305 0.174842 0.685899
0.264842 0.176996 0.712804
0.373935 0.187831 0.750770
0.500133 0.206336 0.799060
0.649764 0.232100 0.852698
0.789916 0.267765 0.896329
0.893970 0.319432 0.926956
0.000000 0.247623 0.596933
0.000000 0.214005 0.677763
0.145952 0.202661 0.695665
0.265303 0.205378 0.718386
0.372772 0.218509 0.752759
0.495979 0.241770 0.797116
0.642823 0.275365 0.847166
0.781142 0.318329 0.888549
0.884892 0.372050 0.918436
0.000000 0.290057 0.654051
0.000000 0.267086 0.713894
0.150589 0.260636 0.714905
0.265835 0.261645 0.728700
0.369866 0.274808 0.754984
0.488100 0.300840 0.791615
0.630453 0.340739 0.835530
0.765560 0.388761 0.873589
0.868236 0.441085 0.902551
0.000000 0.372549 0.724449
0.025621 0.365577 0.758749
0.177880 0.366703 0.762110
0.296384 0.374244 0.776374
0.400879 0.388560 0.797233
0.514113 0.409968 0.822213
0.643344 0.441082 0.847539
0.762675 0.478700 0.869077
0.855083 0.518406 0.889836
0.010631 0.492091 0.821623
0.131400 0.491005 0.821221
0.237878 0.491054 0.823418
0.345273 0.495855 0.833052
0.442479 0.505275 0.846666
0.551229 0.519015 0.861231
0.668601 0.537444 0.871201
0.773758 0.563701 0.879115
0.855927 0.599188 0.892212
0.181848 0.629931 0.875861
0.245423 0.629043 0.874685
0.330642 0.629679 0.874362
0.452762 0.626360 0.882177
0.532994 0.626844 0.877440
0.624505 0.633341 0.874227
0.717746 0.647387 0.875514
0.801394 0.670273 0.883227
0.869564 0.702281 0.898211
0.327340 0.766571 0.908686
0.371583 0.763575 0.906909
0.435103 0.757788 0.901839
0.504792 0.752143 0.894370
0.581877 0.750138 0.887592
0.671107 0.754038 0.884607
0.758330 0.765180 0.887390
0.834262 0.784505 0.897447
0.895400 0.811799 0.914655
0.472737 0.886754 0.945438
0.497724 0.883773 0.943017
0.536646 0.877529 0.937623
0.590674 0.870852 0.929932
0.665101 0.867373 0.923088
0.746342 0.869095 0.920271
0.822472 0.876926 0.923144
0.886784 0.891036 0.932902
0.937520 0.910902 0.949397
0.604555 0.979341 0.996796
0.617560 0.976918 0.994600
0.648347 0.971950 0.990115
0.700755 0.966415 0.983722
0.767805 0.962898 0.977411
0.836649 0.963134 0.974595
0.898001 0.967908 0.976607
0.948216 0.977175 0.983714
0.987673 0.990225 0.995280
