tono/assets/cubes/dolomiti_cima_33.cube
TITLE "Cima"
LUT_3D_SIZE 33
DOMAIN_MIN 0.0 0.0 0.0
DOMAIN_MAX 1.0 1.0 1.0
0.000000 0.000000 0.015069
0.013296 0.000000 0.013759
0.041454 0.000000 0.013986
0.074133 0.000000 0.014674
0.111563 0.000000 0.016073
0.152470 0.000000 0.018428
0.194859 0.001006 0.021891
0.238158 0.002707 0.025899
0.280788 0.007452 0.031226
0.322008 0.016776 0.039484
0.361452 0.031297 0.050950
0.398681 0.050083 0.063750
0.433162 0.068594 0.076755
0.464250 0.085794 0.089312
0.495102 0.103288 0.102469
0.530190 0.123651 0.118191
0.568884 0.146639 0.136377
0.611487 0.170337 0.155576
0.656635 0.195392 0.176211
0.702988 0.221892 0.198340
0.749254 0.249394 0.221569
0.791703 0.280077 0.247464
0.831405 0.309339 0.272508
0.865363 0.334789 0.294535
0.865773 0.335349 0.295598
0.866474 0.336323 0.297386
0.867126 0.337237 0.299043
0.867766 0.338138 0.300670
0.868541 0.339234 0.302636
0.869495 0.340594 0.305051
0.870672 0.342285 0.308019
0.872117 0.344387 0.311653
0.873882 0.346990 0.316075
0.000000 0.023994 0.014809
0.013023 0.024686 0.011678
0.046416 0.023129 0.014322
0.083505 0.023477 0.016991
0.124113 0.023255 0.018334
0.164625 0.023475 0.020547
0.206118 0.024076 0.023906
0.248632 0.025159 0.028208
0.290765 0.028871 0.033109
0.331271 0.037630 0.041345
0.369921 0.050709 0.052818
0.406320 0.065708 0.065475
0.439948 0.081272 0.078330
0.470185 0.096334 0.090702
0.501462 0.112766 0.104209
0.536868 0.132221 0.120272
0.575755 0.154450 0.138764
0.618437 0.177556 0.158196
0.663568 0.202076 0.178978
0.709770 0.228088 0.201190
0.755303 0.255689 0.224856
0.797300 0.285810 0.250657
0.828134 0.308603 0.270115
0.840523 0.318515 0.277946
0.849933 0.326054 0.284708
0.861391 0.334911 0.293463
0.868128 0.340392 0.299055
0.868853 0.341587 0.300668
0.869741 0.343091 0.302593
0.870820 0.344908 0.304965
0.872129 0.347104 0.307885
0.873713 0.349752 0.311466
0.875618 0.352938 0.315827
0.000000 0.051886 0.017542
0.005098 0.055397 0.010965
0.040312 0.053112 0.010758
0.084208 0.049226 0.014346
0.126127 0.049424 0.020214
0.169792 0.049086 0.022641
0.214582 0.048569 0.025951
0.259802 0.048471 0.030760
0.301440 0.050859 0.035203
0.341252 0.057475 0.043416
0.379088 0.067593 0.054843
0.414610 0.079987 0.067361
0.447312 0.093392 0.080054
0.476851 0.106815 0.092321
0.508623 0.122400 0.106240
0.544376 0.141094 0.122689
0.583470 0.162667 0.141524
0.626257 0.185204 0.161184
0.671351 0.209225 0.182127
0.717366 0.234761 0.204424
0.747305 0.252710 0.219559
0.769284 0.268845 0.232759
0.788301 0.283201 0.244334
0.808328 0.298398 0.256734
0.827197 0.312686 0.269357
0.844539 0.325821 0.281802
0.861140 0.338627 0.293730
0.870391 0.346302 0.300814
0.871393 0.348215 0.302693
0.872595 0.350483 0.305012
0.874034 0.353168 0.307873
0.875750 0.356339 0.311385
0.877784 0.360073 0.315668
0.000000 0.082510 0.021907
0.000000 0.087515 0.010238
0.025931 0.086892 0.010103
0.070151 0.083391 0.009915
0.117881 0.078629 0.012411
0.158455 0.078702 0.022465
0.202278 0.078584 0.026943
0.247629 0.077903 0.031006
0.293078 0.077356 0.035777
0.336692 0.079263 0.041858
0.377050 0.085372 0.052666
0.414112 0.094605 0.065315
0.447454 0.105561 0.078180
0.476643 0.116941 0.090316
0.506345 0.130026 0.103332
0.538036 0.145366 0.117841
0.570459 0.162267 0.133264
0.602449 0.179952 0.148982
0.634091 0.196644 0.163474
0.665575 0.213467 0.177945
0.696630 0.230622 0.192635
0.726991 0.247892 0.207364
0.755420 0.266244 0.222922
0.781746 0.285219 0.238946
0.805613 0.302657 0.254455
0.826904 0.318366 0.269304
0.846729 0.333342 0.283231
0.864886 0.347441 0.296039
0.873718 0.355266 0.302887
0.875044 0.357993 0.305127
0.876611 0.361172 0.307895
0.878454 0.364863 0.311299
0.880611 0.369137 0.315460
0.000000 0.115062 0.028370
0.000000 0.120308 0.012299
0.012986 0.121192 0.009405
0.054519 0.119380 0.009285
0.101907 0.115347 0.009096
0.147365 0.111590 0.008821
0.186753 0.110968 0.020530
0.226959 0.111614 0.029443
0.269167 0.111755 0.035012
0.311587 0.111694 0.040587
0.352706 0.112414 0.044970
0.390185 0.116118 0.054031
0.424109 0.122339 0.065180
0.454441 0.130177 0.076753
0.481161 0.138768 0.087833
0.508576 0.149022 0.099859
0.538084 0.161428 0.113414
0.569042 0.175740 0.128206
0.600874 0.191630 0.143944
0.633068 0.208729 0.160341
0.666249 0.225313 0.175712
0.698999 0.242369 0.191202
0.730857 0.259693 0.206674
0.759910 0.278873 0.223593
0.786383 0.297393 0.240481
0.810126 0.314293 0.256811
0.832238 0.330499 0.272164
0.852577 0.345896 0.286337
0.869858 0.359653 0.298607
0.878264 0.367617 0.305328
0.879955 0.371274 0.307977
0.881917 0.375462 0.311241
0.884183 0.380242 0.315240
0.000000 0.149188 0.037285
0.000000 0.153307 0.022113
0.000000 0.156388 0.009543
0.039004 0.155476 0.008620
0.089136 0.152073 0.008498
0.134997 0.148715 0.008309
0.179151 0.145708 0.008060
0.219747 0.144271 0.016367
0.258141 0.144840 0.029306
0.297544 0.145509 0.037871
0.337146 0.145978 0.044728
0.375809 0.146600 0.048769
0.411079 0.149182 0.056495
0.442710 0.153743 0.066620
0.470741 0.159683 0.077340
0.496387 0.166665 0.088131
0.523983 0.175594 0.100527
0.553389 0.186549 0.114419
0.584076 0.199386 0.129504
0.615549 0.213859 0.145485
0.647347 0.229658 0.162073
0.679550 0.245848 0.178282
0.711910 0.261945 0.193721
0.742540 0.279395 0.210081
0.770281 0.297738 0.227581
0.795397 0.314773 0.244804
0.818944 0.331337 0.261123
0.840813 0.347326 0.276296
0.859938 0.362063 0.289725
0.876530 0.375573 0.301752
0.884090 0.383452 0.308103
0.886158 0.388093 0.311206
0.888514 0.393323 0.315015
0.000000 0.184563 0.048679
0.000000 0.187892 0.034371
0.000000 0.191537 0.016489
0.020911 0.192062 0.009881
0.075349 0.189304 0.007875
0.123993 0.186077 0.007743
0.169093 0.183158 0.007559
0.212577 0.180595 0.007330
0.253935 0.178793 0.011147
0.291654 0.178950 0.026339
0.329012 0.179718 0.038094
0.366067 0.180526 0.047055
0.402208 0.181322 0.051263
0.435248 0.183355 0.058147
0.464639 0.186871 0.067346
0.490505 0.191523 0.077232
0.516852 0.197677 0.088539
0.545060 0.205708 0.101645
0.574647 0.215630 0.116178
0.605169 0.227338 0.131781
0.636212 0.240628 0.148128
0.667385 0.255231 0.164926
0.698319 0.270839 0.181907
0.729297 0.286473 0.197835
0.757546 0.303856 0.215569
0.783302 0.320269 0.233363
0.807618 0.336487 0.250351
0.830433 0.352432 0.266242
0.851032 0.367610 0.280684
0.868664 0.381585 0.293363
0.884688 0.394889 0.305305
0.891127 0.402580 0.311146
0.893546 0.408188 0.314757
0.000000 0.220977 0.057610
0.000000 0.223736 0.044917
0.000000 0.226742 0.028889
0.002786 0.229281 0.012830
0.060544 0.226620 0.010609
0.111918 0.223880 0.007163
0.159343 0.220937 0.007027
0.203885 0.218336 0.006850
0.246719 0.216104 0.006639
0.288111 0.214258 0.006404
0.325427 0.214024 0.021453
0.361248 0.214643 0.035362
0.396041 0.215560 0.046008
0.429564 0.216554 0.051213
0.460176 0.218340 0.057750
0.487214 0.221179 0.066039
0.512985 0.225172 0.075850
0.540568 0.230755 0.087968
0.569489 0.238082 0.101946
0.599324 0.247177 0.117286
0.629703 0.257953 0.133546
0.660286 0.270227 0.150360
0.690752 0.283758 0.167422
0.720265 0.298802 0.185248
0.747976 0.315402 0.204104
0.773922 0.330682 0.222332
0.798553 0.346043 0.239835
0.821860 0.361435 0.256266
0.843484 0.376502 0.271548
0.861905 0.390562 0.284799
0.878683 0.404079 0.297266
0.894012 0.417094 0.309129
0.899156 0.424560 0.314416
0.000000 0.257956 0.066287
0.000000 0.260303 0.055317
0.000000 0.262859 0.040496
0.000000 0.266187 0.019494
0.046400 0.263962 0.013017
0.101216 0.261250 0.010051
0.148903 0.258862 0.006489
0.195186 0.256239 0.006352
0.239052 0.253909 0.006185
0.281042 0.251962 0.005992
0.321402 0.250380 0.005783
0.358397 0.249831 0.016243
0.392849 0.250250 0.030645
0.425619 0.251114 0.041323
0.456490 0.252251 0.048009
0.484470 0.253960 0.054637
0.510281 0.256476 0.062533
0.537706 0.260155 0.073025
0.566463 0.265280 0.086006
0.596064 0.272018 0.100917
0.626127 0.280407 0.117130
0.656340 0.290371 0.134110
0.686428 0.301744 0.151437
0.715172 0.315199 0.170455
0.742260 0.330540 0.190686
0.767161 0.345360 0.211149
0.791624 0.359716 0.229466
0.815126 0.374181 0.246340
0.837086 0.388592 0.262090
0.856462 0.402487 0.276165
0.873674 0.415860 0.289029
0.889529 0.428880 0.301338
0.904085 0.441540 0.313194
0.000000 0.295141 0.074677
0.000000 0.297170 0.065059
0.000000 0.299381 0.052604
0.000000 0.302235 0.033322
0.031175 0.301261 0.017532
0.092213 0.298289 0.014200
0.141242 0.295908 0.010357
0.187017 0.293751 0.006124
0.231335 0.291607 0.005724
0.274265 0.289534 0.005566
0.315122 0.287856 0.005391
0.354034 0.286565 0.005205
0.389946 0.286003 0.012599
0.422936 0.286289 0.025249
0.453688 0.287082 0.034503
0.481899 0.288312 0.041919
0.507756 0.290048 0.048995
0.535071 0.292510 0.057706
0.563929 0.295989 0.068980
0.593691 0.300758 0.082791
0.623862 0.306998 0.098570
0.654080 0.314764 0.115598
0.684074 0.323997 0.133250
0.711888 0.336017 0.154717
0.738833 0.349369 0.175795
0.763740 0.362607 0.197140
0.787370 0.376186 0.217522
0.809978 0.390243 0.236428
0.832043 0.403742 0.252628
0.852260 0.417113 0.267565
0.869658 0.430047 0.280743
0.885781 0.442770 0.293416
0.900674 0.455250 0.305682
0.000000 0.332153 0.082746
0.000000 0.333928 0.074229
0.000000 0.335864 0.063626
0.000000 0.338342 0.047735
0.017905 0.338168 0.025148
0.084579 0.334816 0.021315
0.135066 0.332340 0.017071
0.181212 0.330209 0.012385
0.225400 0.328280 0.007529
0.268197 0.326469 0.005143
0.309385 0.324793 0.004997
0.348616 0.323437 0.004839
0.385732 0.322442 0.004674
0.419845 0.322061 0.010610
0.451050 0.322343 0.019706
0.479451 0.323184 0.027999
0.505241 0.324513 0.035146
0.532212 0.326345 0.043019
0.561029 0.328829 0.052735
0.591015 0.332200 0.064698
0.621540 0.336708 0.079121
0.652103 0.342535 0.095512
0.681412 0.350454 0.116002
0.709319 0.360403 0.138499
0.736364 0.371713 0.160345
0.761351 0.383185 0.182630
0.784954 0.395161 0.203967
0.807543 0.407841 0.223669
0.828819 0.420846 0.241853
0.848744 0.433942 0.258841
0.866430 0.446303 0.272659
0.882628 0.458481 0.285637
0.897654 0.470521 0.298262
0.000000 0.368585 0.090455
0.000000 0.370155 0.082839
0.000000 0.371866 0.073641
0.000000 0.374037 0.060765
0.011445 0.374118 0.038434
0.079563 0.370437 0.032542
0.130772 0.367852 0.027384
0.177095 0.365682 0.022240
0.221175 0.363791 0.016861
0.263720 0.362108 0.011613
0.304775 0.360608 0.006960
0.344123 0.359310 0.004476
0.381355 0.358276 0.004335
0.416063 0.357649 0.005252
0.447854 0.357552 0.011159
0.476662 0.358012 0.018063
0.502554 0.358998 0.024734
0.529158 0.360449 0.031718
0.557715 0.362391 0.039793
0.587685 0.364937 0.049823
0.618458 0.368271 0.061947
0.648873 0.372963 0.079284
0.678138 0.379437 0.101189
0.706556 0.387385 0.123428
0.733968 0.396722 0.145453
0.759162 0.406333 0.168465
0.782896 0.416632 0.190572
0.805556 0.427816 0.210959
0.826870 0.439515 0.229785
0.846833 0.451486 0.247425
0.864703 0.463449 0.263313
0.880377 0.475221 0.277439
0.895014 0.486871 0.291057
0.000000 0.403998 0.097754
0.000000 0.405395 0.090905
0.000000 0.406917 0.082813
0.000000 0.408831 0.072077
0.015159 0.408550 0.057938
0.080100 0.404575 0.050757
0.129539 0.401981 0.043459
0.175025 0.399839 0.036350
0.218752 0.397949 0.030292
0.260952 0.396307 0.024478
0.301658 0.394886 0.019150
0.340686 0.393686 0.014763
0.377745 0.392735 0.011730
0.412486 0.392093 0.010818
0.444518 0.391848 0.013007
0.473595 0.392075 0.017200
0.499634 0.392797 0.022201
0.525986 0.393963 0.027920
0.554245 0.395564 0.034431
0.583985 0.397643 0.042095
0.614259 0.400519 0.055118
0.644436 0.404437 0.072366
0.674207 0.409487 0.091549
0.703180 0.415791 0.112030
0.731098 0.423377 0.133102
0.756551 0.431148 0.156259
0.780590 0.439809 0.178558
0.803452 0.449463 0.199250
0.824888 0.459768 0.218488
0.844923 0.470491 0.236649
0.863596 0.481448 0.253859
0.879112 0.492330 0.268411
0.893613 0.503165 0.282497
0.000000 0.437912 0.104586
0.000000 0.439158 0.098401
0.000000 0.440518 0.091209
0.000000 0.442210 0.082081
0.029596 0.440995 0.078343
0.086692 0.436841 0.071264
0.132584 0.434240 0.064171
0.176029 0.432168 0.056476
0.218465 0.430385 0.048659
0.260008 0.428792 0.041697
0.300250 0.427411 0.035801
0.338852 0.426267 0.030763
0.375531 0.425373 0.026984
0.409972 0.424767 0.024768
0.441861 0.424496 0.024467
0.470899 0.424619 0.026308
0.496916 0.425178 0.029470
0.523035 0.426147 0.033679
0.550948 0.427528 0.039319
0.580041 0.429438 0.048602
0.609924 0.431942 0.059824
0.640090 0.435168 0.073258
0.670053 0.439256 0.088895
0.699376 0.444343 0.106442
0.727617 0.450436 0.125584
0.753298 0.456580 0.147933
0.777742 0.463768 0.169487
0.800897 0.471955 0.189834
0.822533 0.480861 0.209056
0.842698 0.490279 0.227447
0.861454 0.500032 0.245027
0.877698 0.509924 0.260760
0.892016 0.519802 0.275244
0.000000 0.469800 0.110888
0.000000 0.470915 0.105256
0.002199 0.471818 0.101524
0.019720 0.472511 0.101118
0.052241 0.470976 0.098232
0.098127 0.466847 0.091458
0.139549 0.464285 0.084762
0.180328 0.462289 0.077414
0.220941 0.460618 0.069631
0.261196 0.459160 0.062067
0.282217 0.461469 0.088414
0.338709 0.456759 0.050694
0.374911 0.455898 0.046684
0.408920 0.455310 0.043936
0.440435 0.455030 0.042765
0.469183 0.455098 0.043301
0.494967 0.455552 0.045278
0.520781 0.456386 0.048780
0.548276 0.457618 0.054069
0.576997 0.459296 0.061173
0.606522 0.461481 0.069961
0.636448 0.464239 0.080305
0.666314 0.467672 0.092659
0.695697 0.471888 0.107041
0.723746 0.476634 0.124346
0.749645 0.481559 0.144702
0.774448 0.487510 0.164593
0.797887 0.494375 0.183863
0.819743 0.501955 0.202561
0.840065 0.510080 0.220773
0.858921 0.518597 0.238407
0.876093 0.527464 0.255167
0.890293 0.536748 0.269877
0.008797 0.498536 0.120961
0.022330 0.498957 0.120628
0.036824 0.499426 0.120290
0.051316 0.500063 0.120007
0.075507 0.498021 0.116823
0.112531 0.494180 0.110529
0.149518 0.491741 0.104273
0.187437 0.489857 0.097380
0.226013 0.488311 0.089949
0.264746 0.486993 0.082428
0.303048 0.485838 0.075517
0.323312 0.488456 0.099025
0.375923 0.484006 0.066187
0.409416 0.483425 0.063699
0.440451 0.483126 0.062406
0.468760 0.483142 0.062381
0.494170 0.483502 0.063530
0.519724 0.484208 0.065906
0.546904 0.485274 0.069774
0.575269 0.486740 0.075266
0.604405 0.488649 0.082386
0.633931 0.491052 0.091013
0.663498 0.493997 0.100955
0.692711 0.497558 0.112557
0.720123 0.501115 0.128609
0.746105 0.505147 0.146426
0.771101 0.510163 0.164162
0.794727 0.516093 0.181876
0.816776 0.522840 0.199629
0.837291 0.530316 0.217244
0.856353 0.538435 0.234556
0.874056 0.547117 0.251489
0.888924 0.556423 0.266834
0.053878 0.526768 0.140630
0.063442 0.527224 0.140426
0.072619 0.527732 0.140230
0.081792 0.528424 0.140124
0.100006 0.524942 0.135859
0.129490 0.520596 0.129456
0.162060 0.517785 0.123235
0.196979 0.515654 0.116512
0.233381 0.513963 0.109292
0.270465 0.512579 0.101890
0.307485 0.511418 0.094845
0.324336 0.514308 0.118332
0.362969 0.513221 0.109730
0.399141 0.512241 0.102197
0.441924 0.508695 0.080200
0.469701 0.508658 0.079931
0.494669 0.508946 0.080636
0.520013 0.509571 0.082378
0.546914 0.510555 0.085392
0.574942 0.511935 0.089843
0.603693 0.513759 0.095801
0.632798 0.516084 0.103232
0.661919 0.518969 0.112009
0.690359 0.522183 0.122993
0.717134 0.525298 0.137579
0.743139 0.529260 0.152692
0.768171 0.534112 0.168210
0.791886 0.539799 0.184285
0.814069 0.546268 0.200824
0.834742 0.553467 0.217564
0.853967 0.561334 0.234314
0.871829 0.569810 0.250961
0.887785 0.578936 0.267056
0.087601 0.558750 0.159723
0.094383 0.559211 0.159770
0.101174 0.559728 0.159839
0.108115 0.560444 0.160018
0.124983 0.554673 0.155591
0.150618 0.549655 0.150805
0.178614 0.546342 0.144501
0.210106 0.543763 0.137792
0.243893 0.541691 0.130644
0.278940 0.539999 0.123283
0.314342 0.538601 0.116133
0.349294 0.537441 0.109732
0.365149 0.540376 0.130881
0.400475 0.539364 0.123333
0.433099 0.538555 0.117136
0.462659 0.538023 0.112513
0.496422 0.535518 0.098954
0.521592 0.536147 0.100323
0.548238 0.537176 0.102814
0.575942 0.538633 0.106584
0.604314 0.540559 0.111725
0.632995 0.542998 0.118246
0.661630 0.545976 0.126159
0.688655 0.548515 0.138323
0.715103 0.551681 0.151005
0.740966 0.555665 0.163715
0.765880 0.560429 0.177210
0.789537 0.565954 0.191721
0.811721 0.572218 0.206954
0.832434 0.579191 0.222676
0.851722 0.586836 0.238700
0.869654 0.595111 0.254900
0.886311 0.603976 0.271208
0.120849 0.593611 0.181478
0.125738 0.594096 0.181585
0.130750 0.594641 0.181719
0.135974 0.595397 0.181981
0.149757 0.586851 0.175452
0.171200 0.581496 0.170657
0.197662 0.577428 0.166362
0.227094 0.574196 0.161313
0.257971 0.571739 0.154237
0.290644 0.569721 0.146963
0.324093 0.568059 0.139823
0.357421 0.566695 0.133254
0.369593 0.569726 0.154504
0.403738 0.568658 0.147009
0.435366 0.567819 0.140724
0.464075 0.567270 0.135883
0.490112 0.567073 0.132482
0.517154 0.567235 0.130154
0.551052 0.565870 0.122501
0.578438 0.567366 0.125769
0.606430 0.569354 0.130283
0.634681 0.571871 0.136076
0.661700 0.573917 0.145749
0.688246 0.576462 0.156476
0.714399 0.579794 0.167479
0.739866 0.583842 0.178969
0.764462 0.588581 0.191241
0.787908 0.594007 0.204328
0.809942 0.600125 0.218316
0.830556 0.606924 0.233017
0.849781 0.614381 0.248261
0.867671 0.622470 0.263925
0.883994 0.631288 0.280942
0.155087 0.630830 0.205984
0.158746 0.631332 0.206148
0.162545 0.631897 0.206345
0.166486 0.629305 0.204243
0.177196 0.620712 0.197434
0.194901 0.615185 0.192397
0.217970 0.610739 0.187734
0.245160 0.606982 0.183237
0.275212 0.603774 0.178966
0.305788 0.601322 0.172622
0.337020 0.599378 0.165554
0.368443 0.597786 0.158949
0.399224 0.596509 0.153188
0.409391 0.599697 0.172886
0.439702 0.598801 0.166605
0.467259 0.598213 0.161626
0.492775 0.597985 0.157902
0.519727 0.598142 0.155091
0.547951 0.598705 0.153489
0.576948 0.599716 0.153403
0.606087 0.601059 0.155421
0.636754 0.601047 0.159109
0.663240 0.603053 0.167637
0.689496 0.605798 0.176729
0.715228 0.609217 0.186559
0.740229 0.613294 0.197367
0.764342 0.618027 0.209075
0.787342 0.623411 0.221552
0.809045 0.629433 0.234675
0.829423 0.636090 0.248446
0.848455 0.643384 0.262951
0.866088 0.651331 0.278450
0.882353 0.659925 0.294890
0.190516 0.669879 0.232984
0.193333 0.670391 0.233200
0.196282 0.670966 0.233454
0.198222 0.663131 0.227365
0.206801 0.655782 0.221258
0.221578 0.650184 0.216059
0.241632 0.645446 0.211104
0.265989 0.641338 0.206270
0.293510 0.637772 0.201618
0.323033 0.634698 0.197313
0.353236 0.632143 0.192993
0.382546 0.630304 0.186431
0.411445 0.628821 0.180594
0.417796 0.632073 0.200578
0.446488 0.631086 0.194395
0.472598 0.630427 0.189388
0.497630 0.630152 0.185403
0.524374 0.630293 0.182203
0.552369 0.630861 0.180099
0.580435 0.631118 0.180550
0.608445 0.631546 0.183168
0.636392 0.632611 0.187328
0.663963 0.634366 0.192939
0.692543 0.636118 0.199093
0.717774 0.639566 0.208353
0.742247 0.643637 0.218640
0.765823 0.648334 0.229867
0.788300 0.653657 0.241923
0.809513 0.659595 0.254696
0.829455 0.666143 0.268126
0.848140 0.673289 0.282171
0.865600 0.681021 0.296804
0.881846 0.689338 0.312150
0.227049 0.710180 0.262131
0.229271 0.710694 0.262390
0.229855 0.707140 0.259508
0.230928 0.698134 0.252276
0.238138 0.691581 0.246599
0.250693 0.686001 0.241309
0.268197 0.681063 0.236136
0.289957 0.676673 0.231040
0.315006 0.672796 0.226093
0.342259 0.669408 0.221445
0.370651 0.666486 0.217293
0.399209 0.664008 0.213849
0.426594 0.662138 0.209520
0.452464 0.660803 0.204580
0.455981 0.664280 0.223690
0.480413 0.663516 0.218744
0.505042 0.663096 0.214628
0.530798 0.662405 0.211959
0.557591 0.662019 0.210568
0.585092 0.662122 0.210502
0.612908 0.662780 0.211855
0.640632 0.663996 0.214774
0.667931 0.665796 0.219441
0.694541 0.668213 0.225802
0.720255 0.671277 0.233723
0.746092 0.674517 0.242513
0.769076 0.679147 0.253353
0.790979 0.684377 0.265053
0.811653 0.690200 0.277516
0.831096 0.696609 0.290685
0.849326 0.703592 0.304518
0.866376 0.711139 0.318984
0.882293 0.719236 0.334065
0.264412 0.751106 0.292986
0.264403 0.748292 0.290637
0.262471 0.740272 0.284118
0.264460 0.733600 0.278467
0.270808 0.727630 0.273094
0.281728 0.722146 0.267778
0.297158 0.717105 0.262464
0.316640 0.712514 0.257180
0.339382 0.708387 0.252018
0.364406 0.704728 0.247121
0.390696 0.701532 0.242667
0.417293 0.698787 0.238841
0.443298 0.696414 0.235860
0.467761 0.694082 0.234142
0.467409 0.696930 0.254647
0.489853 0.695371 0.250224
0.513519 0.694242 0.246494
0.538822 0.693602 0.243513
0.565271 0.693427 0.241520
0.592407 0.693712 0.240780
0.619808 0.694473 0.241567
0.647098 0.695738 0.244002
0.673959 0.697540 0.248121
0.700132 0.699916 0.253886
0.725415 0.702896 0.261199
0.749662 0.706503 0.269922
0.772775 0.710749 0.279904
0.795522 0.715248 0.290648
0.815607 0.720922 0.302842
0.834504 0.727157 0.315769
0.852232 0.733941 0.329386
0.868828 0.741262 0.343662
0.884338 0.749106 0.358570
0.297352 0.785657 0.321254
0.294448 0.778230 0.315109
0.294335 0.772899 0.310583
0.296818 0.767411 0.305757
0.302689 0.761924 0.300706
0.312460 0.756578 0.295504
0.326253 0.751472 0.290220
0.343770 0.746675 0.284943
0.364363 0.742232 0.279799
0.387163 0.738166 0.274943
0.411234 0.734492 0.270548
0.435662 0.731215 0.266785
0.459631 0.728333 0.263800
0.482449 0.725849 0.261686
0.503570 0.723770 0.260463
0.501728 0.726795 0.281905
0.525048 0.725769 0.278086
0.549895 0.725211 0.274983
0.575831 0.725097 0.272906
0.602418 0.725427 0.272078
0.629251 0.726213 0.272682
0.655966 0.727479 0.274839
0.682255 0.729256 0.278599
0.707862 0.731574 0.283945
0.732590 0.734461 0.290801
0.756296 0.737939 0.299054
0.778882 0.742020 0.308575
0.800224 0.746705 0.319217
0.821477 0.751471 0.330359
0.839779 0.757498 0.343057
0.856958 0.764047 0.356452
0.873054 0.771105 0.370509
0.888112 0.778656 0.385198
0.324434 0.812360 0.345356
0.323647 0.807708 0.341355
0.324640 0.803622 0.337732
0.327585 0.798946 0.333470
0.333328 0.793960 0.328751
0.342448 0.788902 0.323737
0.355152 0.783941 0.318558
0.371251 0.779195 0.313338
0.390212 0.774743 0.308217
0.411270 0.770634 0.303348
0.433553 0.766891 0.298897
0.456190 0.763526 0.295025
0.478390 0.760541 0.291870
0.499478 0.757943 0.289525
0.518930 0.755740 0.288028
0.538738 0.754025 0.287430
0.538991 0.757518 0.308243
0.563821 0.756729 0.307113
0.589160 0.756605 0.305128
0.615112 0.756923 0.304336
0.641283 0.757690 0.304904
0.667325 0.758925 0.306944
0.692935 0.760650 0.310510
0.717869 0.762892 0.315593
0.741935 0.765673 0.322134
0.764993 0.769013 0.330037
0.786952 0.772921 0.339189
0.807696 0.777398 0.349459
0.829301 0.781591 0.359749
0.846962 0.787379 0.372216
0.863547 0.793660 0.385370
0.879096 0.800420 0.399173
0.893657 0.807642 0.413589
0.353577 0.841115 0.371564
0.354036 0.837592 0.368387
0.355751 0.834233 0.365276
0.359104 0.830161 0.361426
0.364854 0.825626 0.357009
0.373549 0.820877 0.352209
0.385419 0.816106 0.347187
0.400335 0.811455 0.342093
0.417845 0.807026 0.337079
0.437268 0.802883 0.332304
0.457801 0.799064 0.327927
0.478628 0.795590 0.324098
0.498996 0.792476 0.320940
0.518257 0.789731 0.318537
0.536419 0.787388 0.316930
0.556115 0.785574 0.316216
0.554965 0.789114 0.337368
0.579584 0.788187 0.336710
0.604946 0.787743 0.337151
0.630399 0.787929 0.337324
0.655855 0.788648 0.337972
0.681155 0.789824 0.340025
0.706011 0.791475 0.343530
0.730187 0.793620 0.348481
0.753502 0.796279 0.354828
0.775822 0.799466 0.362485
0.797062 0.803189 0.371351
0.817121 0.807448 0.381307
0.839052 0.811061 0.390693
0.856029 0.816581 0.402912
0.871975 0.822564 0.415792
0.886932 0.828995 0.429291
0.900948 0.835855 0.443370
0.383199 0.869503 0.398695
0.384504 0.866653 0.396006
0.386794 0.863816 0.393269
0.390554 0.860250 0.389778
0.396430 0.856149 0.385673
0.404902 0.851742 0.381136
0.416177 0.847218 0.376337
0.430151 0.842730 0.371439
0.446423 0.838387 0.366604
0.464375 0.834266 0.361992
0.483269 0.830417 0.357759
0.502342 0.826871 0.354043
0.520884 0.823651 0.350956
0.538283 0.820774 0.348570
0.555977 0.818341 0.346956
0.575584 0.816444 0.346240
0.596674 0.815078 0.346549
0.597650 0.818983 0.367015
0.622591 0.818444 0.367555
0.647794 0.818381 0.369295
0.672817 0.818863 0.371676
0.697337 0.819960 0.373840
0.721386 0.821515 0.377387
0.744743 0.823544 0.382307
0.767237 0.826063 0.388551
0.788746 0.829082 0.396042
0.809191 0.832606 0.404684
0.828489 0.836632 0.414368
