tono/assets/cubes/dolomiti_cima_33.cube
TITLE "Cima"
LUT_3D_SIZE 5
DOMAIN_MIN 0.0 0.0 0.0
DOMAIN_MAX 1.0 1.0 1.0
0.000000 0.000000 0.015069
0.280788 0.007452 0.031226
0.568884 0.146639 0.136377
0.865773 0.335349 0.295598
0.873882 0.346990 0.316075
0.000000 0.257956 0.066287
0.239052 0.253909 0.006185
0.510281 0.256476 0.062533
0.742260 0.330540 0.190686
0.904085 0.441540 0.313194
0.053878 0.526768 0.140630
0.233381 0.513963 0.109292
0.494669 0.508946 0.080636
0.717134 0.525298 0.137579
0.887785 0.578936 0.267056
0.324434 0.812360 0.345356
0.390212 0.774743 0.308217
0.538991 0.757518 0.308243
0.741935 0.765673 0.322134
0.893657 0.807642 0.413589
0.515740 0.963471 0.530939
0.596126 0.968010 0.530802
0.740184 0.970386 0.541951
0.887757 0.971944 0.584706
0.979501 0.993070 0.648082
0.000000 0.064733 0.205713
0.269227 0.000000 0.310916
0.584128 0.046818 0.328678
0.869203 0.271482 0.414240
0.910432 0.305963 0.456074
0.000000 0.255115 0.276820
0.240461 0.249336 0.263638
0.514504 0.244389 0.274136
0.741080 0.310268 0.327137
0.911270 0.425149 0.428312
0.000000 0.522521 0.294308
0.213119 0.511721 0.270631
0.490401 0.503861 0.261444
0.711213 0.516224 0.298933
0.888458 0.568477 0.392674
0.281204 0.797982 0.431942
0.367125 0.764142 0.404022
0.546618 0.744394 0.385614
0.740687 0.754727 0.419334
0.890696 0.799245 0.501372
0.506924 0.967333 0.615392
0.590079 0.970690 0.613184
0.732708 0.964098 0.615384
0.881248 0.966564 0.639714
0.976250 0.988440 0.691016
0.000000 0.143845 0.364683
0.205940 0.012763 0.514746
0.544093 0.027326 0.584922
0.831708 0.123985 0.610120
0.963712 0.227741 0.661637
0.000000 0.256646 0.473433
0.192324 0.244503 0.540808
0.497143 0.245447 0.539961
0.740122 0.293640 0.552445
0.929528 0.395143 0.606940
0.000000 0.519812 0.544729
0.209900 0.507891 0.531254
0.493467 0.499710 0.510200
0.707811 0.510648 0.531717
0.883836 0.561429 0.584843
0.216967 0.781615 0.609148
0.340777 0.757410 0.589110
0.536456 0.738167 0.575069
0.736511 0.746886 0.587043
0.888451 0.790461 0.645825
0.515727 0.972800 0.782466
0.591203 0.975436 0.770379
0.722347 0.958445 0.753114
0.873967 0.960277 0.767963
0.973680 0.982672 0.811693
0.000000 0.182850 0.454624
0.152081 0.100924 0.599122
0.428061 0.120520 0.686905
0.742031 0.160894 0.780796
0.960636 0.264812 0.842204
0.000000 0.254658 0.550339
0.153214 0.233196 0.633649
0.426740 0.258138 0.685930
0.701577 0.315836 0.741411
0.913652 0.407996 0.795917
0.000000 0.508744 0.728434
0.230025 0.509632 0.733131
0.494247 0.502056 0.727672
0.698838 0.519296 0.733746
0.871317 0.573389 0.769447
0.238678 0.768832 0.792075
0.369472 0.753545 0.777762
0.549069 0.739417 0.757148
0.744487 0.749651 0.758113
0.891059 0.793807 0.806513
0.552502 0.978198 0.928451
0.605327 0.972089 0.916084
0.733920 0.957842 0.898491
0.880765 0.960530 0.899167
0.978555 0.982948 0.928389
0.000000 0.232288 0.564777
0.143305 0.174842 0.685899
0.373935 0.187831 0.750770
0.649764 0.232100 0.852698
0.893970 0.319432 0.926956
0.000000 0.290057 0.654051
0.150589 0.260636 0.714905
0.369866 0.274808 0.754984
0.630453 0.340739 0.835530
0.868236 0.441085 0.902551
0.010631 0.492091 0.821623
0.237878 0.491054 0.823418
0.442479 0.505275 0.846666
0.668601 0.537444 0.871201
0.855927 0.599188 0.892212
0.327340 0.766571 0.908686
0.435103 0.757788 0.901839
0.581877 0.750138 0.887592
0.758330 0.765180 0.887390
0.895400 0.811799 0.914655
0.604555 0.979341 0.996796
0.648347 0.971950 0.990115
0.767805 0.962898 0.977411
0.898001 0.967908 0.976607
0.987673 0.990225 0.995280
