tono/assets/cubes/milano_galleria_33.cube
TITLE "Galleria"
LUT_3D_SIZE 5
DOMAIN_MIN 0.0 0.0 0.0
DOMAIN_MAX 1.0 1.0 1.0
0.000000 0.000000 0.008634
0.195337 0.046910 0.044208
0.546247 0.189480 0.170758
0.840712 0.360890 0.325829
0.844947 0.367175 0.335786
0.038438 0.190538 0.040893
0.188412 0.183790 0.076294
0.435171 0.235187 0.162063
0.728446 0.339080 0.265565
0.863948 0.438434 0.353974
0.187001 0.491030 0.165302
0.255894 0.471131 0.162270
0.483261 0.467371 0.234975
0.696099 0.519814 0.345928
0.846741 0.594637 0.418816
0.425553 0.832248 0.385417
0.448754 0.792891 0.356503
0.590339 0.769780 0.378440
0.804457 0.781139 0.461150
0.916241 0.833354 0.553362
0.549229 0.950872 0.515622
0.628509 0.954422 0.518875
0.786681 0.960697 0.567174
0.941260 0.960903 0.631414
0.998973 0.978578 0.712373
0.000000 0.047476 0.164874
0.207357 0.026286 0.220425
0.547795 0.145783 0.266658
0.841110 0.325924 0.391257
0.873327 0.342943 0.430373
0.025919 0.190353 0.197942
0.169771 0.173912 0.180328
0.448605 0.219863 0.225587
0.726095 0.321022 0.315085
0.874142 0.423921 0.414155
0.164109 0.486452 0.246753
0.240840 0.467573 0.238136
0.475104 0.462513 0.288427
0.685118 0.512160 0.380211
0.847651 0.586560 0.458450
0.395333 0.818444 0.430895
0.425592 0.781426 0.403177
0.592780 0.755093 0.413359
0.792875 0.772322 0.505477
0.908491 0.827875 0.606701
0.531468 0.956898 0.596925
0.614112 0.959515 0.596286
0.790694 0.953854 0.621055
0.934495 0.958105 0.681218
0.996550 0.977098 0.739334
0.000000 0.136265 0.341647
0.152595 0.067109 0.469727
0.518846 0.139290 0.531368
0.828237 0.236809 0.577829
0.926099 0.291702 0.645518
0.000000 0.195362 0.402530
0.136689 0.188898 0.455967
0.453487 0.220259 0.467004
0.740264 0.293632 0.508751
0.904914 0.393810 0.583867
0.151617 0.488445 0.494826
0.233429 0.468313 0.474426
0.439702 0.442323 0.446501
0.701717 0.503014 0.510238
0.868545 0.573164 0.579724
0.348390 0.802626 0.602352
0.397884 0.774835 0.579189
0.568745 0.753493 0.570995
0.780094 0.768484 0.631572
0.896994 0.826405 0.719769
0.533172 0.965195 0.794395
0.606122 0.967847 0.781346
0.769825 0.956405 0.771416
0.923970 0.958991 0.808894
0.989240 0.978848 0.863257
0.000000 0.180835 0.437528
0.079740 0.112110 0.568941
0.387699 0.162566 0.651763
0.756454 0.248992 0.766686
0.928255 0.320069 0.831031
0.000000 0.211887 0.489385
0.079589 0.182856 0.583989
0.389685 0.235707 0.650465
0.714305 0.316857 0.725923
0.899903 0.411787 0.793081
0.012277 0.460731 0.694219
0.176118 0.455353 0.683966
0.456379 0.460711 0.685333
0.706292 0.514612 0.714949
0.873289 0.584491 0.770796
0.358464 0.791054 0.795298
0.426283 0.773678 0.778582
0.578012 0.760397 0.765242
0.737475 0.739450 0.742637
0.906668 0.835683 0.839969
0.576143 0.970514 0.927586
0.631484 0.966485 0.919636
0.781402 0.959893 0.912756
0.918372 0.967073 0.922922
0.987129 0.984849 0.954575
0.000000 0.223846 0.529700
0.067883 0.170255 0.651374
0.338897 0.197288 0.710826
0.677490 0.274842 0.829554
0.884870 0.346815 0.892995
0.000000 0.254872 0.588482
0.078819 0.221571 0.669871
0.334790 0.247147 0.713358
0.659274 0.346707 0.819861
0.871763 0.446626 0.881360
0.000000 0.442783 0.766693
0.168820 0.440073 0.775557
0.407276 0.469091 0.807341
0.692636 0.539694 0.852281
0.869374 0.615181 0.880523
0.378157 0.784550 0.884871
0.453027 0.771323 0.875832
0.574453 0.750828 0.858387
0.772740 0.775274 0.868900
0.915657 0.853398 0.921252
0.626148 0.972741 0.976386
0.677745 0.968087 0.972277
0.815893 0.965672 0.969689
0.929660 0.973891 0.977030
0.939478 0.940841 0.943486
