tono/assets/cubes/milano_galleria_33.cube
TITLE "Galleria"
LUT_3D_SIZE 9
DOMAIN_MIN 0.0 0.0 0.0
DOMAIN_MAX 1.0 1.0 1.0
0.000000 0.000000 0.008634
0.059507 0.007915 0.013748
0.195337 0.046910 0.044208
0.372498 0.111793 0.101514
0.546247 0.189480 0.170758
0.752792 0.300910 0.271226
0.840712 0.360890 0.325829
0.842355 0.363302 0.329693
0.844947 0.367175 0.335786
0.003324 0.074254 0.013847
0.072936 0.073146 0.024038
0.183152 0.095704 0.065248
0.351760 0.136376 0.106367
0.494903 0.183519 0.152665
0.661210 0.259669 0.224654
0.779201 0.329300 0.288704
0.841836 0.373283 0.330048
0.849833 0.385683 0.339578
0.038438 0.190538 0.040893
0.087266 0.189730 0.044877
0.188412 0.183790 0.076294
0.310051 0.207664 0.138701
0.435171 0.235187 0.162063
0.585154 0.276178 0.202338
0.728446 0.339080 0.265565
0.813115 0.393023 0.317615
0.863948 0.438434 0.353974
0.112518 0.350093 0.101515
0.135731 0.349998 0.103121
0.214260 0.336506 0.109211
0.345462 0.334703 0.157820
0.444756 0.351622 0.217257
0.562347 0.382578 0.251137
0.701425 0.424652 0.288708
0.797734 0.467642 0.333296
0.853764 0.508573 0.369944
0.187001 0.491030 0.165302
0.198899 0.487853 0.164250
0.255894 0.471131 0.162270
0.378925 0.464028 0.187867
0.483261 0.467371 0.234975
0.585372 0.486357 0.295573
0.696099 0.519814 0.345928
0.787664 0.555852 0.383492
0.846741 0.594637 0.418816
0.304011 0.673646 0.270810
0.301577 0.654995 0.258856
0.334718 0.629569 0.244914
0.436824 0.614401 0.252789
0.533785 0.610047 0.281260
0.637990 0.617791 0.333825
0.737220 0.640552 0.398647
0.815366 0.674660 0.449481
0.869496 0.713508 0.490463
0.425553 0.832248 0.385417
0.421446 0.814191 0.371761
0.448754 0.792891 0.356503
0.525165 0.775747 0.351106
0.590339 0.769780 0.378440
0.711058 0.766881 0.406710
0.804457 0.781139 0.461150
0.871053 0.804640 0.510859
0.916241 0.833354 0.553362
0.502034 0.919186 0.460956
0.510454 0.911219 0.454338
0.550704 0.899243 0.445426
0.614080 0.887971 0.442123
0.681689 0.885491 0.470680
0.800489 0.881227 0.494855
0.877578 0.889451 0.541137
0.926450 0.902562 0.582881
0.960564 0.919120 0.622933
0.549229 0.950872 0.515622
0.575396 0.952066 0.515996
0.628509 0.954422 0.518875
0.702316 0.957468 0.529009
0.786681 0.960697 0.567174
0.888364 0.956463 0.594847
0.941260 0.960903 0.631414
0.975546 0.968632 0.665334
0.998973 0.978578 0.712373
0.000000 0.000000 0.085188
0.070593 0.003706 0.085130
0.209382 0.026695 0.089331
0.377897 0.100669 0.126644
0.543196 0.180540 0.185437
0.744990 0.290734 0.278617
0.843894 0.357515 0.339898
0.846439 0.359912 0.345427
0.850851 0.362258 0.358065
0.001170 0.074954 0.083242
0.063781 0.068685 0.076312
0.194736 0.087630 0.094296
0.357334 0.128475 0.128098
0.495213 0.176813 0.168808
0.655808 0.252304 0.234718
0.774630 0.321787 0.297104
0.841624 0.368338 0.340717
0.854212 0.381808 0.357634
0.029007 0.191498 0.089155
0.081550 0.190747 0.089929
0.187264 0.184284 0.108976
0.311572 0.206932 0.153523
0.437212 0.232466 0.175172
0.583723 0.271816 0.213595
0.723984 0.332617 0.274089
0.812137 0.388715 0.326801
0.865472 0.434665 0.366977
0.107937 0.350608 0.125907
0.131923 0.350331 0.126859
0.211989 0.337009 0.130714
0.344547 0.334602 0.173496
0.443002 0.350932 0.228733
0.559372 0.379927 0.259039
0.696386 0.419050 0.294876
0.796380 0.463869 0.340422
0.854529 0.505432 0.380257
0.183060 0.490292 0.179243
0.195378 0.486888 0.178152
0.253282 0.470486 0.176396
0.376722 0.463045 0.199681
0.480766 0.465499 0.245108
0.580085 0.483005 0.303563
0.690408 0.515777 0.351816
0.785050 0.552773 0.389793
0.846316 0.591697 0.427337
0.296405 0.667473 0.277600
0.294523 0.648895 0.266183
0.328732 0.624227 0.253604
0.431190 0.608907 0.261486
0.527791 0.603553 0.289276
0.631217 0.611698 0.340467
0.732022 0.636188 0.405413
0.811598 0.671322 0.457708
0.866617 0.710904 0.501658
0.416911 0.825805 0.390927
0.413382 0.808123 0.377651
0.441267 0.787051 0.362870
0.519015 0.770307 0.358312
0.585092 0.764796 0.386388
0.705875 0.762582 0.414800
0.800200 0.777492 0.469934
0.867856 0.801741 0.522349
0.913641 0.831205 0.568392
0.494828 0.917017 0.474529
0.503732 0.909124 0.467690
0.544692 0.897154 0.458540
0.609005 0.885842 0.455360
0.676928 0.883184 0.484216
0.796312 0.878968 0.509351
0.874305 0.887469 0.556699
0.924020 0.901013 0.599117
0.958591 0.917950 0.639550
0.542865 0.952894 0.542258
0.569548 0.953963 0.541947
0.623553 0.956069 0.543546
0.697988 0.958762 0.552197
0.782661 0.959528 0.587991
0.885207 0.955280 0.613965
0.938943 0.959866 0.648711
0.973737 0.967769 0.680318
0.998973 0.978213 0.714531
0.000000 0.047476 0.164874
0.068095 0.006097 0.242268
0.207357 0.026286 0.220425
0.385959 0.071751 0.233477
0.547795 0.145783 0.266658
0.747965 0.261888 0.341808
0.841110 0.325924 0.391257
0.865485 0.343719 0.408274
0.873327 0.342943 0.430373
0.000000 0.066885 0.228074
0.064079 0.069077 0.221688
0.198029 0.081966 0.211205
0.366033 0.105908 0.219896
0.499478 0.150807 0.240928
0.653888 0.229119 0.288003
0.777673 0.303375 0.343750
0.849525 0.351910 0.389123
0.871874 0.367443 0.419513
0.025919 0.190353 0.197942
0.077056 0.189761 0.197093
0.169771 0.173912 0.180328
0.325750 0.197334 0.204565
0.448605 0.219863 0.225587
0.588058 0.259039 0.260261
0.726095 0.321022 0.315085
0.817073 0.377953 0.367710
0.874142 0.423921 0.414155
0.087239 0.348350 0.212104
0.114592 0.347114 0.211383
0.199495 0.335877 0.206258
0.338857 0.332372 0.231097
0.437554 0.349181 0.270881
0.558165 0.374861 0.291321
0.696622 0.411895 0.326881
0.798958 0.456492 0.374169
0.860598 0.498234 0.419593
0.164109 0.486452 0.246753
0.178750 0.481837 0.244186
0.240840 0.467573 0.238136
0.368305 0.460462 0.250839
0.475104 0.462513 0.288427
0.572662 0.480183 0.339392
0.685118 0.512160 0.380211
0.783768 0.548070 0.417375
0.847651 0.586560 0.458450
0.275518 0.660393 0.325302
0.275468 0.640583 0.312862
0.314890 0.617784 0.301095
0.420951 0.603271 0.305365
0.520210 0.598165 0.328457
0.623562 0.606281 0.375712
0.724051 0.631242 0.438391
0.804960 0.667108 0.490482
0.861362 0.707381 0.537027
0.395333 0.818444 0.430895
0.394226 0.801986 0.417872
0.425592 0.781426 0.403177
0.507560 0.764682 0.399119
0.592780 0.755093 0.413359
0.697314 0.757123 0.450872
0.792875 0.772322 0.505477
0.861835 0.797416 0.559529
0.908491 0.827875 0.606701
0.475090 0.914957 0.524272
0.485775 0.907279 0.516956
0.529734 0.895281 0.506973
0.597239 0.883630 0.503093
0.686103 0.875936 0.516415
0.788331 0.875847 0.552287
0.868205 0.884572 0.595536
0.919387 0.898527 0.636290
0.954706 0.915905 0.673302
0.531468 0.956898 0.596925
0.558944 0.957804 0.596060
0.614112 0.959515 0.596286
0.689234 0.960215 0.601875
0.790694 0.953854 0.621055
0.879012 0.953472 0.651588
0.934495 0.958105 0.681218
0.970149 0.966164 0.709772
0.996550 0.977098 0.739334
0.000000 0.105184 0.277708
0.009833 0.027799 0.385314
0.186110 0.051549 0.385874
0.383411 0.087230 0.396819
0.554600 0.132139 0.424163
0.765147 0.217549 0.467576
0.841774 0.274174 0.477344
0.895910 0.314383 0.500187
0.902854 0.314196 0.523455
0.000000 0.109654 0.284446
0.009853 0.078960 0.364892
0.172527 0.094850 0.368000
0.354098 0.114049 0.368191
0.492266 0.142204 0.381940
0.656034 0.195288 0.406385
0.790944 0.267783 0.440982
0.867942 0.320323 0.476259
0.898664 0.344609 0.506521
0.000000 0.180613 0.349069
0.054770 0.177540 0.346361
0.173583 0.178240 0.338596
0.331573 0.195835 0.343303
0.458541 0.211815 0.353927
0.598397 0.243873 0.374211
0.738285 0.301714 0.410185
0.832590 0.358982 0.452172
0.891249 0.407325 0.492435
0.087198 0.348785 0.355724
0.115686 0.344951 0.351800
0.195661 0.336765 0.343161
0.313363 0.316698 0.321862
0.451286 0.345445 0.352039
0.573438 0.365426 0.373276
0.708920 0.400345 0.406699
0.811186 0.444963 0.448735
0.873731 0.487469 0.490042
0.148541 0.486478 0.380683
0.164921 0.479021 0.373944
0.227050 0.468193 0.364007
0.354198 0.463749 0.360904
0.469795 0.463768 0.382859
0.566716 0.481529 0.416270
0.688579 0.508488 0.441903
0.791112 0.541643 0.476991
0.856140 0.579644 0.515840
0.246444 0.658830 0.438151
0.248740 0.635116 0.422377
0.294687 0.615502 0.410073
0.404811 0.602770 0.406418
0.509780 0.597500 0.417948
0.616146 0.604319 0.455555
0.715286 0.629631 0.507849
0.798784 0.665271 0.548730
0.857403 0.705268 0.588076
0.363133 0.811485 0.513998
0.366329 0.797427 0.503672
0.404892 0.778103 0.491165
0.492107 0.761905 0.485819
0.579701 0.752848 0.492365
0.687837 0.754154 0.520726
0.785261 0.768856 0.567791
0.855062 0.794348 0.615164
0.902498 0.825398 0.656025
0.452088 0.912640 0.595357
0.465701 0.905554 0.588465
0.513803 0.893910 0.578951
0.584827 0.881988 0.574921
0.674973 0.874340 0.582559
0.779321 0.873982 0.608662
0.861598 0.882291 0.646090
0.914198 0.896453 0.683615
0.950095 0.914364 0.720523
0.522143 0.961883 0.681747
0.550327 0.962567 0.678316
0.605654 0.963740 0.673767
0.679610 0.959415 0.672010
0.780635 0.953510 0.681384
0.871502 0.952669 0.705724
0.929110 0.957182 0.734041
0.965683 0.965528 0.763282
0.992641 0.976965 0.794553
0.000000 0.136265 0.341647
0.000000 0.098603 0.401515
0.152595 0.067109 0.469727
0.355335 0.108528 0.506350
0.518846 0.139290 0.531368
0.693786 0.186781 0.552560
0.828237 0.236809 0.577829
0.905078 0.276951 0.608230
0.926099 0.291702 0.645518
0.000000 0.132005 0.333550
0.000000 0.102638 0.406426
0.138310 0.096314 0.446561
0.326050 0.127308 0.468867
0.473137 0.152292 0.485949
0.637578 0.191703 0.510574
0.789037 0.243812 0.541403
0.878605 0.291736 0.576284
0.922783 0.324491 0.617246
0.000000 0.195362 0.402530
0.000000 0.185733 0.436683
0.136689 0.188898 0.455967
0.330261 0.202352 0.456256
0.453487 0.220259 0.467004
0.592840 0.248464 0.482233
0.740264 0.293632 0.508751
0.842587 0.345385 0.542705
0.904914 0.393810 0.583867
0.035821 0.341705 0.470111
0.080804 0.332773 0.461444
0.170080 0.322079 0.452758
0.321962 0.325804 0.452086
0.454556 0.347279 0.464079
0.577015 0.365091 0.476846
0.713940 0.396529 0.498698
0.819185 0.438669 0.530431
0.883212 0.480748 0.568974
0.151617 0.488445 0.494826
0.170208 0.476633 0.483024
0.233429 0.468313 0.474426
0.354130 0.465619 0.470833
0.439702 0.442323 0.446501
0.578466 0.480072 0.485794
0.701717 0.503014 0.510238
0.803279 0.535137 0.542139
0.868545 0.573164 0.579724
0.238682 0.642955 0.531670
0.246980 0.628717 0.521158
0.295310 0.612942 0.510255
0.398767 0.603315 0.504545
0.499646 0.600725 0.505275
0.611904 0.605995 0.530812
0.710687 0.631521 0.569153
0.799885 0.664989 0.599869
0.860916 0.704277 0.638358
0.348390 0.802626 0.602352
0.355989 0.791437 0.592492
0.397884 0.774835 0.579189
0.482227 0.760984 0.570655
0.568745 0.753493 0.570995
0.680301 0.754619 0.589917
0.780094 0.768484 0.631572
0.849485 0.794526 0.677640
0.896994 0.826405 0.719769
0.443002 0.909041 0.694310
0.459642 0.902897 0.686293
0.508095 0.892549 0.673801
0.574996 0.882130 0.663974
0.664187 0.875693 0.664088
0.770873 0.875289 0.681724
0.856100 0.882867 0.715291
0.909754 0.897145 0.752621
0.945873 0.915564 0.790198
0.533172 0.965195 0.794395
0.558756 0.966065 0.789681
0.606122 0.967847 0.781346
0.671664 0.960950 0.771687
0.769825 0.956405 0.771416
0.863242 0.955235 0.785549
0.923970 0.958991 0.808894
0.961702 0.967262 0.834957
0.989240 0.978848 0.863257
0.000000 0.149884 0.373388
0.000000 0.130588 0.412891
0.107046 0.078692 0.511986
0.288878 0.116044 0.558957
0.447143 0.151335 0.602467
0.637018 0.190963 0.648746
0.798433 0.237993 0.686394
0.889115 0.276202 0.720243
0.928985 0.303904 0.756605
0.000000 0.153118 0.381166
0.000000 0.137857 0.426508
0.104686 0.104428 0.508623
0.282487 0.135860 0.547631
0.435090 0.167347 0.582748
0.608806 0.202869 0.620929
0.771122 0.249286 0.657532
0.870736 0.292091 0.693636
0.929403 0.332628 0.734261
0.000000 0.201077 0.449951
0.000000 0.191550 0.482070
0.107323 0.182217 0.527101
0.284386 0.205323 0.553203
0.431221 0.231244 0.572253
0.580523 0.260535 0.593316
0.733268 0.302089 0.622849
0.841921 0.347975 0.657997
0.907030 0.395538 0.699577
0.000000 0.335067 0.554970
0.000000 0.330871 0.564610
0.135526 0.331052 0.565586
0.325216 0.329986 0.566178
0.453787 0.352464 0.572301
0.575583 0.373614 0.585025
0.710013 0.404460 0.606771
0.818227 0.443595 0.637970
0.884560 0.484142 0.676953
0.118186 0.472412 0.597865
0.143186 0.466250 0.589255
0.212197 0.457009 0.577724
0.327551 0.445011 0.565783
0.452368 0.455546 0.569999
0.581684 0.483632 0.590319
0.705794 0.505125 0.610308
0.808818 0.535950 0.639349
0.875122 0.573984 0.677017
0.241147 0.634579 0.640071
0.254601 0.625438 0.631070
0.306858 0.613007 0.618989
0.407515 0.605005 0.610498
0.501550 0.604152 0.608851
0.576616 0.579027 0.582777
0.723611 0.632911 0.638067
0.815605 0.663788 0.669971
0.876964 0.702775 0.709203
0.349462 0.795289 0.707387
0.361855 0.786669 0.698541
0.408027 0.772860 0.684997
0.487163 0.761221 0.674658
0.567074 0.756251 0.671255
0.673362 0.760491 0.678721
0.778138 0.773036 0.710826
0.845965 0.799888 0.751003
0.894910 0.831782 0.787032
0.451128 0.905144 0.794254
0.471010 0.900126 0.787327
0.518774 0.891258 0.775480
0.579295 0.882417 0.764698
0.662131 0.878392 0.761549
0.763932 0.880354 0.768687
0.852929 0.887033 0.791931
0.907622 0.900809 0.824565
0.943239 0.919373 0.857789
0.552646 0.968179 0.879280
0.576245 0.969015 0.875884
0.616544 0.967139 0.868297
0.680229 0.960971 0.860054
0.769855 0.958684 0.857543
0.857278 0.959657 0.861923
0.920240 0.962863 0.876212
0.959504 0.970487 0.896641
0.987369 0.981775 0.919246
0.000000 0.180835 0.437528
0.000000 0.168209 0.469828
0.079740 0.112110 0.568941
0.240732 0.127892 0.601674
0.387699 0.162566 0.651763
0.573721 0.206656 0.714078
0.756454 0.248992 0.766686
0.866350 0.285942 0.801363
0.928255 0.320069 0.831031
0.000000 0.184807 0.447396
0.000000 0.172435 0.478324
0.076873 0.124342 0.566153
0.237909 0.142818 0.598509
0.384726 0.178459 0.646265
0.558902 0.219338 0.699694
0.738595 0.263411 0.749315
0.853830 0.305876 0.785182
0.918584 0.348388 0.817252
0.000000 0.211887 0.489385
0.000000 0.203463 0.517722
0.079589 0.182856 0.583989
0.245193 0.203820 0.613801
0.389685 0.235707 0.650465
0.547328 0.273384 0.688037
0.714305 0.316857 0.725923
0.832839 0.363793 0.759510
0.899903 0.411787 0.793081
0.000000 0.324568 0.606346
0.000000 0.320313 0.621010
0.104666 0.316934 0.641226
0.269841 0.331247 0.659064
0.413512 0.356879 0.681481
0.556461 0.385045 0.697507
0.701758 0.417093 0.714361
0.813763 0.456498 0.740527
0.881099 0.495621 0.772961
0.012277 0.460731 0.694219
0.074443 0.457724 0.689281
0.176118 0.455353 0.683966
0.338365 0.448390 0.684719
0.456379 0.460711 0.685333
0.582134 0.488706 0.697689
0.706292 0.514612 0.714949
0.807455 0.545806 0.739121
0.873289 0.584491 0.770796
0.223118 0.623919 0.736413
0.242003 0.616969 0.729527
0.297921 0.604872 0.717803
0.388336 0.590794 0.704587
0.470541 0.579705 0.693670
0.595585 0.598586 0.705323
0.728948 0.639880 0.736445
0.820642 0.670301 0.761303
0.881836 0.709158 0.793423
0.358464 0.791054 0.795298
0.376540 0.784621 0.789064
0.426283 0.773678 0.778582
0.500240 0.764061 0.769349
0.578012 0.760397 0.765242
0.679532 0.766198 0.770229
0.737475 0.739450 0.742637
0.855623 0.805542 0.809450
0.906668 0.835683 0.839969
0.466994 0.902407 0.863519
0.489832 0.898527 0.859131
0.535789 0.891251 0.850909
0.592162 0.883755 0.842610
0.674319 0.880783 0.839388
0.769236 0.884443 0.843856
0.851125 0.893593 0.855921
0.907951 0.906157 0.879461
0.942401 0.924622 0.905114
0.576143 0.970514 0.927586
0.596658 0.971289 0.925404
0.631484 0.966485 0.919636
0.695251 0.961470 0.914471
0.781402 0.959893 0.912756
0.861200 0.962201 0.915676
0.918372 0.967073 0.922922
0.958951 0.974069 0.936567
0.987129 0.984849 0.954575
0.000000 0.207232 0.492810
0.000000 0.196720 0.522780
0.066726 0.147751 0.619811
0.221635 0.156265 0.644396
0.354881 0.181934 0.688376
0.525999 0.222116 0.749786
0.711785 0.262987 0.808965
0.836566 0.297989 0.845328
0.906648 0.332550 0.870663
0.000000 0.212632 0.505901
0.000000 0.202127 0.535025
0.066933 0.159499 0.621696
0.219347 0.167318 0.643556
0.350690 0.192962 0.684688
0.515882 0.234397 0.742225
0.699299 0.279882 0.799743
0.827515 0.321655 0.836753
0.899303 0.365078 0.862983
0.000000 0.236630 0.547005
0.000000 0.226990 0.572045
0.068983 0.199075 0.632645
0.219041 0.207158 0.650014
0.353146 0.239399 0.691605
0.509806 0.282947 0.740750
0.683242 0.331862 0.788426
0.812827 0.380224 0.823044
0.886468 0.428824 0.849752
0.000000 0.320781 0.637425
0.000000 0.316127 0.656299
0.094255 0.310825 0.685433
0.248390 0.324053 0.702931
0.380177 0.350603 0.731573
0.526931 0.387541 0.762881
0.682827 0.428482 0.790135
0.802984 0.468745 0.814240
0.874465 0.507801 0.838272
0.000000 0.447537 0.740503
0.028457 0.444966 0.746615
0.158687 0.443407 0.744754
0.294656 0.452107 0.754649
0.419741 0.473773 0.774383
0.584442 0.495425 0.783157
0.708875 0.527370 0.796790
0.804620 0.559456 0.816560
0.871522 0.598602 0.838164
0.194198 0.615175 0.803565
0.221570 0.610293 0.799218
0.297457 0.598799 0.795065
0.390612 0.587904 0.785627
0.480452 0.586140 0.780405
0.603929 0.607763 0.788600
0.732902 0.649219 0.811415
0.823556 0.682402 0.831307
0.883294 0.721245 0.855038
0.367022 0.787329 0.851992
0.390489 0.782241 0.848051
0.440114 0.772586 0.840429
0.503056 0.762061 0.831590
0.572483 0.753569 0.823108
0.652783 0.741555 0.810665
0.762355 0.764637 0.827321
0.861415 0.813670 0.867005
0.911316 0.843108 0.889176
0.490125 0.901024 0.904536
0.514220 0.898160 0.901917
0.555948 0.892423 0.896607
0.609711 0.886528 0.891218
0.691088 0.884864 0.889300
0.781632 0.889110 0.892944
0.857776 0.898550 0.901718
0.862333 0.863843 0.866587
0.948007 0.929125 0.932135
0.601509 0.972483 0.957348
0.616775 0.970938 0.955302
0.651563 0.966689 0.951173
0.715360 0.962955 0.947764
0.796904 0.962185 0.946722
0.870792 0.964806 0.949281
0.922676 0.970179 0.954989
0.959590 0.978217 0.963901
0.988480 0.988411 0.978105
0.000000 0.223846 0.529700
0.000000 0.213174 0.561359
0.067883 0.170255 0.651374
0.215849 0.176607 0.672205
0.338897 0.197288 0.710826
0.496790 0.233454 0.768470
0.677490 0.274842 0.829554
0.809483 0.310059 0.868723
0.884870 0.346815 0.892995
0.000000 0.230292 0.545113
0.000000 0.219538 0.576502
0.070743 0.182936 0.655687
0.215875 0.189025 0.674423
0.337057 0.210073 0.710719
0.490864 0.247952 0.765255
0.669253 0.294620 0.824477
0.803111 0.337810 0.863783
0.879867 0.383445 0.888558
0.000000 0.254872 0.588482
0.000000 0.244725 0.616986
0.078819 0.221571 0.669871
0.217793 0.226369 0.683261
0.334790 0.247147 0.713358
0.486404 0.292911 0.766501
0.659274 0.346707 0.819861
0.793391 0.397117 0.856640
0.871763 0.446626 0.881360
0.000000 0.323495 0.659664
0.000000 0.318211 0.683005
0.101288 0.313533 0.711665
0.243263 0.326597 0.729316
0.364304 0.352585 0.758913
0.508640 0.392429 0.796805
0.667262 0.439013 0.831383
0.790940 0.481130 0.855915
0.865513 0.520414 0.875947
0.000000 0.442783 0.766693
0.043168 0.440548 0.775240
0.168820 0.440073 0.775557
0.293478 0.448672 0.786764
0.407276 0.469091 0.807341
0.548240 0.503005 0.834125
0.692636 0.539694 0.852281
0.800887 0.574263 0.864293
0.869374 0.615181 0.880523
0.185941 0.611959 0.840957
0.222456 0.608435 0.838349
0.292541 0.603850 0.835072
0.408571 0.595902 0.839266
0.496759 0.598388 0.836046
0.615956 0.620420 0.841952
0.738622 0.660241 0.858631
0.828588 0.697577 0.875567
0.886262 0.736411 0.893586
0.378157 0.784550 0.884871
0.405736 0.780199 0.882008
0.453027 0.771323 0.875832
0.506747 0.760773 0.867789
0.574453 0.750828 0.858387
0.659932 0.744137 0.849468
0.772740 0.775274 0.868900
0.866548 0.823116 0.902274
0.915657 0.853398 0.921252
0.518770 0.901100 0.930554
0.541308 0.898945 0.928789
0.576138 0.894299 0.924792
0.629895 0.889560 0.920671
0.707453 0.887431 0.918021
0.785272 0.885646 0.915097
0.829857 0.869822 0.898332
0.887550 0.889160 0.914884
0.952461 0.934656 0.956950
0.626148 0.972741 0.976386
0.641268 0.971125 0.974937
0.677745 0.968087 0.972277
0.740351 0.965635 0.970018
0.815893 0.965672 0.969689
0.882625 0.968571 0.972113
0.929660 0.973891 0.977030
0.963424 0.981380 0.984226
0.939478 0.940841 0.943486
