tono/assets/cubes/milano_galleria_33.cube
TITLE "Galleria"
LUT_3D_SIZE 33
DOMAIN_MIN 0.0 0.0 0.0
DOMAIN_MAX 1.0 1.0 1.0
0.000000 0.000000 0.008634
0.005090 0.000587 0.008769
0.018705 0.002313 0.009827
0.036349 0.004502 0.011310
0.059507 0.007915 0.013748
0.086589 0.013083 0.017574
0.117680 0.020638 0.023311
0.153959 0.031717 0.031890
0.195337 0.046910 0.044208
0.240085 0.063493 0.058767
0.286161 0.080281 0.073565
0.331233 0.096469 0.087903
0.372498 0.111793 0.101514
0.408804 0.126380 0.114475
0.448609 0.143465 0.129673
0.494642 0.164512 0.148432
0.546247 0.189480 0.170758
0.601700 0.216803 0.195301
0.657365 0.245616 0.221291
0.709701 0.273831 0.246854
0.752792 0.300910 0.271226
0.787535 0.324130 0.292169
0.817458 0.344550 0.310666
0.840421 0.360473 0.325139
0.840712 0.360890 0.325829
0.841144 0.361519 0.326844
0.841543 0.362104 0.327783
0.841938 0.362685 0.328711
0.842355 0.363302 0.329693
0.842821 0.363991 0.330788
0.843389 0.364836 0.332124
0.844087 0.365879 0.333765
0.844947 0.367175 0.335786
0.000000 0.014646 0.008596
0.010739 0.014780 0.010428
0.026780 0.015794 0.013171
0.043328 0.019527 0.017640
0.067946 0.023501 0.020140
0.095123 0.029166 0.024099
0.126478 0.037263 0.030068
0.163233 0.048298 0.039042
0.204703 0.061354 0.051449
0.249179 0.075822 0.064971
0.294633 0.090850 0.078888
0.338777 0.105563 0.092445
0.378918 0.119541 0.105286
0.415016 0.133354 0.117928
0.455486 0.150128 0.133220
0.502219 0.170998 0.152195
0.554236 0.195720 0.174648
0.609670 0.222758 0.199229
0.664869 0.251139 0.225074
0.716310 0.278736 0.250270
0.757754 0.305331 0.274317
0.791644 0.327909 0.294799
0.813137 0.342700 0.308097
0.822100 0.349350 0.313753
0.829186 0.354584 0.318675
0.837971 0.360851 0.324909
0.842021 0.363876 0.328130
0.842407 0.364444 0.329042
0.842852 0.365168 0.330044
0.843367 0.366060 0.331169
0.843991 0.367143 0.332536
0.844753 0.368467 0.334211
0.845688 0.370093 0.336274
0.000000 0.032215 0.009791
0.012182 0.032474 0.010913
0.029924 0.032259 0.013841
0.051300 0.032999 0.018557
0.071103 0.039140 0.027040
0.099593 0.045338 0.031020
0.133648 0.053099 0.037324
0.173575 0.063103 0.047100
0.215090 0.074673 0.058751
0.259235 0.087654 0.071369
0.303974 0.101285 0.084452
0.347056 0.114715 0.097231
0.385900 0.127460 0.109291
0.422141 0.140706 0.121748
0.463400 0.157262 0.137198
0.510875 0.178015 0.156431
0.563304 0.202511 0.179023
0.618644 0.229263 0.203636
0.673248 0.257169 0.229293
0.723343 0.284363 0.254277
0.748868 0.301107 0.269234
0.767450 0.313674 0.280350
0.782736 0.324248 0.289634
0.798184 0.335003 0.299126
0.812171 0.344721 0.308202
0.825057 0.353693 0.316922
0.837465 0.362474 0.325365
0.843032 0.366713 0.329534
0.843527 0.367631 0.330576
0.844099 0.368755 0.331741
0.844789 0.370114 0.333146
0.845627 0.371762 0.334869
0.846650 0.373773 0.336987
0.000000 0.052203 0.011408
0.013770 0.052667 0.012293
0.030385 0.052573 0.014070
0.050547 0.051756 0.018018
0.071070 0.053482 0.029265
0.093810 0.059255 0.037759
0.124733 0.066039 0.043526
0.162844 0.074241 0.051371
0.206193 0.084344 0.061830
0.252548 0.096069 0.073883
0.299394 0.108762 0.086611
0.344052 0.121465 0.099189
0.383841 0.133321 0.110798
0.419435 0.145300 0.122404
0.457966 0.159845 0.136298
0.499760 0.177232 0.152691
0.542873 0.196686 0.170838
0.585324 0.216621 0.189275
0.625373 0.236188 0.207252
0.663348 0.255542 0.224985
0.698561 0.274129 0.241978
0.729472 0.292135 0.258318
0.755063 0.308860 0.273361
0.776978 0.323555 0.286521
0.795340 0.336025 0.298086
0.811266 0.346948 0.308577
0.825965 0.357243 0.318376
0.839368 0.366860 0.327422
0.844493 0.371114 0.331375
0.845140 0.372532 0.332594
0.845913 0.374242 0.334052
0.846849 0.376308 0.335838
0.847985 0.378815 0.338030
0.003324 0.074254 0.013847
0.017036 0.074713 0.014651
0.032554 0.074962 0.015939
0.050860 0.074253 0.018303
0.072936 0.073146 0.024038
0.093558 0.074907 0.037527
0.115470 0.080536 0.050588
0.145441 0.087682 0.058130
0.183152 0.095704 0.065248
0.225056 0.104863 0.074366
0.268605 0.115045 0.084823
0.311546 0.125764 0.095684
0.351760 0.136376 0.106367
0.387453 0.146233 0.116182
0.420352 0.156243 0.126071
0.455968 0.168541 0.138132
0.494903 0.183519 0.152665
0.536196 0.200940 0.169380
0.578529 0.220091 0.187563
0.620811 0.239794 0.206092
0.661210 0.259669 0.224654
0.698526 0.278869 0.242470
0.730816 0.297657 0.259709
0.757389 0.314850 0.275309
0.779201 0.329300 0.288704
0.797575 0.341678 0.300552
0.814135 0.353133 0.311409
0.829177 0.363838 0.321409
0.841836 0.373283 0.330048
0.846596 0.377748 0.333856
0.847480 0.379920 0.335394
0.848546 0.382532 0.337274
0.849833 0.385683 0.339578
0.008152 0.098531 0.017426
0.021715 0.098984 0.018191
0.036489 0.099476 0.019262
0.053223 0.098911 0.020921
0.074499 0.097264 0.024684
0.097417 0.096561 0.032552
0.119457 0.098457 0.049501
0.142555 0.104175 0.065148
0.173041 0.111765 0.074308
0.210473 0.119844 0.081361
0.251281 0.128443 0.089421
0.292602 0.137610 0.098629
0.332420 0.146963 0.108087
0.368971 0.156031 0.117255
0.401131 0.164430 0.125671
0.434325 0.173765 0.135000
0.470319 0.185390 0.146653
0.509389 0.199642 0.160849
0.550387 0.216234 0.177191
0.592073 0.234527 0.194975
0.633493 0.253339 0.213010
0.672852 0.272331 0.231027
0.709015 0.290680 0.248252
0.739280 0.309336 0.265488
0.764142 0.325309 0.280376
0.784665 0.338825 0.293350
0.802822 0.351193 0.305075
0.819155 0.362723 0.315796
0.833172 0.373157 0.325233
0.845482 0.382849 0.333744
0.849630 0.387630 0.337340
0.850867 0.390951 0.339365
0.852342 0.394915 0.341834
0.014934 0.125558 0.022619
0.028324 0.126023 0.023368
0.042492 0.126536 0.024341
0.057064 0.126357 0.025614
0.077071 0.124423 0.028179
0.099967 0.122867 0.033714
0.124434 0.122429 0.044475
0.148590 0.124525 0.063791
0.173792 0.130475 0.081310
0.204947 0.138328 0.091839
0.241852 0.146424 0.099070
0.281195 0.154584 0.106329
0.320114 0.162859 0.114168
0.356570 0.171070 0.122334
0.389166 0.178835 0.130106
0.420147 0.186600 0.137835
0.454305 0.195648 0.146868
0.491499 0.206995 0.158395
0.530986 0.220783 0.172417
0.571651 0.236699 0.188445
0.612369 0.254095 0.205711
0.652294 0.271871 0.223032
0.689803 0.289713 0.240168
0.722894 0.307903 0.257364
0.750493 0.324947 0.273441
0.772980 0.339324 0.287373
0.792583 0.352416 0.299844
0.810044 0.364625 0.311167
0.825316 0.375942 0.321323
0.838456 0.386460 0.330346
0.850480 0.396670 0.338837
0.853924 0.402026 0.342291
0.855580 0.406816 0.344946
0.024555 0.156016 0.030153
0.037704 0.156508 0.030908
0.050361 0.157059 0.031836
0.062739 0.157364 0.032951
0.081126 0.155039 0.034634
0.103183 0.152969 0.038559
0.127907 0.151540 0.046396
0.154564 0.151310 0.059384
0.181350 0.153659 0.080043
0.208448 0.159723 0.098930
0.239774 0.167606 0.110650
0.275408 0.175598 0.118212
0.312480 0.183330 0.124835
0.348321 0.190812 0.131384
0.381007 0.197968 0.138045
0.410643 0.204880 0.144682
0.442803 0.212722 0.152356
0.478506 0.221790 0.161290
0.516895 0.232920 0.172606
0.556673 0.246271 0.186353
0.596786 0.261498 0.201938
0.636217 0.277971 0.218540
0.674292 0.294646 0.234954
0.708922 0.311885 0.251640
0.738554 0.329280 0.268342
0.762837 0.344190 0.283035
0.783774 0.357786 0.296132
0.802260 0.370504 0.307963
0.818735 0.382512 0.318771
0.832503 0.393658 0.328175
0.845166 0.404578 0.337073
0.856861 0.415355 0.345625
0.859499 0.421403 0.348987
0.038438 0.190538 0.040893
0.049823 0.191067 0.041750
0.060585 0.191662 0.042752
0.070898 0.192517 0.043953
0.087266 0.189730 0.044877
0.107892 0.187145 0.047438
0.131943 0.185124 0.052709
0.159022 0.183804 0.061865
0.188412 0.183790 0.076294
0.217531 0.186324 0.097921
0.245887 0.192252 0.117680
0.276633 0.199913 0.130562
0.310051 0.207664 0.138701
0.343912 0.214972 0.144922
0.375876 0.221784 0.150472
0.404677 0.228172 0.155871
0.435171 0.235187 0.162063
0.468838 0.243213 0.169443
0.506093 0.252443 0.178218
0.545389 0.263330 0.189102
0.585154 0.276178 0.202338
0.624408 0.290626 0.217235
0.662206 0.306128 0.233003
0.697559 0.322163 0.248922
0.728446 0.339080 0.265565
0.754303 0.354023 0.280713
0.776459 0.367771 0.294252
0.795878 0.380721 0.306460
0.813115 0.393023 0.317615
0.827779 0.404683 0.327511
0.840882 0.416063 0.336689
0.853033 0.427361 0.345553
0.863948 0.438434 0.353974
0.055392 0.228463 0.054513
0.064589 0.229007 0.055270
0.073615 0.229621 0.056127
0.082498 0.230504 0.057157
0.096073 0.227857 0.057675
0.114779 0.224705 0.059206
0.137316 0.222289 0.062665
0.163868 0.220367 0.068907
0.193813 0.219236 0.079371
0.225590 0.219490 0.095117
0.256195 0.222124 0.116955
0.285110 0.227707 0.137026
0.314568 0.234889 0.150911
0.344962 0.242224 0.159865
0.374779 0.249082 0.166116
0.402248 0.255352 0.171131
0.430831 0.261930 0.176307
0.462577 0.269310 0.182285
0.497963 0.277689 0.189397
0.536255 0.287062 0.197723
0.576070 0.297598 0.207633
0.615445 0.309811 0.219940
0.653470 0.323378 0.233874
0.688480 0.338511 0.249521
0.720106 0.354433 0.265667
0.747162 0.368824 0.280753
0.770441 0.382332 0.294473
0.790717 0.395196 0.306879
0.808587 0.407496 0.318216
0.824176 0.419353 0.328530
0.837553 0.430910 0.337866
0.849960 0.442411 0.346905
0.861523 0.453909 0.355761
0.073746 0.268608 0.069454
0.081208 0.269154 0.070109
0.088729 0.269771 0.070844
0.096311 0.270657 0.071731
0.107434 0.268222 0.071892
0.124189 0.264404 0.072497
0.144906 0.261611 0.074670
0.169990 0.259343 0.079070
0.199422 0.257615 0.086897
0.231875 0.256772 0.098768
0.264950 0.257320 0.115380
0.296103 0.259994 0.136726
0.324785 0.265096 0.156393
0.352400 0.271585 0.170808
0.379309 0.278298 0.180548
0.404625 0.284608 0.187170
0.430701 0.291057 0.192786
0.460108 0.298191 0.198450
0.493287 0.306137 0.204611
0.529683 0.314896 0.211557
0.568276 0.324420 0.219431
0.607845 0.334694 0.228332
0.646410 0.346184 0.239212
0.681363 0.359895 0.253526
0.713314 0.374536 0.268807
0.740991 0.388085 0.283529
0.765331 0.400958 0.297051
0.786411 0.413396 0.309405
0.804857 0.425389 0.320737
0.821314 0.437066 0.331286
0.834915 0.448496 0.340678
0.847421 0.459868 0.349756
0.859064 0.471226 0.358671
0.092994 0.309635 0.085284
0.099103 0.310168 0.085859
0.105376 0.310771 0.086501
0.111816 0.311637 0.087283
0.120864 0.309452 0.087242
0.135678 0.304965 0.087122
0.154503 0.301824 0.088387
0.177917 0.299273 0.091368
0.206180 0.297204 0.096989
0.238384 0.295739 0.106324
0.272070 0.295274 0.119448
0.305299 0.296137 0.136564
0.335981 0.298807 0.156782
0.363588 0.303366 0.175327
0.388906 0.309032 0.189550
0.412214 0.314931 0.199571
0.435685 0.321128 0.207408
0.462376 0.328107 0.214499
0.492841 0.335870 0.221218
0.526822 0.344343 0.227914
0.563411 0.353430 0.234919
0.601493 0.363065 0.242475
0.639242 0.373589 0.251534
0.674603 0.385561 0.263209
0.707313 0.398442 0.276239
0.735610 0.410606 0.289561
0.760586 0.422696 0.302627
0.782367 0.434458 0.314603
0.801387 0.445830 0.325595
0.818213 0.456965 0.335918
0.832526 0.467958 0.345435
0.844999 0.478889 0.354454
0.856568 0.489776 0.363341
0.112518 0.350093 0.101515
0.117580 0.350598 0.102026
0.122841 0.351170 0.102594
0.128316 0.351989 0.103292
0.135731 0.349998 0.103121
0.148749 0.344966 0.102438
0.165764 0.341559 0.103071
0.187455 0.338793 0.105103
0.214260 0.336506 0.109211
0.245607 0.334712 0.116332
0.279355 0.333601 0.127033
0.313170 0.333545 0.140847
0.345462 0.334703 0.157820
0.374636 0.337336 0.176465
0.400332 0.341351 0.193276
0.422936 0.346166 0.206527
0.444756 0.351622 0.217257
0.469186 0.358101 0.226985
0.496969 0.365532 0.235765
0.528230 0.373760 0.243725
0.562347 0.382578 0.251137
0.598172 0.391950 0.258688
0.633531 0.402379 0.268188
0.668306 0.413308 0.278180
0.701425 0.424652 0.288708
0.730206 0.435231 0.299900
0.756002 0.446092 0.311455
0.778406 0.456976 0.322677
0.797734 0.467642 0.333296
0.814801 0.478056 0.343242
0.829942 0.488274 0.352566
0.842327 0.498466 0.361309
0.853764 0.508573 0.369944
0.131612 0.388518 0.117560
0.135862 0.388982 0.118015
0.140312 0.389505 0.118520
0.144989 0.390254 0.119142
0.151209 0.388275 0.118838
0.162693 0.382986 0.117776
0.178114 0.379446 0.117984
0.198213 0.376563 0.119387
0.223550 0.374151 0.122492
0.253770 0.372182 0.128055
0.286994 0.370744 0.136693
0.321002 0.370064 0.148460
0.353769 0.370423 0.162515
0.384105 0.371829 0.178724
0.410889 0.374378 0.195335
0.433915 0.377878 0.209994
0.455325 0.382236 0.222783
0.478605 0.387786 0.235016
0.504518 0.394494 0.246347
0.533441 0.402201 0.256516
0.564961 0.410682 0.265689
0.597643 0.420065 0.275416
0.631135 0.429975 0.284940
0.664453 0.440279 0.294496
0.696372 0.450645 0.304136
0.725029 0.460091 0.313669
0.751292 0.469799 0.323502
0.774350 0.479617 0.333417
0.794160 0.489275 0.343026
0.811458 0.498772 0.352281
0.826829 0.508126 0.361235
0.839519 0.517391 0.369721
0.850742 0.526718 0.378074
0.149516 0.423531 0.132759
0.153132 0.423938 0.133161
0.156936 0.424399 0.133607
0.160957 0.425056 0.134157
0.166387 0.422854 0.133667
0.176693 0.417707 0.132451
0.190838 0.414214 0.132414
0.209601 0.411342 0.133425
0.233644 0.408910 0.135888
0.262745 0.406881 0.140417
0.295209 0.405294 0.147560
0.328964 0.404286 0.157562
0.361915 0.404080 0.169921
0.392559 0.404811 0.183742
0.420050 0.406394 0.198649
0.443703 0.408806 0.212954
0.465400 0.412080 0.226403
0.488471 0.416543 0.240101
0.513519 0.422254 0.253438
0.540786 0.429179 0.266146
0.569856 0.437189 0.278281
0.600474 0.445988 0.289409
0.631996 0.455335 0.299726
0.663609 0.465035 0.309512
0.693714 0.474426 0.318921
0.721358 0.483192 0.328027
0.747265 0.492110 0.336969
0.770558 0.500953 0.345667
0.790657 0.509736 0.354254
0.808192 0.518589 0.362776
0.823749 0.527589 0.371302
0.837282 0.536861 0.379849
0.848474 0.546597 0.388440
0.166695 0.455645 0.147533
0.169797 0.456063 0.147885
0.173074 0.456536 0.148278
0.176570 0.457212 0.148782
0.181198 0.454097 0.147705
0.190268 0.448759 0.146131
0.203331 0.445147 0.145849
0.221012 0.442227 0.146571
0.244016 0.439785 0.148614
0.272168 0.437756 0.152480
0.303884 0.436140 0.158627
0.337187 0.434995 0.167318
0.370033 0.434469 0.178307
0.400713 0.434735 0.190658
0.428328 0.435747 0.203793
0.452280 0.437411 0.216944
0.474383 0.439831 0.230076
0.497662 0.443321 0.244183
0.522401 0.448044 0.258981
0.548770 0.454059 0.273679
0.576601 0.461250 0.287550
0.605645 0.469392 0.300252
0.635470 0.478236 0.311800
0.665457 0.487561 0.322421
0.693446 0.496206 0.332263
0.720028 0.504840 0.341612
0.745177 0.513759 0.350676
0.768070 0.522747 0.359463
0.788117 0.531670 0.367923
0.805744 0.540627 0.376233
0.821400 0.549743 0.384632
0.835509 0.559125 0.393216
0.846925 0.569189 0.402084
0.187001 0.491030 0.165302
0.189649 0.491498 0.165636
0.192455 0.492026 0.166010
0.195487 0.492779 0.166510
0.198899 0.487853 0.164250
0.206225 0.481873 0.161827
0.217731 0.477632 0.160740
0.234051 0.474123 0.160799
0.255894 0.471131 0.162270
0.282987 0.468610 0.165419
0.313818 0.466549 0.170632
0.346466 0.464989 0.178161
0.378925 0.464028 0.187867
0.409458 0.463789 0.199071
0.436893 0.464329 0.210744
0.460784 0.465493 0.222544
0.483261 0.467371 0.234975
0.506894 0.470246 0.249022
0.531868 0.474315 0.264331
0.558116 0.479700 0.280151
0.585372 0.486357 0.295573
0.613413 0.494114 0.309984
0.641933 0.502729 0.323155
0.669825 0.511483 0.335095
0.696099 0.519814 0.345928
0.721621 0.528555 0.356012
0.745825 0.537573 0.365577
0.768041 0.546713 0.374731
0.787664 0.555852 0.383492
0.805010 0.565080 0.392100
0.820522 0.574522 0.400756
0.834570 0.584285 0.409608
0.846741 0.594637 0.418816
0.210550 0.531167 0.186074
0.212830 0.531690 0.186434
0.215252 0.532282 0.186837
0.217902 0.533126 0.187379
0.219834 0.525282 0.183605
0.225704 0.518487 0.180719
0.235558 0.513465 0.178830
0.250145 0.509299 0.177850
0.270433 0.505728 0.178249
0.296302 0.502649 0.180594
0.326097 0.500082 0.184928
0.357891 0.498060 0.191356
0.389708 0.496642 0.199792
0.419817 0.495912 0.209723
0.446966 0.495927 0.220271
0.470496 0.496643 0.230593
0.493298 0.498063 0.242003
0.517343 0.500393 0.255370
0.542759 0.503836 0.270559
0.569236 0.508550 0.286895
0.596355 0.514570 0.303417
0.623834 0.521803 0.319311
0.651227 0.529904 0.334082
0.676866 0.537594 0.347436
0.702021 0.545880 0.359573
0.726456 0.554715 0.370737
0.749633 0.563869 0.381150
0.771022 0.573197 0.390963
0.790071 0.582573 0.400269
0.807005 0.592062 0.409338
0.822231 0.601779 0.418388
0.836092 0.611820 0.427590
0.848863 0.622270 0.437079
0.238129 0.575890 0.210716
0.240067 0.576459 0.211086
0.242132 0.577102 0.211502
0.244432 0.578017 0.212077
0.243952 0.566423 0.205744
0.248207 0.559109 0.202069
0.256609 0.553337 0.199585
0.269807 0.548412 0.198117
0.288697 0.544134 0.197950
0.312790 0.540517 0.198828
0.341221 0.537400 0.201994
0.371926 0.534836 0.207358
0.402822 0.532906 0.214541
0.432196 0.531663 0.223137
0.458777 0.531147 0.232441
0.481896 0.531353 0.241670
0.504907 0.532365 0.251896
0.529291 0.534239 0.264191
0.555196 0.537141 0.278690
0.582091 0.541231 0.294872
0.609401 0.546596 0.311864
0.636641 0.553148 0.328761
0.662033 0.559523 0.344722
0.686875 0.566781 0.359465
0.711213 0.574927 0.372960
0.734630 0.583650 0.385318
0.756786 0.592760 0.396723
0.777280 0.602108 0.407346
0.795643 0.611560 0.417319
0.812065 0.621156 0.426905
0.826920 0.630992 0.436364
0.840526 0.641151 0.445890
0.853137 0.651705 0.455634
0.269611 0.623921 0.239249
0.271258 0.624516 0.239633
0.273019 0.625189 0.240067
0.273041 0.621440 0.237811
0.271458 0.610090 0.231064
0.274365 0.602507 0.226777
0.281215 0.596196 0.223495
0.292755 0.590691 0.221102
0.309933 0.585855 0.219833
0.332620 0.581620 0.220111
0.359606 0.577941 0.222414
0.388798 0.574914 0.226251
0.418509 0.572477 0.232248
0.446836 0.570735 0.239534
0.472516 0.569717 0.247522
0.495137 0.569423 0.255674
0.518398 0.569965 0.265109
0.542996 0.571430 0.276191
0.569279 0.573861 0.289603
0.596578 0.577381 0.305039
0.623832 0.581766 0.321774
0.649654 0.586313 0.338834
0.674874 0.592022 0.355497
0.699476 0.598901 0.371262
0.723175 0.606651 0.385877
0.745747 0.615043 0.399314
0.766991 0.623900 0.411694
0.786619 0.633069 0.423176
0.804254 0.642405 0.433828
0.820103 0.651925 0.443937
0.834521 0.661701 0.453793
0.847801 0.671801 0.463613
0.860179 0.682277 0.473565
0.304011 0.673646 0.270810
0.305415 0.674245 0.271206
0.306920 0.674922 0.271653
0.303195 0.664621 0.264977
0.301577 0.654995 0.258856
0.303486 0.647403 0.254167
0.309053 0.640769 0.250264
0.319144 0.634845 0.247111
0.334718 0.629569 0.244914
0.355615 0.624910 0.244017
0.380770 0.620834 0.244849
0.408499 0.617321 0.247786
0.436824 0.614401 0.252789
0.463799 0.612202 0.258784
0.488254 0.610716 0.265488
0.510359 0.609963 0.272601
0.533785 0.610047 0.281260
0.558683 0.611058 0.291581
0.585173 0.613079 0.303785
0.611633 0.615041 0.318039
0.637990 0.617791 0.333825
0.664104 0.621817 0.350449
0.689540 0.627063 0.367171
0.713976 0.633368 0.383369
0.737220 0.640552 0.398647
0.759136 0.648433 0.412865
0.779610 0.656847 0.426053
0.798450 0.665639 0.438251
0.815366 0.674660 0.449481
0.830618 0.683912 0.460049
0.844550 0.693442 0.470256
0.857436 0.703295 0.480333
0.869496 0.713508 0.490463
0.339895 0.723148 0.304080
0.341094 0.723727 0.304475
0.339454 0.719181 0.301340
0.334763 0.708073 0.293756
0.333267 0.699716 0.288128
0.334574 0.692367 0.283266
0.339233 0.685661 0.278961
0.348223 0.679531 0.275260
0.362447 0.673987 0.272361
0.381709 0.669037 0.270556
0.405039 0.664670 0.270202
0.430863 0.660872 0.271616
0.457360 0.657648 0.274913
0.464533 0.658967 0.296172
0.505913 0.653060 0.285915
0.527681 0.651890 0.292256
0.551004 0.651393 0.300129
0.575287 0.650948 0.309735
0.600786 0.651338 0.321020
0.627128 0.652811 0.333939
0.653803 0.655363 0.348557
0.680125 0.658996 0.364304
0.705585 0.663687 0.380509
0.729848 0.669361 0.396551
0.752718 0.675898 0.412004
0.774088 0.683152 0.426602
0.793901 0.690979 0.440244
0.812014 0.699229 0.452879
0.828229 0.707761 0.464490
0.842874 0.716566 0.475384
0.856283 0.725670 0.485857
0.868717 0.735097 0.496141
0.880379 0.744866 0.506427
0.375515 0.770368 0.337393
0.374196 0.767089 0.335020
0.369578 0.757907 0.328426
0.366517 0.750052 0.322830
0.365337 0.742800 0.317706
0.366451 0.735926 0.312902
0.370643 0.729414 0.308439
0.378982 0.723324 0.304433
0.392213 0.717727 0.301085
0.410124 0.712664 0.298657
0.431794 0.708148 0.297451
0.455737 0.704178 0.297725
0.480153 0.700645 0.299568
0.503190 0.697218 0.302810
0.505857 0.698307 0.322969
0.529135 0.695686 0.326589
0.567860 0.690260 0.320769
0.592403 0.689573 0.329993
0.618243 0.689877 0.340564
0.644728 0.691188 0.352542
0.671349 0.693463 0.365958
0.697560 0.696676 0.380624
0.722828 0.700833 0.395997
0.746792 0.705892 0.411513
0.769237 0.711765 0.426695
0.790062 0.718340 0.441219
0.809233 0.725494 0.454914
0.826616 0.733086 0.467647
0.842127 0.740995 0.479386
0.856147 0.749208 0.490432
0.868997 0.757731 0.501056
0.880928 0.766572 0.511481
0.892127 0.775732 0.521895
0.404416 0.806919 0.364869
0.400257 0.799202 0.359132
0.397646 0.793491 0.354910
0.395714 0.787448 0.350468
0.395043 0.781223 0.345922
0.396322 0.774969 0.341401
0.400446 0.768818 0.337032
0.408493 0.762896 0.332979
0.420990 0.757300 0.329448
0.437694 0.752087 0.326682
0.457712 0.747295 0.324947
0.479649 0.742938 0.324456
0.501938 0.739031 0.325286
0.523138 0.735600 0.327308
0.542648 0.732691 0.330315
0.545937 0.734480 0.350282
0.571137 0.732612 0.354731
0.611558 0.727968 0.350733
0.637633 0.727995 0.361426
0.664140 0.728983 0.373170
0.690499 0.730948 0.385643
0.716345 0.733773 0.399301
0.741190 0.737443 0.413758
0.764661 0.741927 0.428503
0.786537 0.747159 0.443089
0.806716 0.753048 0.457184
0.825178 0.759492 0.470591
0.841749 0.766358 0.483097
0.856518 0.773555 0.494725
0.869878 0.781070 0.505745
0.882132 0.788895 0.516398
0.893514 0.797022 0.526888
0.904199 0.805442 0.537396
0.425553 0.832248 0.385417
0.423519 0.827878 0.382096
0.422200 0.823933 0.379105
0.421309 0.819297 0.375601
0.421446 0.814191 0.371761
0.423359 0.808828 0.367756
0.427993 0.803382 0.363746
0.436342 0.798022 0.359921
0.448754 0.792891 0.356503
0.464940 0.788066 0.353722
0.483985 0.783588 0.351804
0.504549 0.779476 0.350917
0.525165 0.775747 0.351106
0.544520 0.772429 0.352248
0.563303 0.769594 0.354427
0.564978 0.771644 0.374774
0.590339 0.769780 0.378440
0.617708 0.768533 0.384174
0.658522 0.764618 0.382527
0.684969 0.765299 0.394154
0.711058 0.766881 0.406710
0.736355 0.769327 0.419886
0.760563 0.772557 0.433436
0.783336 0.776513 0.447325
0.804457 0.781139 0.461150
0.823835 0.786360 0.474604
0.841439 0.792087 0.487475
0.857086 0.798197 0.499521
0.871053 0.804640 0.510859
0.883704 0.811393 0.521715
0.895320 0.818441 0.532297
0.906113 0.825768 0.542790
0.916241 0.833354 0.553362
0.446346 0.856993 0.405597
0.445372 0.853946 0.403227
0.444907 0.850985 0.400925
0.444884 0.847329 0.398091
0.445892 0.843164 0.394874
0.448702 0.838695 0.391441
0.454275 0.834101 0.387961
0.463345 0.829531 0.384608
0.476081 0.825090 0.381572
0.492085 0.820845 0.379053
0.510403 0.816835 0.377242
0.529738 0.813081 0.376263
0.548737 0.809608 0.376132
0.566344 0.806454 0.376750
0.585141 0.803759 0.378577
0.585790 0.806068 0.399296
0.611395 0.804253 0.402540
0.638861 0.802993 0.407754
0.667301 0.802345 0.414996
0.706964 0.799227 0.415904
0.732671 0.800509 0.428092
0.757351 0.802602 0.440794
0.780765 0.805400 0.454007
0.802640 0.808851 0.467433
0.822817 0.812908 0.480556
0.841226 0.817491 0.493277
0.857760 0.822508 0.505450
0.872397 0.827865 0.516932
0.885493 0.833515 0.527877
0.897373 0.839433 0.538476
0.908287 0.845600 0.548908
0.918425 0.851994 0.559340
0.927929 0.858594 0.569887
0.465870 0.879618 0.424722
0.465617 0.877281 0.422861
0.465801 0.874926 0.420985
0.466533 0.871935 0.418610
0.468406 0.868452 0.415853
0.472214 0.864661 0.412873
0.478835 0.860734 0.409835
0.488737 0.856801 0.406907
0.501945 0.852959 0.404270
0.517929 0.849265 0.402102
0.535675 0.845749 0.400552
0.553920 0.842429 0.399699
0.571409 0.839325 0.399518
0.588286 0.836506 0.400064
0.607378 0.834108 0.401886
0.628837 0.832173 0.405299
0.633829 0.835105 0.426126
0.661431 0.833925 0.431160
0.689764 0.833275 0.438117
0.729797 0.829900 0.438170
0.754984 0.830962 0.450064
0.778930 0.832748 0.462342
0.801415 0.835170 0.474915
0.822263 0.838148 0.487638
0.841334 0.841632 0.500220
0.858568 0.845557 0.512434
0.873821 0.849833 0.524041
0.887370 0.854415 0.535027
