tono/assets/cubes/notte_venezia_33.cube
TITLE "Venezia"
LUT_3D_SIZE 33
DOMAIN_MIN 0.0 0.0 0.0
DOMAIN_MAX 1.0 1.0 1.0
0.000000 0.008167 0.036765
0.000000 0.007022 0.034149
0.017990 0.006412 0.032911
0.051960 0.005614 0.031755
0.092045 0.005305 0.030606
0.135602 0.005026 0.030337
0.181106 0.004763 0.030994
0.228181 0.004519 0.031828
0.275956 0.004297 0.032242
0.322671 0.004693 0.033979
0.365183 0.015567 0.041019
0.404656 0.031366 0.051162
0.440246 0.050636 0.062209
0.470945 0.067917 0.072430
0.501398 0.084955 0.083108
0.537898 0.105389 0.096521
0.579517 0.128820 0.112527
0.625798 0.153691 0.130039
0.675222 0.180219 0.149168
0.726167 0.208115 0.169696
0.776591 0.237082 0.191353
0.822448 0.268846 0.215385
0.864137 0.298022 0.237809
0.897223 0.321389 0.255975
0.897680 0.321887 0.256950
0.898449 0.322744 0.258566
0.899177 0.323561 0.260087
0.899904 0.324376 0.261605
0.900787 0.325367 0.263452
0.901888 0.326609 0.265738
0.903262 0.328172 0.268573
0.904970 0.330137 0.272075
0.907083 0.332596 0.276369
0.000000 0.031587 0.032624
0.000000 0.031294 0.028920
0.022670 0.029358 0.031440
0.062177 0.028367 0.031792
0.105937 0.026232 0.030571
0.150246 0.023803 0.029615
0.196195 0.020642 0.028966
0.243221 0.017294 0.028728
0.288967 0.017708 0.029775
0.332815 0.023107 0.033882
0.374272 0.033793 0.041252
0.412660 0.049137 0.051659
0.447129 0.065038 0.062685
0.476715 0.079433 0.072779
0.507880 0.095168 0.083942
0.544920 0.114473 0.097814
0.586895 0.136977 0.114225
0.633372 0.161106 0.132035
0.682812 0.187014 0.151378
0.733581 0.214350 0.172024
0.783161 0.243429 0.194186
0.828416 0.274502 0.218083
0.860278 0.296870 0.235205
0.872938 0.306427 0.241889
0.882501 0.313598 0.247697
0.893957 0.321853 0.255175
0.900307 0.326658 0.259748
0.901138 0.327784 0.261218
0.902165 0.329217 0.262975
0.903425 0.330961 0.265163
0.904972 0.333083 0.267887
0.906864 0.335663 0.271264
0.909166 0.338787 0.275421
0.000000 0.057700 0.032934
0.000000 0.060667 0.025972
0.018068 0.057964 0.025332
0.062980 0.053385 0.028186
0.108280 0.051963 0.031026
0.156170 0.048945 0.029993
0.205766 0.044370 0.028988
0.255931 0.038965 0.028570
0.300908 0.038574 0.029454
0.343772 0.043581 0.033780
0.384138 0.053290 0.041507
0.421364 0.065556 0.052175
0.454603 0.078516 0.063166
0.483310 0.090849 0.073236
0.515277 0.105574 0.084964
0.552901 0.123941 0.099357
0.595255 0.145635 0.116219
0.641940 0.169065 0.134344
0.691371 0.194378 0.153917
0.741914 0.221147 0.174683
0.774072 0.239823 0.188637
0.797894 0.256570 0.200896
0.818421 0.271324 0.211525
0.839818 0.286733 0.222757
0.859607 0.300881 0.234010
0.877483 0.313605 0.244926
0.894166 0.325680 0.255106
0.902926 0.332523 0.260822
0.904103 0.334410 0.262480
0.905528 0.336659 0.264556
0.907250 0.339335 0.267153
0.909324 0.342510 0.270387
0.911808 0.346265 0.274386
0.000000 0.087194 0.034560
0.000000 0.092022 0.023652
0.005480 0.090911 0.023225
0.049731 0.087126 0.022604
0.099680 0.081585 0.022472
0.143767 0.080357 0.029323
0.192288 0.077822 0.029551
0.242735 0.073551 0.028528
0.292808 0.068960 0.027952
0.339425 0.068910 0.030628
0.382315 0.073796 0.037756
0.421091 0.082216 0.048455
0.454982 0.092302 0.059994
0.483338 0.102405 0.070202
0.513000 0.114398 0.081270
0.546077 0.129126 0.094006
0.580880 0.145820 0.107794
0.615833 0.163578 0.121982
0.650407 0.180823 0.135334
0.684887 0.198424 0.148821
0.718983 0.216341 0.162480
0.752288 0.234285 0.176093
0.783192 0.253612 0.190765
0.811736 0.273267 0.205677
0.837265 0.290977 0.219876
0.859726 0.306633 0.233242
0.880228 0.321225 0.245475
0.898486 0.334570 0.256361
0.906889 0.341658 0.261816
0.908487 0.344429 0.263743
0.910390 0.347669 0.266169
0.912648 0.351442 0.269209
0.915312 0.355819 0.272989
0.000000 0.119312 0.037866
0.000000 0.124229 0.022483
0.000000 0.124802 0.020812
0.036311 0.122824 0.020406
0.084033 0.118616 0.019733
0.131013 0.114604 0.018707
0.175185 0.112450 0.022887
0.219798 0.111317 0.027216
0.266855 0.108778 0.027277
0.313926 0.105365 0.026522
0.357587 0.104439 0.028044
0.396964 0.107036 0.034336
0.432067 0.112329 0.043993
0.462604 0.119176 0.054906
0.488430 0.126531 0.064609
0.515719 0.135634 0.075177
0.546370 0.147183 0.087374
0.579455 0.160959 0.100861
0.614134 0.176604 0.115307
0.649663 0.193670 0.130378
0.686039 0.210758 0.144791
0.721965 0.228471 0.159346
0.756897 0.246400 0.173754
0.788495 0.266607 0.189922
0.817148 0.285702 0.205731
0.842588 0.302864 0.220770
0.865930 0.319027 0.234600
0.886946 0.334031 0.247005
0.904332 0.347106 0.257347
0.912453 0.354479 0.262672
0.914538 0.358264 0.264887
0.916975 0.362603 0.267683
0.919809 0.367556 0.271189
0.000000 0.153561 0.043219
0.000000 0.157419 0.028755
0.000000 0.160280 0.018221
0.024399 0.158963 0.017929
0.073629 0.155506 0.017482
0.120274 0.152036 0.016755
0.166129 0.148879 0.015754
0.211858 0.145980 0.014520
0.254667 0.144926 0.020381
0.298548 0.143447 0.022913
0.342458 0.141182 0.022891
0.383425 0.140214 0.023714
0.419984 0.141793 0.029499
0.452136 0.145448 0.038622
0.479737 0.150384 0.049223
0.504440 0.156208 0.059319
0.532331 0.164060 0.071017
0.563147 0.174127 0.084194
0.596112 0.186322 0.098495
0.630502 0.200402 0.113593
0.665641 0.216018 0.129176
0.701277 0.232273 0.144358
0.736755 0.248868 0.159044
0.770181 0.267139 0.174819
0.800402 0.286188 0.191584
0.827573 0.303679 0.207812
0.852777 0.320451 0.222865
0.875811 0.336350 0.236498
0.895538 0.350707 0.248145
0.912325 0.363631 0.258249
0.919755 0.371082 0.263207
0.922359 0.375924 0.265722
0.925343 0.381375 0.268909
0.000000 0.189467 0.050953
0.000000 0.192591 0.037088
0.000000 0.196087 0.019721
0.007915 0.196413 0.015286
0.063205 0.193172 0.014989
0.111725 0.189918 0.014464
0.157972 0.186930 0.013699
0.203280 0.184280 0.012714
0.247967 0.181943 0.011547
0.292139 0.179686 0.010244
0.333677 0.178550 0.013649
0.374519 0.177095 0.015025
0.412646 0.176349 0.015743
0.446405 0.177388 0.020937
0.475609 0.180006 0.029218
0.500376 0.183684 0.038940
0.526359 0.188798 0.051065
0.555386 0.195833 0.064824
0.586736 0.204896 0.079716
0.619746 0.215939 0.095365
0.653798 0.228769 0.111455
0.688312 0.243091 0.127710
0.722800 0.258477 0.143777
0.756664 0.274656 0.159453
0.787516 0.292731 0.176962
0.815526 0.309668 0.194196
0.841779 0.326234 0.210282
0.866121 0.342292 0.224939
0.887735 0.357321 0.237822
0.905997 0.370973 0.248751
0.922267 0.383748 0.258737
0.928763 0.391170 0.263186
0.931867 0.397017 0.266024
0.000000 0.226689 0.057043
0.000000 0.229272 0.044215
0.000000 0.232156 0.028518
0.000000 0.234773 0.012535
0.049640 0.231699 0.012353
0.102832 0.228428 0.011976
0.150736 0.225473 0.011387
0.196664 0.222837 0.010596
0.241347 0.220565 0.009629
0.284900 0.218647 0.008520
0.327302 0.216935 0.007311
0.368222 0.215318 0.006046
0.406989 0.213875 0.004769
0.442579 0.213038 0.003523
0.473363 0.213789 0.006640
0.499495 0.215721 0.013403
0.524407 0.218769 0.022680
0.552346 0.223353 0.036702
0.582603 0.229723 0.054047
0.614543 0.237984 0.071688
0.647601 0.248092 0.089378
0.681260 0.259872 0.106920
0.715035 0.273059 0.124137
0.747760 0.288106 0.142078
0.778439 0.304956 0.161013
0.806705 0.320732 0.179364
0.833417 0.336483 0.196508
0.858483 0.352097 0.212138
0.881475 0.367181 0.226236
0.900815 0.381081 0.237929
0.918216 0.394275 0.248627
0.933840 0.406793 0.258512
0.939243 0.414115 0.262386
0.000000 0.264631 0.062931
0.000000 0.266826 0.051463
0.000000 0.269277 0.036379
0.000000 0.272474 0.015977
0.036489 0.270220 0.009636
0.093800 0.267087 0.009375
0.143145 0.264326 0.008921
0.190513 0.261632 0.008283
0.235874 0.259297 0.007478
0.279626 0.257349 0.006533
0.321751 0.255785 0.005481
0.362136 0.254514 0.004362
0.400448 0.253471 0.003212
0.436005 0.252791 0.002073
0.468179 0.252599 0.000981
0.496505 0.252887 0.000000
0.522531 0.253629 0.000000
0.551453 0.255175 0.000000
0.581273 0.259261 0.014468
0.612705 0.265026 0.035225
0.645183 0.272571 0.057810
0.678230 0.281850 0.078729
0.711423 0.292695 0.098426
0.743177 0.306060 0.119642
0.773308 0.321450 0.141242
0.800908 0.336303 0.162427
0.827680 0.350848 0.180940
0.853057 0.365563 0.197667
0.876576 0.380073 0.212746
0.897109 0.393904 0.225617
0.915221 0.407080 0.236972
0.931684 0.419749 0.247520
0.946568 0.431906 0.257406
0.000000 0.302789 0.068536
0.000000 0.304685 0.058527
0.000000 0.306802 0.044984
0.000000 0.309542 0.025903
0.019331 0.308848 0.006885
0.085621 0.305429 0.006722
0.137289 0.302622 0.006375
0.185001 0.300123 0.005859
0.230747 0.297887 0.005186
0.275121 0.295846 0.004377
0.317529 0.294201 0.003461
0.357837 0.292962 0.002469
0.395862 0.292079 0.001437
0.431228 0.291544 0.000401
0.463364 0.291450 0.000000
0.491818 0.291817 0.000000
0.517151 0.292655 0.000000
0.545298 0.293794 0.000000
0.576738 0.295232 0.000000
0.610855 0.297006 0.000000
0.644622 0.301178 0.006127
0.677534 0.308045 0.034198
0.710483 0.316543 0.061171
0.741076 0.328392 0.090635
0.770953 0.341607 0.115985
0.798498 0.354763 0.140091
0.824625 0.368308 0.161877
0.849609 0.382218 0.180998
0.873362 0.395795 0.197240
0.894882 0.409135 0.211586
0.913358 0.421930 0.223632
0.930304 0.434374 0.234865
0.945769 0.446433 0.245442
0.000000 0.340636 0.073832
0.000000 0.342295 0.064988
0.000000 0.344144 0.053544
0.000000 0.346523 0.036306
0.000730 0.347119 0.004149
0.076499 0.343300 0.004070
0.131634 0.340357 0.003809
0.180720 0.337798 0.003390
0.227091 0.335545 0.002824
0.271527 0.333589 0.002129
0.314092 0.331945 0.001326
0.354560 0.330644 0.000446
0.392584 0.329731 0.000000
0.427829 0.329221 0.000000
0.459902 0.329135 0.000000
0.488384 0.329502 0.000000
0.513356 0.330335 0.000000
0.540375 0.331507 0.000000
0.570607 0.332990 0.000000
0.603462 0.334811 0.000000
0.638358 0.337009 0.000000
0.674731 0.339620 0.000000
0.709407 0.344774 0.005562
0.740177 0.354163 0.049733
0.770080 0.365103 0.083034
0.797629 0.376330 0.112324
0.823662 0.388160 0.137719
0.848522 0.400692 0.159516
0.871837 0.413503 0.178544
0.893581 0.426277 0.195392
0.912455 0.438429 0.208546
0.929602 0.450336 0.220574
0.945350 0.461971 0.231943
0.000000 0.377610 0.078764
0.000000 0.379072 0.070892
0.000000 0.380704 0.061000
0.000000 0.382784 0.046872
0.000000 0.383722 0.009859
0.066121 0.380187 0.001467
0.126018 0.377081 0.001275
0.176886 0.374429 0.000934
0.224132 0.372113 0.000455
0.269008 0.370114 0.000000
0.311769 0.368440 0.000000
0.352302 0.367108 0.000000
0.390336 0.366144 0.000000
0.425527 0.365583 0.000000
0.457537 0.365442 0.000000
0.485992 0.365743 0.000000
0.510757 0.366505 0.000000
0.536912 0.367624 0.000000
0.566183 0.369059 0.000000
0.597994 0.370836 0.000000
0.631793 0.372980 0.000000
0.666996 0.375560 0.000000
0.703060 0.378629 0.000000
0.739278 0.382371 0.000000
0.769583 0.391039 0.035717
0.797302 0.400179 0.076754
0.823414 0.410164 0.108265
0.848300 0.421075 0.133847
0.871630 0.432493 0.155555
0.893360 0.444138 0.174653
0.912651 0.455706 0.190787
0.929530 0.467024 0.204420
0.945132 0.478114 0.217200
0.000000 0.413099 0.083313
0.000000 0.414397 0.076232
0.000000 0.415843 0.067551
0.000000 0.417669 0.055842
0.000000 0.418364 0.023956
0.054209 0.415512 0.000000
0.120479 0.412266 0.000000
0.173514 0.409521 0.000000
0.221819 0.407133 0.000000
0.246737 0.409805 0.000000
0.310335 0.403337 0.000000
0.350988 0.401947 0.000000
0.389035 0.400918 0.000000
0.424190 0.400273 0.000000
0.456122 0.400039 0.000000
0.484505 0.400234 0.000000
0.509118 0.400875 0.000000
0.534632 0.401877 0.000000
0.563151 0.403197 0.000000
0.594114 0.404852 0.000000
0.626951 0.406890 0.000000
0.661159 0.409328 0.000000
0.696253 0.412189 0.000000
0.731763 0.415498 0.000000
0.767240 0.419279 0.000000
0.796644 0.425383 0.026926
0.823080 0.433492 0.071882
0.848151 0.442683 0.103629
0.871573 0.452563 0.129215
0.893350 0.462850 0.151214
0.913443 0.473314 0.170605
0.930153 0.483647 0.185786
0.945621 0.493833 0.200011
0.000035 0.446440 0.087432
0.000110 0.447594 0.081023
0.000193 0.448877 0.073312
0.000298 0.450479 0.063396
0.000297 0.450896 0.036724
0.040550 0.448644 0.000000
0.115256 0.445328 0.000000
0.170711 0.442530 0.000000
0.220211 0.440089 0.000000
0.266335 0.437970 0.000000
0.291156 0.440809 0.000000
0.338379 0.438295 0.000000
0.388666 0.433610 0.000000
0.423765 0.432873 0.000000
0.455595 0.432526 0.000000
0.483854 0.432589 0.000000
0.508314 0.433077 0.000000
0.533374 0.433918 0.000000
0.561313 0.435074 0.000000
0.591575 0.436564 0.000000
0.623647 0.438401 0.000000
0.657033 0.440604 0.000000
0.691266 0.443189 0.000000
0.725899 0.446176 0.000000
0.760431 0.449444 0.000000
0.793718 0.451742 0.000000
0.822123 0.457186 0.023661
0.847540 0.464653 0.068239
0.871164 0.472926 0.099843
0.893044 0.481740 0.125833
0.913242 0.490868 0.148318
0.930580 0.500070 0.166683
0.945813 0.509163 0.182706
0.002314 0.476909 0.091066
0.002380 0.477931 0.085228
0.002453 0.479062 0.078350
0.002544 0.480462 0.069793
0.002518 0.480512 0.046338
0.026945 0.478916 0.000000
0.110725 0.475641 0.000000
0.168725 0.472860 0.000000
0.219445 0.470419 0.000000
0.266263 0.468281 0.000000
0.285659 0.471948 0.000000
0.334298 0.469408 0.000000
0.377826 0.467231 0.000000
0.416722 0.465493 0.000000
0.455945 0.462455 0.000000
0.484023 0.462375 0.000000
0.508289 0.462695 0.000000
0.533048 0.463350 0.000000
0.560570 0.464304 0.000000
0.590312 0.465565 0.000000
0.621766 0.467144 0.000000
0.654453 0.469055 0.000000
0.687933 0.471304 0.000000
0.721770 0.473907 0.000000
0.755236 0.476405 0.000000
0.787677 0.478309 0.000000
0.819592 0.480659 0.000000
0.846254 0.486012 0.025437
0.870153 0.492696 0.068183
0.892187 0.499996 0.099770
0.912450 0.507699 0.126027
0.930691 0.515757 0.148318
0.945840 0.524247 0.165958
0.004305 0.503718 0.094168
0.004363 0.504620 0.088848
0.004427 0.505622 0.082611
0.004506 0.506845 0.075153
0.004447 0.506447 0.052363
0.033819 0.504888 0.005359
0.107496 0.502542 0.000000
0.167843 0.499886 0.000000
0.219721 0.497521 0.000000
0.267195 0.495427 0.000000
0.311405 0.493603 0.000000
0.331298 0.497309 0.000000
0.375665 0.495101 0.000000
0.415103 0.493277 0.000000
0.449860 0.491900 0.000000
0.480002 0.491014 0.000000
0.505621 0.490641 0.000000
0.531523 0.490629 0.000000
0.559826 0.490937 0.000000
0.589900 0.491624 0.000000
0.621204 0.492744 0.000000
0.653334 0.494302 0.000000
0.686150 0.496167 0.000000
0.719279 0.498329 0.000000
0.751573 0.499927 0.000000
0.783271 0.501459 0.000000
0.814493 0.503495 0.000000
0.844497 0.506136 0.000000
0.868764 0.511831 0.033879
0.891153 0.518425 0.072982
0.911800 0.525783 0.102881
0.930847 0.533782 0.127993
0.946796 0.542473 0.147778
0.006347 0.531390 0.097303
0.006405 0.532282 0.092464
0.006468 0.533272 0.086875
0.006548 0.534494 0.080362
0.006375 0.532557 0.056485
0.055217 0.529318 0.027656
0.117893 0.526568 0.011337
0.169434 0.524442 0.000000
0.221211 0.521967 0.000000
0.269285 0.519676 0.000000
0.313821 0.517706 0.000000
0.329729 0.521923 0.000000
0.374793 0.519630 0.000000
0.414620 0.517710 0.000000
0.449560 0.516213 0.000000
0.479739 0.515181 0.000000
0.505392 0.514633 0.000000
0.531629 0.514414 0.000000
0.560157 0.514496 0.000000
0.590347 0.514946 0.000000
0.621653 0.515832 0.000000
0.653612 0.517217 0.000000
0.685886 0.519121 0.000000
0.718057 0.521101 0.000000
0.749381 0.522620 0.000000
0.780473 0.524630 0.000000
0.811022 0.527174 0.000000
0.840623 0.530199 0.000000
0.867810 0.534313 0.000000
0.890660 0.540612 0.041467
0.911740 0.547735 0.077001
0.931187 0.555583 0.105306
0.948429 0.564193 0.128657
0.008723 0.563792 0.100860
0.008780 0.564668 0.096515
0.008843 0.565642 0.091542
0.008923 0.566854 0.085917
0.015613 0.562387 0.063958
0.082309 0.557438 0.054371
0.133582 0.554073 0.040005
0.180621 0.551410 0.019963
0.225967 0.549207 0.000000
0.272515 0.546763 0.000000
0.317373 0.544327 0.000000
0.358828 0.542271 0.000000
0.374526 0.546195 0.000000
0.414743 0.544019 0.000000
0.449815 0.542318 0.000000
0.479944 0.541133 0.000000
0.505632 0.540474 0.000000
0.532350 0.540174 0.000000
0.561231 0.540218 0.000000
0.591650 0.540664 0.000000
0.623074 0.541571 0.000000
0.655037 0.542999 0.000000
0.687104 0.544954 0.000000
0.718005 0.546380 0.000000
0.748757 0.548216 0.000000
0.779255 0.550641 0.000000
0.809173 0.553579 0.000000
0.838193 0.556992 0.000000
0.866010 0.560884 0.000000
0.890329 0.566386 0.006076
0.911805 0.573251 0.050844
0.931612 0.580896 0.083185
0.949883 0.589252 0.110177
0.011386 0.600370 0.104749
0.011442 0.601227 0.100870
0.011504 0.602177 0.096499
0.017240 0.603146 0.094159
0.061019 0.594445 0.085122
0.108663 0.589042 0.076542
0.153155 0.584945 0.066622
0.196266 0.581639 0.053023
0.238350 0.578985 0.032052
0.280183 0.576721 0.004249
0.322180 0.574474 0.000000
0.363703 0.571983 0.000000
0.375525 0.575958 0.000000
0.415260 0.573795 0.000000
0.450427 0.571849 0.000000
0.480430 0.570468 0.000000
0.506265 0.569648 0.000000
0.533645 0.569214 0.000000
0.563030 0.569169 0.000000
0.593809 0.569559 0.000000
0.625457 0.570439 0.000000
0.657522 0.571860 0.000000
0.688573 0.572764 0.000000
0.719306 0.574156 0.000000
0.749699 0.576301 0.000000
0.779632 0.579022 0.000000
0.808979 0.582239 0.000000
0.837419 0.585947 0.000000
0.864684 0.590149 0.000000
0.889917 0.595212 0.000000
0.911692 0.601844 0.031643
0.931778 0.609276 0.067043
0.949884 0.617656 0.098850
0.047948 0.639402 0.119382
0.058184 0.639914 0.119261
0.068039 0.640490 0.119149
0.078991 0.637756 0.116407
0.105178 0.628910 0.107608
0.138512 0.623226 0.099519
0.175471 0.618661 0.090306
0.214512 0.614801 0.079295
0.254565 0.611485 0.066011
0.293882 0.608797 0.046032
0.332673 0.606513 0.017945
0.370354 0.604515 0.000000
0.380657 0.607601 0.041562
0.417845 0.605888 0.006866
0.451429 0.604284 0.000000
0.481199 0.602670 0.000000
0.507411 0.601638 0.000000
0.535625 0.601023 0.000000
0.565659 0.600839 0.000000
0.596912 0.601130 0.000000
0.628683 0.601744 0.000000
0.659840 0.602002 0.000000
0.690908 0.602791 0.000000
0.721754 0.604309 0.000000
0.752062 0.606495 0.000000
0.781658 0.609315 0.000000
0.810457 0.612717 0.000000
0.838326 0.616624 0.000000
0.865032 0.621039 0.000000
0.889462 0.626395 0.000000
0.911373 0.632848 0.031954
0.931438 0.640158 0.066558
0.949744 0.648303 0.097136
0.113382 0.679916 0.145736
0.118368 0.680444 0.145727
0.123529 0.681039 0.145737
0.129312 0.672809 0.138889
0.146141 0.665147 0.131216
0.171226 0.659315 0.123487
0.201982 0.654386 0.114746
0.236457 0.650111 0.104546
0.273084 0.646387 0.092614
0.310582 0.643140 0.078795
0.347634 0.640370 0.061793
0.383124 0.638116 0.037715
0.416981 0.636172 0.007287
0.424039 0.639446 0.057699
0.455702 0.637919 0.031593
0.483221 0.636739 0.002578
0.509247 0.635922 0.000000
0.538465 0.635081 0.000000
0.569279 0.634718 0.000000
0.600337 0.634103 0.000000
0.631598 0.633703 0.000000
0.663067 0.633932 0.000000
0.694412 0.634815 0.000000
0.725324 0.636333 0.000000
0.755592 0.638478 0.000000
0.785046 0.641243 0.000000
0.813564 0.644623 0.000000
0.840932 0.648608 0.000000
0.866160 0.653443 0.000000
0.889432 0.659104 0.025897
0.911161 0.665471 0.054966
0.931342 0.672553 0.080687
0.949901 0.680392 0.105753
0.165125 0.722124 0.173575
0.168374 0.722658 0.173651
0.169970 0.718876 0.170507
0.173601 0.709406 0.162650
0.186153 0.702516 0.155670
0.206042 0.696654 0.148225
0.231923 0.691475 0.139819
0.262234 0.686870 0.130173
0.295411 0.682793 0.119136
0.330036 0.679202 0.106682
0.364878 0.676054 0.092922
0.398883 0.673310 0.078099
0.430797 0.671067 0.059642
0.460212 0.669247 0.037561
0.462706 0.672806 0.079118
0.488409 0.671558 0.061150
0.514475 0.670627 0.040881
0.542630 0.669337 0.017899
0.572559 0.668262 0.000000
0.603795 0.667556 0.000000
0.635713 0.667205 0.000000
0.667605 0.667443 0.000000
0.699162 0.668280 0.000000
0.730143 0.669723 0.000000
0.760358 0.671777 0.000000
0.789661 0.674444 0.000000
0.817653 0.677783 0.000000
0.843752 0.681918 0.006590
0.868166 0.686803 0.035932
0.890926 0.692429 0.061286
0.912127 0.698758 0.084679
0.931844 0.705766 0.107025
0.950116 0.713446 0.128863
0.212487 0.765188 0.202441
0.212830 0.762195 0.199987
0.211471 0.753727 0.193337
0.215550 0.746682 0.187138
0.225826 0.740380 0.180631
0.242331 0.734595 0.173430
0.264497 0.729284 0.165287
0.291224 0.724450 0.156048
0.321145 0.720096 0.145648
0.352868 0.716212 0.134138
0.385113 0.712776 0.121692
0.416753 0.709763 0.108614
0.446766 0.707077 0.095470
0.474112 0.704387 0.083565
0.471552 0.707401 0.119798
0.495290 0.705341 0.107259
0.520854 0.703700 0.093722
0.548895 0.702508 0.078583
0.578766 0.701714 0.062049
0.609858 0.701300 0.044618
0.641601 0.701273 0.027445
0.673481 0.701665 0.012304
0.705044 0.702529 0.002535
0.735913 0.703923 0.000699
0.765790 0.705907 0.007112
0.794453 0.708533 0.020549
0.821749 0.711838 0.037495
0.847486 0.715850 0.056119
0.871536 0.720579 0.075497
0.893930 0.726022 0.095221
0.914723 0.732167 0.115143
0.933981 0.738997 0.135232
0.951781 0.746490 0.155505
0.251639 0.801558 0.228510
0.248864 0.793722 0.222478
0.249554 0.788093 0.217797
0.253920 0.782297 0.212471
0.263022 0.776504 0.206422
0.277376 0.770866 0.199564
0.296820 0.765486 0.191808
0.320590 0.760433 0.183110
0.347542 0.755748 0.173500
0.376387 0.751438 0.163115
0.405883 0.747509 0.152192
0.434904 0.743951 0.141087
0.462483 0.740757 0.130249
0.487825 0.737933 0.120171
0.510301 0.735495 0.111341
0.504665 0.738871 0.145925
0.530411 0.737327 0.134655
0.558343 0.736256 0.121931
0.587979 0.735578 0.108809
0.618743 0.735275 0.095896
0.650097 0.735350 0.084036
0.681550 0.735829 0.074289
0.712667 0.736753 0.067804
0.743081 0.738174 0.065535
0.772496 0.740144 0.067895
0.800693 0.742714 0.074622
0.827517 0.745920 0.084975
0.852784 0.749792 0.098078
0.876378 0.754342 0.113150
0.898329 0.759570 0.129607
0.918692 0.765467 0.147062
0.937536 0.772015 0.165269
0.954941 0.779195 0.184077
0.282532 0.829608 0.250594
0.282212 0.824715 0.246612
0.284211 0.820415 0.242792
0.288998 0.815495 0.238049
0.297658 0.810250 0.232416
0.310814 0.804934 0.225907
0.328493 0.799725 0.218513
0.350152 0.794741 0.210251
0.374836 0.790059 0.201197
0.401384 0.785717 0.191510
0.428603 0.781727 0.181446
0.455385 0.778091 0.171352
0.480766 0.774808 0.161641
0.503947 0.771886 0.152757
0.524332 0.769343 0.145115
0.545221 0.767291 0.137971
0.542625 0.771217 0.168721
0.570787 0.770006 0.159688
0.600172 0.769328 0.149011
0.630506 0.769067 0.138258
0.661356 0.769188 0.128601
0.692254 0.769707 0.120775
0.722783 0.770654 0.115505
0.752593 0.772072 0.113372
0.781398 0.774008 0.114681
0.808984 0.776503 0.119407
0.835200 0.779594 0.127245
0.859874 0.783307 0.137735
0.882902 0.787656 0.150370
0.904312 0.792642 0.164686
0.924160 0.798256 0.180314
0.942513 0.804483 0.196976
0.959453 0.811301 0.214465
0.314752 0.859658 0.274152
0.315966 0.855981 0.270908
0.318838 0.852474 0.267559
0.324060 0.848224 0.263224
0.332575 0.843491 0.257937
0.344972 0.838538 0.251746
0.361346 0.833564 0.244692
0.381283 0.828714 0.236840
0.403968 0.824084 0.228305
0.428353 0.819732 0.219275
0.453322 0.815684 0.210016
0.477811 0.811957 0.200863
0.500879 0.808560 0.192197
0.521745 0.805506 0.184409
0.540657 0.802844 0.177630
0.561810 0.800723 0.170914
0.557487 0.804781 0.200352
0.585587 0.803530 0.191996
0.614983 0.802709 0.184049
0.645117 0.802318 0.176669
0.675392 0.802441 0.168444
0.705645 0.802956 0.161873
0.735482 0.803888 0.157487
0.764570 0.805270 0.155701
0.792638 0.807140 0.156751
0.819483 0.809536 0.160665
0.844962 0.812488 0.167283
0.868921 0.816020 0.176323
0.891268 0.820143 0.187437
0.912031 0.824860 0.200268
0.931265 0.830161 0.214500
0.949039 0.836031 0.229870
0.965431 0.842448 0.246161
0.346543 0.889082 0.298176
0.348830 0.886146 0.295352
0.352428 0.883225 0.292336
0.358141 0.879552 0.288343
0.366748 0.875328 0.283388
0.378748 0.870789 0.277532
0.394225 0.866130 0.270842
0.412826 0.861501 0.263416
0.433826 0.857007 0.255400
0.456270 0.852718 0.247002
0.479116 0.848674 0.238496
0.501355 0.844901 0.230206
0.522086 0.841420 0.222485
0.540560 0.838253 0.215677
0.559257 0.835534 0.209359
0.580707 0.833366 0.203032
0.604357 0.831726 0.196943
0.603097 0.836228 0.223733
0.632262 0.835358 0.216487
0.662059 0.834897 0.210125
0.692026 0.834841 0.205062
0.721644 0.835279 0.200126
0.750716 0.836158 0.196529
0.778993 0.837468 0.195207
0.806225 0.839240 0.196341
0.832221 0.841506 0.199962
0.856850 0.844291 0.205964
0.879980 0.847614 0.214151
