tono/assets/cubes/notte_venezia_33.cube
TITLE "Venezia"
LUT_3D_SIZE 5
DOMAIN_MIN 0.0 0.0 0.0
DOMAIN_MAX 1.0 1.0 1.0
0.000000 0.008167 0.036765
0.275956 0.004297 0.032242
0.579517 0.128820 0.112527
0.897680 0.321887 0.256950
0.907083 0.332596 0.276369
0.000000 0.264631 0.062931
0.235874 0.259297 0.007478
0.522531 0.253629 0.000000
0.773308 0.321450 0.141242
0.946568 0.431906 0.257406
0.006347 0.531390 0.097303
0.221211 0.521967 0.000000
0.505392 0.514633 0.000000
0.749381 0.522620 0.000000
0.948429 0.564193 0.128657
0.282532 0.829608 0.250594
0.374836 0.790059 0.201197
0.542625 0.771217 0.168721
0.781398 0.774008 0.114681
0.959453 0.811301 0.214465
0.481577 0.984213 0.418234
0.580316 0.989015 0.404014
0.748285 0.991497 0.382537
0.918871 0.993754 0.401286
1.000000 1.000000 0.497834
0.000000 0.069516 0.217638
0.260864 0.004123 0.317869
0.592067 0.003299 0.324154
0.912243 0.237266 0.386349
0.956789 0.266444 0.425680
0.000000 0.261534 0.279542
0.236972 0.254948 0.265247
0.529523 0.238667 0.259807
0.773448 0.297084 0.298054
0.958214 0.410678 0.387411
0.006475 0.525169 0.277862
0.186861 0.521638 0.230568
0.507453 0.508929 0.209927
0.748602 0.511361 0.229549
0.945562 0.555103 0.322372
0.193300 0.816564 0.358562
0.334622 0.780800 0.325087
0.551098 0.757634 0.287018
0.773786 0.764064 0.305310
0.954894 0.802186 0.372861
0.450219 0.990891 0.514460
0.558724 0.994389 0.500916
0.732868 0.987719 0.478355
0.911118 0.988401 0.486227
1.000000 1.000000 0.519881
0.000000 0.148363 0.370555
0.198882 0.003935 0.517758
0.549179 0.003255 0.579199
0.869764 0.003091 0.594145
1.000000 0.117836 0.640254
0.000000 0.257899 0.466224
0.182185 0.238799 0.548944
0.513430 0.232086 0.543761
0.785829 0.256108 0.539545
0.995354 0.354173 0.573637
0.008153 0.522647 0.526612
0.185604 0.515914 0.520393
0.509118 0.503975 0.492729
0.742112 0.505895 0.500129
0.944558 0.544175 0.535376
0.027145 0.797621 0.562565
0.275565 0.775415 0.537167
0.538390 0.750096 0.518998
0.772045 0.753080 0.518637
0.948823 0.792603 0.561876
0.406172 1.000000 0.706798
0.524508 1.000000 0.684607
0.714023 0.982862 0.657449
0.913664 0.977205 0.661342
1.000000 0.993533 0.698566
0.000000 0.187875 0.458078
0.148847 0.084942 0.618448
0.438034 0.072261 0.706328
0.783724 0.003088 0.794664
1.000000 0.152208 0.843371
0.000000 0.256113 0.542137
0.134326 0.211841 0.634717
0.427677 0.232459 0.689740
0.740346 0.276915 0.750008
0.987320 0.352145 0.795307
0.009350 0.507949 0.704988
0.196669 0.507983 0.732066
0.509668 0.502148 0.724314
0.734107 0.510188 0.721783
0.934511 0.551158 0.748015
0.027908 0.783729 0.771434
0.319582 0.767941 0.757043
0.550768 0.748865 0.729613
0.778822 0.754024 0.720924
0.949234 0.794365 0.759457
0.457159 1.000000 0.889565
0.537119 0.998179 0.873206
0.727671 0.979037 0.847000
0.919231 0.974809 0.836419
1.000000 0.991441 0.857750
0.000000 0.237791 0.565156
0.141324 0.167573 0.703080
0.380584 0.169991 0.767457
0.680936 0.177554 0.874082
0.962253 0.219830 0.949628
0.000000 0.296425 0.651990
0.146932 0.257954 0.732970
0.377692 0.266631 0.772356
0.659677 0.317295 0.853592
0.933976 0.395856 0.917216
0.008683 0.477858 0.782421
0.197768 0.469520 0.817036
0.428645 0.478932 0.834460
0.684192 0.510103 0.863272
0.912352 0.570571 0.886374
0.214747 0.779980 0.910887
0.400537 0.769517 0.898527
0.583925 0.757362 0.879245
0.793406 0.767774 0.868777
0.953133 0.811187 0.885418
0.624668 0.989140 0.949176
0.644535 0.986910 0.949060
0.768681 0.981137 0.939986
0.937457 0.979780 0.928692
1.000000 0.996609 0.938114
