tono/assets/cubes/notte_venezia_33.cube
TITLE "Venezia"
LUT_3D_SIZE 9
DOMAIN_MIN 0.0 0.0 0.0
DOMAIN_MAX 1.0 1.0 1.0
0.000000 0.008167 0.036765
0.092045 0.005305 0.030606
0.275956 0.004297 0.032242
0.440246 0.050636 0.062209
0.579517 0.128820 0.112527
0.776591 0.237082 0.191353
0.897680 0.321887 0.256950
0.900787 0.325367 0.263452
0.907083 0.332596 0.276369
0.000000 0.119312 0.037866
0.084033 0.118616 0.019733
0.266855 0.108778 0.027277
0.432067 0.112329 0.043993
0.546370 0.147183 0.087374
0.686039 0.210758 0.144791
0.817148 0.285702 0.205731
0.904332 0.347106 0.257347
0.919809 0.367556 0.271189
0.000000 0.264631 0.062931
0.036489 0.270220 0.009636
0.235874 0.259297 0.007478
0.400448 0.253471 0.003212
0.522531 0.253629 0.000000
0.645183 0.272571 0.057810
0.773308 0.321450 0.141242
0.876576 0.380073 0.212746
0.946568 0.431906 0.257406
0.000000 0.413099 0.083313
0.000000 0.418364 0.023956
0.221819 0.407133 0.000000
0.389035 0.400918 0.000000
0.509118 0.400875 0.000000
0.626951 0.406890 0.000000
0.767240 0.419279 0.000000
0.871573 0.452563 0.129215
0.945621 0.493833 0.200011
0.006347 0.531390 0.097303
0.006375 0.532557 0.056485
0.221211 0.521967 0.000000
0.374793 0.519630 0.000000
0.505392 0.514633 0.000000
0.621653 0.515832 0.000000
0.749381 0.522620 0.000000
0.867810 0.534313 0.000000
0.948429 0.564193 0.128657
0.113382 0.679916 0.145736
0.146141 0.665147 0.131216
0.273084 0.646387 0.092614
0.416981 0.636172 0.007287
0.509247 0.635922 0.000000
0.631598 0.633703 0.000000
0.755592 0.638478 0.000000
0.866160 0.653443 0.000000
0.949901 0.680392 0.105753
0.282532 0.829608 0.250594
0.297658 0.810250 0.232416
0.374836 0.790059 0.201197
0.480766 0.774808 0.161641
0.542625 0.771217 0.168721
0.661356 0.769188 0.128601
0.781398 0.774008 0.114681
0.882902 0.787656 0.150370
0.959453 0.811301 0.214465
0.406517 0.942404 0.345937
0.431253 0.932650 0.333540
0.492777 0.917369 0.309298
0.564891 0.902509 0.282683
0.648188 0.893009 0.260605
0.731889 0.895904 0.271446
0.839789 0.899135 0.270781
0.926981 0.909160 0.295816
0.990872 0.925794 0.341886
0.481577 0.984213 0.418234
0.517720 0.985920 0.413114
0.580316 0.989015 0.404014
0.651785 0.992640 0.394839
0.748285 0.991497 0.382537
0.827118 0.993696 0.397068
0.918871 0.993754 0.401286
0.987076 0.998413 0.421052
1.000000 1.000000 0.497834
0.000000 0.005725 0.159537
0.089306 0.005126 0.158116
0.273808 0.004261 0.141254
0.449418 0.007166 0.136108
0.582131 0.105794 0.162840
0.769935 0.218142 0.225090
0.904667 0.311642 0.293841
0.910061 0.314570 0.304587
0.919482 0.318100 0.327522
0.000000 0.118317 0.142829
0.085048 0.116583 0.137269
0.275208 0.097322 0.126178
0.438439 0.096842 0.125099
0.549807 0.133610 0.144159
0.683834 0.198604 0.185465
0.812576 0.272102 0.238587
0.906173 0.337081 0.290810
0.927857 0.358454 0.317501
0.000000 0.264187 0.134334
0.003225 0.272597 0.099430
0.237615 0.259489 0.075672
0.404097 0.250772 0.087178
0.524936 0.249837 0.090213
0.644015 0.268013 0.124878
0.768870 0.313934 0.185602
0.874976 0.374092 0.249511
0.948113 0.426415 0.299805
0.000000 0.412894 0.132316
0.000000 0.417964 0.101400
0.208134 0.410531 0.030247
0.390191 0.401468 0.000000
0.516722 0.397144 0.000000
0.636298 0.398350 0.000000
0.762945 0.413673 0.093452
0.868625 0.448863 0.184302
0.945353 0.490497 0.252210
0.006349 0.530306 0.137920
0.006367 0.531327 0.110833
0.211559 0.522640 0.050720
0.369973 0.520133 0.030236
0.505261 0.513780 0.000000
0.624132 0.511567 0.000000
0.752733 0.515586 0.018683
0.864207 0.531507 0.119903
0.946749 0.561288 0.204455
0.081119 0.675431 0.174892
0.125726 0.660754 0.162609
0.264208 0.642503 0.133659
0.410743 0.632187 0.083020
0.505039 0.630677 0.078800
0.627392 0.628938 0.049694
0.754115 0.634012 0.072042
0.863260 0.649867 0.127770
0.947454 0.677217 0.196810
0.260439 0.823049 0.276104
0.279500 0.804582 0.259768
0.362684 0.784923 0.232761
0.473257 0.770083 0.201506
0.537291 0.766924 0.209972
0.656941 0.765307 0.183455
0.778317 0.770221 0.183870
0.880724 0.784062 0.218925
0.957932 0.808034 0.274334
0.389210 0.940161 0.376287
0.416264 0.930395 0.364516
0.481507 0.914993 0.342184
0.557055 0.900016 0.318774
0.642021 0.890343 0.301545
0.727592 0.892964 0.314091
0.836665 0.896319 0.313894
0.925016 0.906347 0.338681
0.989620 0.923202 0.380025
0.470243 0.986591 0.452821
0.507914 0.988121 0.447606
0.572688 0.990899 0.438300
0.645736 0.994139 0.428965
0.742997 0.990177 0.416536
0.823545 0.991895 0.430133
0.916205 0.992000 0.431263
0.985390 0.996634 0.448476
1.000000 1.000000 0.484832
0.000000 0.069516 0.217638
0.053471 0.004743 0.329782
0.260864 0.004123 0.317869
0.440641 0.003604 0.314718
0.592067 0.003299 0.324154
0.791052 0.121181 0.351462
0.912243 0.237266 0.386349
0.944702 0.267713 0.400924
0.956789 0.266444 0.425680
0.000000 0.124260 0.281945
0.049418 0.105033 0.358757
0.267454 0.079413 0.327924
0.445002 0.045256 0.305121
0.565140 0.057541 0.299350
0.696533 0.140092 0.308751
0.824780 0.227294 0.337817
0.922541 0.300815 0.377347
0.954604 0.327430 0.409739
0.000000 0.261534 0.279542
0.000000 0.266999 0.286902
0.236972 0.254948 0.265247
0.407265 0.243018 0.258976
0.529523 0.238667 0.259807
0.648493 0.252951 0.268497
0.773448 0.297084 0.298054
0.880969 0.357312 0.342284
0.958214 0.410678 0.387411
0.000000 0.408541 0.273642
0.000000 0.412398 0.265819
0.200765 0.407159 0.240211
0.388142 0.397487 0.222263
0.516044 0.392570 0.219993
0.633545 0.393283 0.225465
0.762012 0.406323 0.250041
0.868721 0.440693 0.299492
0.949232 0.482253 0.351987
0.006475 0.525169 0.277862
0.006434 0.525387 0.265985
0.186861 0.521638 0.230568
0.379676 0.513722 0.217078
0.507453 0.508929 0.209927
0.620858 0.507864 0.213345
0.748602 0.511361 0.229549
0.861549 0.526066 0.268428
0.945562 0.555103 0.322372
0.016827 0.668829 0.299423
0.015841 0.656023 0.278939
0.229366 0.640055 0.255043
0.397268 0.628804 0.232961
0.514628 0.622165 0.225944
0.628164 0.621751 0.230429
0.749890 0.628291 0.246817
0.859156 0.644120 0.277629
0.941982 0.672292 0.328638
0.193300 0.816564 0.358562
0.229112 0.799983 0.345447
0.334622 0.780800 0.325087
0.455951 0.766228 0.301157
0.551098 0.757634 0.287018
0.650362 0.759827 0.297682
0.773786 0.764064 0.305310
0.878172 0.777391 0.332253
0.954894 0.802186 0.372861
0.347864 0.937261 0.446033
0.381863 0.927631 0.435767
0.457176 0.912033 0.417016
0.540903 0.896617 0.398461
0.629262 0.886700 0.384246
0.718930 0.888551 0.394341
0.831163 0.891183 0.397014
0.921227 0.901040 0.417018
0.989771 0.917120 0.445939
0.450219 0.990891 0.514460
0.490479 0.992146 0.509670
0.558724 0.994389 0.500916
0.633996 0.995445 0.491251
0.732868 0.987719 0.478355
0.815980 0.988822 0.487087
0.911118 0.988401 0.486227
0.981902 0.992998 0.497720
1.000000 1.000000 0.519881
0.000000 0.115758 0.304507
0.025440 0.004454 0.430888
0.225374 0.004011 0.447536
0.429655 0.003516 0.469885
0.587025 0.003250 0.485290
0.796223 0.003091 0.501863
0.919391 0.008093 0.494146
0.992291 0.168486 0.502833
1.000000 0.173205 0.524015
0.000000 0.136373 0.335660
0.010645 0.076338 0.454957
0.220653 0.063238 0.466852
0.420743 0.041608 0.467046
0.555571 0.021738 0.463926
0.705850 0.012362 0.461226
0.848802 0.118945 0.464176
0.951912 0.223294 0.481433
0.992599 0.273629 0.505213
0.000000 0.263036 0.414859
0.017332 0.255307 0.463596
0.233375 0.246434 0.448540
0.403331 0.236657 0.435405
0.527066 0.232560 0.429326
0.652436 0.236987 0.427212
0.786293 0.268471 0.433104
0.897962 0.326036 0.454068
0.977990 0.383474 0.483486
0.000000 0.407227 0.418096
0.000000 0.407998 0.420045
0.199858 0.403073 0.411997
0.388568 0.393818 0.392808
0.516397 0.388453 0.390898
0.630295 0.389673 0.395460
0.761147 0.399636 0.405791
0.872687 0.429834 0.427872
0.956156 0.470284 0.459751
0.007231 0.522696 0.423838
0.007043 0.520736 0.417423
0.176972 0.519172 0.401232
0.377496 0.511406 0.383872
0.508015 0.506049 0.374150
0.620386 0.504291 0.376019
0.745828 0.507378 0.388793
0.860965 0.519770 0.409912
0.946716 0.547524 0.440899
0.017173 0.663304 0.443470
0.016000 0.647825 0.427811
0.193572 0.638191 0.406683
0.388694 0.625375 0.395244
0.510872 0.618317 0.386425
0.625328 0.617388 0.384922
0.747004 0.623250 0.393675
0.855577 0.638704 0.413667
0.941273 0.665568 0.440132
0.027394 0.809588 0.465677
0.139805 0.796359 0.455948
0.292345 0.778929 0.440100
0.435708 0.763746 0.424608
0.541170 0.753641 0.418581
0.657847 0.751049 0.419161
0.773675 0.756710 0.427287
0.873370 0.771677 0.443662
0.950769 0.796510 0.466523
0.298629 0.932970 0.523299
0.344256 0.923905 0.515290
0.432486 0.908583 0.501096
0.520758 0.893844 0.484718
0.615168 0.883429 0.473402
0.729873 0.879225 0.470585
0.835899 0.882482 0.478281
0.921503 0.893669 0.495406
0.985536 0.911928 0.522201
0.428534 0.996094 0.594948
0.472402 0.996900 0.588715
0.544368 0.998331 0.577645
0.618899 0.993618 0.563319
0.720694 0.985394 0.549628
0.827671 0.980513 0.546208
0.917861 0.980588 0.555086
0.985312 0.986332 0.573051
1.000000 0.996718 0.598842
0.000000 0.148363 0.370555
0.012171 0.004214 0.512173
0.198882 0.003935 0.517758
0.398171 0.003493 0.559697
0.549179 0.003255 0.579199
0.714943 0.003112 0.586726
0.869764 0.003091 0.594145
0.994042 0.003156 0.610631
1.000000 0.117836 0.640254
0.000000 0.149272 0.367823
0.000000 0.075863 0.498497
0.183893 0.065426 0.518215
0.376766 0.059335 0.546025
0.525481 0.044226 0.560732
0.683788 0.019811 0.567974
0.841253 0.031040 0.571559
0.966240 0.127823 0.583720
1.000000 0.225732 0.610813
0.000000 0.257899 0.466224
0.000000 0.248402 0.507199
0.182185 0.238799 0.548944
0.373555 0.232240 0.551588
0.513430 0.232086 0.543761
0.643839 0.239196 0.539855
0.785829 0.256108 0.539545
0.908671 0.298593 0.549297
0.995354 0.354173 0.573637
0.000417 0.408700 0.522062
0.000298 0.404370 0.534633
0.207428 0.398187 0.538049
0.386358 0.390705 0.525821
0.512730 0.387016 0.518579
0.624777 0.389461 0.516747
0.755462 0.399151 0.517807
0.873267 0.423551 0.526178
0.960931 0.460530 0.548525
0.008153 0.522647 0.526612
0.007780 0.517621 0.523479
0.185604 0.515914 0.520393
0.379305 0.509010 0.505378
0.509118 0.503975 0.492729
0.619043 0.502374 0.493678
0.742112 0.505895 0.500129
0.855951 0.518308 0.514141
0.944558 0.544175 0.535376
0.016846 0.648950 0.536429
0.016287 0.641608 0.529185
0.196925 0.634024 0.519223
0.390514 0.622372 0.504880
0.511271 0.615810 0.494461
0.625343 0.614840 0.489511
0.745786 0.620463 0.494302
0.852936 0.635873 0.509773
0.937864 0.662738 0.534872
0.027145 0.797621 0.562565
0.026652 0.791510 0.550428
0.275565 0.775415 0.537167
0.432418 0.759781 0.525635
0.538390 0.750096 0.518998
0.656063 0.747606 0.514469
0.772045 0.753080 0.518637
0.871455 0.767858 0.534528
0.948823 0.792603 0.561876
0.244515 0.928678 0.620370
0.306129 0.920755 0.611370
0.407438 0.906582 0.595415
0.506201 0.891363 0.580307
0.609434 0.879894 0.572015
0.725859 0.875331 0.571069
0.832075 0.878567 0.578547
0.918418 0.889640 0.595441
0.983263 0.907897 0.622433
0.406172 1.000000 0.706798
0.451816 1.000000 0.698994
0.524508 1.000000 0.684607
0.603812 0.992886 0.668454
0.714023 0.982862 0.657449
0.823166 0.977161 0.654733
0.913664 0.977205 0.661342
0.982131 0.982982 0.676222
1.000000 0.993533 0.698566
0.000000 0.160299 0.400725
0.000000 0.046423 0.553423
0.166916 0.019446 0.569669
0.343151 0.003521 0.618123
0.488152 0.003287 0.651723
0.658422 0.003124 0.680004
0.829204 0.003089 0.701124
0.964662 0.003156 0.724117
1.000000 0.135424 0.751524
0.000000 0.172576 0.422373
0.000000 0.114539 0.531126
0.156817 0.081372 0.562854
0.330622 0.082504 0.603483
0.478804 0.083603 0.638841
0.644054 0.070282 0.669265
0.815583 0.061953 0.688210
0.949792 0.116096 0.704337
1.000000 0.239541 0.724842
0.000000 0.250693 0.499926
0.000000 0.238512 0.545103
0.156523 0.221790 0.596711
0.334425 0.223783 0.616874
0.478069 0.231860 0.630321
0.619603 0.245439 0.641444
0.772537 0.266158 0.650683
0.903492 0.294464 0.664708
1.000000 0.337919 0.690390
0.000847 0.399850 0.593147
0.000966 0.397359 0.611007
0.174843 0.398284 0.637522
0.388708 0.389199 0.636041
0.509966 0.387775 0.628349
0.615488 0.392658 0.629193
0.748588 0.403009 0.626353
0.869515 0.423585 0.636200
0.963031 0.454703 0.658501
0.008841 0.516833 0.623042
0.008838 0.515590 0.629394
0.206655 0.512240 0.630719
0.385543 0.506438 0.616137
0.507902 0.502677 0.606602
0.616457 0.502336 0.604359
0.737855 0.506867 0.609454
0.850273 0.520117 0.623333
0.940310 0.545168 0.645050
0.017197 0.640784 0.637605
0.016980 0.637657 0.636759
0.219806 0.630427 0.629653
0.398437 0.620391 0.613328
0.513973 0.614824 0.601700
0.627783 0.614347 0.594270
0.745583 0.620332 0.601786
0.850786 0.636205 0.618228
0.934709 0.663384 0.644051
0.027352 0.788841 0.670913
0.027087 0.785650 0.664496
0.288723 0.771159 0.651257
0.437670 0.757180 0.636864
0.542058 0.748529 0.625535
0.658794 0.746563 0.619467
0.773953 0.752112 0.622512
0.872336 0.766827 0.638599
0.948870 0.791610 0.665864
0.212394 0.923910 0.729527
0.293951 0.916788 0.721628
0.406596 0.903204 0.707361
0.506562 0.888309 0.693252
0.611245 0.877638 0.683589
0.728065 0.873517 0.677409
0.833840 0.876805 0.680927
0.919507 0.887808 0.695486
0.984030 0.905998 0.719801
0.418659 1.000000 0.812888
0.463732 1.000000 0.805749
0.522034 1.000000 0.791705
0.606890 0.990105 0.776725
0.716269 0.980394 0.765177
0.824524 0.974981 0.757634
0.914722 0.975106 0.758874
0.982941 0.980935 0.769624
1.000000 0.991582 0.787996
0.000000 0.187875 0.458078
0.000000 0.141344 0.556117
0.148847 0.084942 0.618448
0.303607 0.078170 0.660997
0.438034 0.072261 0.706328
0.601772 0.035668 0.756932
0.783724 0.003088 0.794664
0.934784 0.003157 0.822822
1.000000 0.152208 0.843371
0.000000 0.201398 0.484304
0.000000 0.164533 0.566295
0.144897 0.122947 0.620487
0.298020 0.122515 0.656524
0.432462 0.129547 0.697468
0.588218 0.133659 0.741743
0.769477 0.130008 0.781549
0.921703 0.152346 0.807946
1.000000 0.216354 0.832616
0.000000 0.256113 0.542137
0.000000 0.238598 0.585309
0.134326 0.211841 0.634717
0.293060 0.218314 0.660531
0.427677 0.232459 0.689740
0.570427 0.252017 0.719752
0.740346 0.276915 0.750008
0.886934 0.308019 0.772448
0.987320 0.352145 0.795307
0.000533 0.383221 0.638389
0.000688 0.378699 0.663185
0.149306 0.371933 0.698849
0.320788 0.374311 0.710923
0.454461 0.379528 0.722086
0.582595 0.389219 0.727960
0.729405 0.407049 0.733128
0.859082 0.432082 0.743743
0.954003 0.462571 0.762998
0.009350 0.507949 0.704988
0.009533 0.507230 0.720995
0.196669 0.507983 0.732066
0.396697 0.504120 0.733864
0.509668 0.502148 0.724314
0.615348 0.503703 0.720111
0.734107 0.510188 0.721783
0.844951 0.525113 0.729801
0.934511 0.551158 0.748015
0.018063 0.637102 0.740634
0.018069 0.635603 0.749372
0.255866 0.627475 0.741748
0.412905 0.619174 0.726562
0.519558 0.614957 0.715758
0.629345 0.615879 0.710204
0.744985 0.623399 0.712281
0.848481 0.640334 0.723982
0.931245 0.668276 0.745324
0.027908 0.783729 0.771434
0.143711 0.779889 0.768960
0.319582 0.767941 0.757043
0.451696 0.756102 0.741402
0.550768 0.748865 0.729613
0.665254 0.747852 0.722074
0.778822 0.754024 0.720924
0.874433 0.769188 0.735832
0.949234 0.794365 0.759457
0.256944 0.917363 0.821781
0.330014 0.911289 0.815382
0.428777 0.899480 0.803231
0.517270 0.886501 0.790321
0.622298 0.877208 0.777381
0.735917 0.873947 0.769681
0.839099 0.877657 0.770066
0.923069 0.888742 0.780668
0.986301 0.906869 0.800922
0.457159 1.000000 0.889565
0.493167 1.000000 0.883668
0.537119 0.998179 0.873206
0.621217 0.987792 0.860225
0.727671 0.979037 0.847000
0.831944 0.974298 0.837776
0.919231 0.974809 0.836419
0.985822 0.980782 0.843549
1.000000 0.991441 0.857750
0.000000 0.216073 0.516528
0.000000 0.181043 0.598944
0.140337 0.133143 0.665798
0.280650 0.129799 0.699516
0.401418 0.132182 0.741601
0.547532 0.130695 0.793763
0.727648 0.110235 0.849553
0.890652 0.093352 0.889827
1.000000 0.148221 0.916754
0.000000 0.229953 0.544602
0.000000 0.198564 0.619422
0.140127 0.163331 0.672341
0.278886 0.162609 0.701105
0.398935 0.170777 0.739440
0.540051 0.182588 0.786468
0.715755 0.192282 0.837545
0.876862 0.210386 0.875063
0.988748 0.258551 0.901042
0.000000 0.276873 0.601054
0.000000 0.257457 0.651118
0.136516 0.233190 0.689720
0.274341 0.232087 0.706445
0.393027 0.244081 0.735760
0.527156 0.266090 0.773215
0.695792 0.295505 0.815621
0.852007 0.328934 0.847988
0.964211 0.372153 0.872221
0.000214 0.369704 0.666836
0.000425 0.362991 0.699234
0.142229 0.353231 0.733749
0.292969 0.355621 0.745916
0.412973 0.365737 0.764739
0.539503 0.383156 0.785616
0.692352 0.408865 0.806615
0.833381 0.439628 0.824680
0.938150 0.472942 0.843560
0.009013 0.491261 0.752313
0.009226 0.488560 0.776162
0.187942 0.486110 0.788596
0.338412 0.489776 0.794495
0.453455 0.496492 0.804835
0.574030 0.503072 0.812688
0.709094 0.511674 0.813493
0.831571 0.530555 0.816981
0.926276 0.560389 0.830336
0.018705 0.631615 0.820731
0.084822 0.629846 0.832323
0.274605 0.625799 0.824129
0.432289 0.620297 0.823174
0.528981 0.617738 0.812646
0.635244 0.620385 0.805812
0.747066 0.629792 0.804457
0.847909 0.648254 0.810924
0.929049 0.677276 0.826113
0.080195 0.781557 0.855698
0.230936 0.776442 0.850700
0.360451 0.766855 0.840947
0.471211 0.757179 0.827391
0.564977 0.751517 0.816160
0.675607 0.751719 0.808554
0.783986 0.759140 0.807581
0.877023 0.775368 0.816075
0.950113 0.801042 0.833346
0.323312 0.912208 0.887978
0.380462 0.907313 0.883164
0.459211 0.897569 0.873628
0.537764 0.886692 0.861749
0.639886 0.878980 0.849534
0.748702 0.876743 0.841337
0.847641 0.881115 0.839456
0.928957 0.892504 0.845198
0.989642 0.910629 0.862000
0.497088 1.000000 0.938178
0.513874 1.000000 0.935185
0.562440 0.995774 0.926963
0.644367 0.986781 0.916350
0.745642 0.979227 0.903568
0.844013 0.975346 0.894587
0.926913 0.976389 0.891730
0.990771 0.982574 0.895810
1.000000 0.993169 0.906276
0.000000 0.237791 0.565156
0.000000 0.202563 0.649535
0.141324 0.167573 0.703080
0.270963 0.165835 0.730668
0.380584 0.169991 0.767457
0.512556 0.176266 0.816185
0.680936 0.177554 0.874082
0.843272 0.181145 0.920444
0.962253 0.219830 0.949628
0.000000 0.252798 0.595841
0.000000 0.220448 0.674282
0.143830 0.196327 0.712712
0.271721 0.196071 0.736110
0.380009 0.204130 0.769513
0.508481 0.218671 0.813995
0.673474 0.236643 0.867487
0.833787 0.260109 0.910758
0.953025 0.303275 0.938643
0.000000 0.296425 0.651990
0.000000 0.274204 0.710131
0.146932 0.257954 0.732970
0.272311 0.256914 0.747013
0.377692 0.266631 0.772356
0.500541 0.286880 0.808359
0.659677 0.317295 0.853592
0.815619 0.353051 0.891357
0.933976 0.395856 0.917216
0.001361 0.375637 0.709864
0.001267 0.362300 0.744007
0.146081 0.345869 0.758281
0.279255 0.348646 0.768170
0.386557 0.361226 0.788617
0.507511 0.382116 0.815967
0.657970 0.412555 0.847216
0.802859 0.447389 0.873079
0.914730 0.481502 0.894393
0.008683 0.477858 0.782421
0.008907 0.472582 0.814098
0.197768 0.469520 0.817036
0.326940 0.471524 0.822947
0.428645 0.478932 0.834460
0.546680 0.491602 0.849847
0.684192 0.510103 0.863272
0.812343 0.536134 0.873619
0.912352 0.570571 0.886374
0.018914 0.623728 0.872124
0.152027 0.621282 0.876931
0.289735 0.618586 0.871792
0.405308 0.622050 0.872686
0.501842 0.632558 0.879776
0.645219 0.628567 0.876324
0.752929 0.639803 0.872211
0.850365 0.659886 0.874362
0.929272 0.690105 0.883998
0.214747 0.779980 0.910887
0.301466 0.776049 0.906599
0.400537 0.769517 0.898527
0.492943 0.761353 0.889743
0.583925 0.757362 0.879245
0.690128 0.758979 0.871392
0.793406 0.767774 0.868777
0.882564 0.785092 0.873414
0.953133 0.811187 0.885418
0.388297 0.909795 0.931597
0.431772 0.905938 0.928096
0.491470 0.898134 0.920908
0.565007 0.889362 0.910745
0.663022 0.883246 0.899815
0.765937 0.882104 0.891885
0.859249 0.887202 0.889314
0.935696 0.899013 0.893869
0.993895 0.917142 0.905587
0.624668 0.989140 0.949176
0.628762 0.988443 0.949168
0.644535 0.986910 0.949060
0.682713 0.985876 0.948601
0.768681 0.981137 0.939986
0.860065 0.978180 0.931933
0.937457 0.979780 0.928692
0.997556 0.986161 0.930953
1.000000 0.996609 0.938114
