tono/assets/cubes/pellicola_gold_33.cube
TITLE "Gold 200"
LUT_3D_SIZE 9
DOMAIN_MIN 0.0 0.0 0.0
DOMAIN_MAX 1.0 1.0 1.0
0.009724 0.005374 0.000000
0.134007 0.015214 0.000000
0.298456 0.055544 0.000000
0.462990 0.099685 0.000000
0.618768 0.179406 0.079535
0.806097 0.288781 0.182325
0.882153 0.344258 0.235317
0.885935 0.349172 0.244253
0.894354 0.360488 0.263414
0.045599 0.124371 0.000000
0.135944 0.122690 0.000000
0.295903 0.123747 0.000000
0.466807 0.133327 0.000000
0.637355 0.197247 0.085610
0.808429 0.291241 0.183552
0.882145 0.344247 0.235298
0.885923 0.349156 0.244226
0.894332 0.360458 0.263365
0.106384 0.266440 0.000000
0.152691 0.265405 0.000000
0.277765 0.258445 0.000000
0.416486 0.258447 0.000000
0.540113 0.261679 0.000000
0.673385 0.282463 0.054817
0.798571 0.333460 0.155161
0.896764 0.389394 0.234826
0.906483 0.394724 0.257741
0.155118 0.412538 0.000000
0.177409 0.413854 0.000000
0.271919 0.403748 0.000000
0.419550 0.395348 0.000000
0.532246 0.396752 0.000000
0.653252 0.403822 0.000000
0.778072 0.420549 0.047331
0.872079 0.456018 0.164804
0.941027 0.494923 0.233044
0.195820 0.545222 0.000000
0.206218 0.545891 0.000000
0.306473 0.525057 0.000000
0.421540 0.520875 0.000000
0.539708 0.517064 0.000000
0.653478 0.520923 0.000000
0.768776 0.529647 0.000000
0.867942 0.547064 0.078793
0.935770 0.577724 0.179478
0.271411 0.703218 0.085082
0.272675 0.703045 0.084387
0.337946 0.668234 0.000000
0.436353 0.657395 0.000000
0.557799 0.647539 0.000000
0.670927 0.644435 0.000000
0.779846 0.650176 0.000000
0.875299 0.664854 0.025078
0.946005 0.690707 0.157419
0.382695 0.841343 0.224528
0.382400 0.841005 0.224196
0.424467 0.811247 0.180390
0.520472 0.790249 0.119236
0.592329 0.783702 0.110700
0.706473 0.778965 0.056426
0.812075 0.782080 0.074108
0.898208 0.794440 0.147706
0.964125 0.816104 0.230381
0.490030 0.954635 0.340878
0.489787 0.954403 0.340619
0.524547 0.938287 0.316750
0.602817 0.916544 0.276484
0.664778 0.909095 0.275514
0.772995 0.903192 0.251900
0.868443 0.904456 0.259123
0.943507 0.913092 0.297955
0.999881 0.928608 0.350865
0.548433 0.978315 0.410784
0.548312 0.978296 0.410640
0.579735 0.979966 0.404462
0.672324 0.985079 0.388760
0.751782 0.996349 0.401415
0.857481 0.999659 0.394256
0.941107 1.000000 0.403801
1.000000 1.000000 0.428288
1.000000 1.000000 0.518646
0.007716 0.007479 0.116911
0.149710 0.002945 0.099044
0.322893 0.002619 0.062044
0.469224 0.086631 0.059131
0.621546 0.177153 0.097804
0.805852 0.288341 0.183279
0.882145 0.344248 0.235298
0.885924 0.349156 0.244226
0.894332 0.360458 0.263366
0.006834 0.128780 0.096806
0.130436 0.120781 0.098347
0.309242 0.108706 0.060526
0.474238 0.124861 0.049427
0.638048 0.194162 0.101162
0.806626 0.289507 0.182871
0.882137 0.344237 0.235278
0.885912 0.349141 0.244198
0.894310 0.360428 0.263317
0.028120 0.275400 0.000000
0.120787 0.272237 0.000000
0.280295 0.258059 0.000000
0.426198 0.252259 0.000000
0.545952 0.255989 0.000000
0.673217 0.281396 0.055941
0.798816 0.332762 0.155824
0.897162 0.388934 0.235461
0.906030 0.393526 0.257894
0.131507 0.415979 0.000000
0.158740 0.416778 0.000000
0.265625 0.405369 0.000000
0.420125 0.394852 0.000000
0.532678 0.395653 0.000000
0.652889 0.402924 0.000000
0.777830 0.419760 0.047935
0.871965 0.455348 0.165115
0.940991 0.494340 0.233328
0.185902 0.546431 0.000000
0.197084 0.546838 0.000000
0.302231 0.525683 0.000000
0.420388 0.520639 0.000000
0.539167 0.516528 0.000000
0.653028 0.520375 0.000000
0.768483 0.529111 0.000000
0.867751 0.546533 0.078942
0.935644 0.577206 0.179575
0.270825 0.702775 0.086421
0.271681 0.702423 0.084762
0.336466 0.667948 0.000000
0.435335 0.656972 0.000000
0.557192 0.647063 0.000000
0.670458 0.643970 0.000000
0.779484 0.649695 0.000000
0.875075 0.664357 0.024349
0.945854 0.690214 0.157175
0.382413 0.841020 0.224212
0.382118 0.840682 0.223880
0.423329 0.811151 0.180572
0.519628 0.789984 0.119134
0.591667 0.783374 0.110419
0.705950 0.778604 0.055704
0.811700 0.781699 0.073224
0.897950 0.794049 0.147103
0.963943 0.815716 0.229930
0.489798 0.954414 0.340631
0.489555 0.954182 0.340371
0.523569 0.938299 0.316900
0.602135 0.916400 0.276391
0.664088 0.908875 0.275339
0.772456 0.902940 0.251573
0.868056 0.904191 0.258694
0.943239 0.912824 0.297521
0.999692 0.928348 0.350484
0.548318 0.978297 0.410647
0.548197 0.978278 0.410502
0.578648 0.979896 0.404502
0.671584 0.985031 0.388708
0.751128 0.996320 0.401348
0.857012 0.999646 0.394106
0.940784 1.000000 0.403595
1.000000 1.000000 0.428060
1.000000 1.000000 0.518418
0.006879 0.078048 0.197742
0.108999 0.011714 0.305981
0.315194 0.002584 0.255657
0.484429 0.002493 0.241990
0.633056 0.102418 0.246676
0.803429 0.238093 0.289350
0.894811 0.321590 0.317638
0.900169 0.335459 0.312353
0.903541 0.351692 0.309320
0.006831 0.120893 0.284382
0.123310 0.111964 0.282360
0.316749 0.081616 0.252531
0.496066 0.045079 0.240784
0.642819 0.124309 0.249553
0.802539 0.238497 0.287458
0.894620 0.322188 0.316316
0.899747 0.335846 0.310800
0.903088 0.352072 0.307462
0.007318 0.270086 0.228237
0.076011 0.270000 0.229720
0.266152 0.253570 0.228137
0.425349 0.243631 0.199808
0.553713 0.238506 0.181069
0.676186 0.262467 0.197677
0.798297 0.316049 0.238848
0.900732 0.377583 0.288704
0.910360 0.385368 0.295487
0.008755 0.419135 0.175946
0.070438 0.419642 0.173563
0.256181 0.403115 0.156422
0.417460 0.391071 0.143367
0.539547 0.385701 0.145051
0.658639 0.389265 0.139002
0.772830 0.410677 0.172490
0.869311 0.449312 0.223941
0.940972 0.490940 0.261120
0.111994 0.545905 0.164434
0.126774 0.546187 0.161599
0.261888 0.527888 0.126889
0.405513 0.520183 0.103742
0.543769 0.510214 0.047036
0.658054 0.510158 0.062911
0.768670 0.520544 0.108105
0.863889 0.542813 0.159668
0.934949 0.575144 0.199630
0.233516 0.693098 0.212112
0.233670 0.692559 0.209992
0.312550 0.660034 0.169220
0.444237 0.644566 0.116487
0.546011 0.640044 0.085651
0.667935 0.636833 0.025803
0.780122 0.643029 0.056660
0.872512 0.661080 0.112057
0.945469 0.688959 0.156564
0.353397 0.831509 0.293842
0.353571 0.831241 0.292269
0.401362 0.804173 0.257174
0.506452 0.783223 0.211719
0.584050 0.776870 0.201181
0.700688 0.773272 0.158947
0.808837 0.778014 0.140905
0.896940 0.792461 0.159503
0.963480 0.814727 0.228782
0.471723 0.950453 0.387772
0.471863 0.950275 0.386436
0.507713 0.935227 0.363410
0.592301 0.913072 0.322541
0.657932 0.905472 0.314799
0.768945 0.900284 0.282068
0.866600 0.902934 0.267481
0.942557 0.912139 0.296415
0.999211 0.927683 0.349511
0.541736 0.980113 0.440398
0.541858 0.980021 0.439085
0.570864 0.981188 0.430471
0.667129 0.985784 0.409166
0.748436 0.996505 0.412576
0.855813 0.999611 0.393725
0.939959 1.000000 0.403069
1.000000 1.000000 0.427477
1.000000 1.000000 0.517867
0.006838 0.126956 0.294656
0.044329 0.040679 0.417055
0.283109 0.009537 0.420466
0.480786 0.002494 0.416736
0.647885 0.002575 0.422988
0.830048 0.105052 0.434654
0.906988 0.226298 0.430202
0.948040 0.279630 0.440200
0.953814 0.295971 0.452143
0.006873 0.143101 0.320809
0.035816 0.104538 0.410776
0.275976 0.078605 0.414035
0.481056 0.033704 0.415711
0.654617 0.002582 0.425488
0.829977 0.105925 0.433932
0.906704 0.226880 0.429437
0.947682 0.280091 0.439401
0.953443 0.296389 0.451281
0.007467 0.264735 0.383400
0.069129 0.261702 0.389600
0.263329 0.245755 0.379496
0.431409 0.229352 0.360153
0.564230 0.215832 0.350645
0.693745 0.226012 0.352905
0.818540 0.274255 0.374570
0.925612 0.335102 0.411718
0.950078 0.339165 0.439160
0.008897 0.413728 0.360910
0.008924 0.415658 0.362411
0.234145 0.399441 0.355720
0.402243 0.386757 0.357512
0.534175 0.380353 0.336717
0.660872 0.378817 0.319813
0.779998 0.394107 0.331164
0.876925 0.430727 0.363727
0.951331 0.472767 0.401562
0.010878 0.545348 0.345974
0.021486 0.545350 0.344716
0.239495 0.525980 0.323792
0.403525 0.514587 0.317338
0.532699 0.507208 0.311432
0.646512 0.506691 0.316910
0.760872 0.515063 0.318199
0.860943 0.533347 0.336712
0.937999 0.562887 0.368682
0.162049 0.691489 0.365272
0.162084 0.691102 0.364225
0.272278 0.658259 0.333643
0.427206 0.640925 0.311061
0.549722 0.630967 0.296370
0.663592 0.628422 0.294094
0.771792 0.634724 0.309050
0.862609 0.652199 0.335845
0.932540 0.680689 0.373595
0.303566 0.823232 0.412634
0.303531 0.822912 0.411637
0.364930 0.799822 0.389110
0.483866 0.778468 0.358443
0.570979 0.770132 0.354011
0.691580 0.764674 0.336067
0.804686 0.766481 0.334288
0.889988 0.780914 0.356486
0.956830 0.804754 0.386201
0.434965 0.944435 0.485367
0.434892 0.944226 0.484547
0.473921 0.930857 0.468831
0.570321 0.907580 0.439748
0.667416 0.892981 0.417228
0.757158 0.891533 0.416533
0.857418 0.892870 0.411314
0.935943 0.902469 0.422618
0.994635 0.919668 0.444191
0.522639 0.986841 0.544882
0.522623 0.986776 0.543947
0.548455 0.987400 0.537141
0.651146 0.990476 0.516900
0.761582 0.993790 0.501973
0.844809 0.995490 0.503254
0.931865 0.994207 0.496495
0.996513 0.999397 0.502355
1.000000 1.000000 0.588506
0.006907 0.150576 0.347106
0.006898 0.120328 0.401503
0.228340 0.049516 0.492223
0.440723 0.028381 0.527596
0.611080 0.002574 0.540877
0.768425 0.002751 0.538838
0.906210 0.083589 0.540734
0.995300 0.196553 0.552938
1.000000 0.217425 0.578457
0.006918 0.153308 0.352225
0.006921 0.131182 0.404672
0.220735 0.076213 0.482824
0.431476 0.049108 0.515551
0.610686 0.002573 0.540470
0.768151 0.002750 0.538312
0.905982 0.083924 0.540127
0.995082 0.196995 0.552306
1.000000 0.217741 0.577742
0.007572 0.261539 0.454942
0.007571 0.256526 0.470902
0.220547 0.247310 0.500145
0.409972 0.225046 0.490624
0.553449 0.212345 0.481519
0.693418 0.205706 0.483273
0.837547 0.219549 0.494797
0.955934 0.266801 0.521849
0.997422 0.262374 0.564412
0.009095 0.409986 0.486586
0.009078 0.408485 0.487675
0.229841 0.393168 0.483112
0.401116 0.380684 0.478679
0.536613 0.371989 0.465369
0.663497 0.368517 0.452728
0.786588 0.378724 0.457310
0.888949 0.409858 0.476440
0.968834 0.450207 0.507802
0.011050 0.541055 0.480416
0.011040 0.540506 0.479885
0.219735 0.522688 0.466813
0.390241 0.511453 0.467589
0.521026 0.503806 0.471605
0.640789 0.502795 0.458009
0.760778 0.508227 0.449814
0.865830 0.522757 0.456163
0.944749 0.550057 0.481434
0.096536 0.676370 0.482576
0.096112 0.675921 0.481939
0.249959 0.654394 0.464459
0.414147 0.637297 0.453168
0.536509 0.627588 0.452297
0.651893 0.624404 0.453354
0.759406 0.630684 0.464773
0.852803 0.647340 0.475160
0.929463 0.672855 0.491551
0.256902 0.814689 0.518225
0.256684 0.814341 0.517512
0.328554 0.796937 0.500063
0.467283 0.774739 0.477699
0.581323 0.760911 0.464681
0.692214 0.756236 0.463529
0.795636 0.760302 0.471248
0.881339 0.774004 0.490737
0.948442 0.797390 0.516285
0.404545 0.938259 0.588845
0.404326 0.938027 0.588097
0.444325 0.927403 0.575247
0.549610 0.904388 0.545922
0.653769 0.888553 0.527624
0.762825 0.881494 0.520909
0.857342 0.883434 0.524042
0.932704 0.893611 0.538432
0.990216 0.911091 0.561803
0.509165 0.993825 0.666680
0.509076 0.993776 0.665945
0.527205 0.994033 0.660161
0.634882 0.996084 0.634339
0.748054 0.994558 0.615305
0.851111 0.986088 0.605721
0.933759 0.985147 0.606126
0.995932 0.990968 0.615152
1.000000 0.997343 0.736107
0.006980 0.164537 0.383220
0.006979 0.160506 0.392271
0.168189 0.073695 0.521833
0.364035 0.074063 0.572268
0.538754 0.068956 0.614493
0.716982 0.042180 0.641409
0.869740 0.065018 0.654220
0.990474 0.122980 0.671741
1.000000 0.208319 0.699136
0.006984 0.165234 0.384938
0.006981 0.162033 0.390713
0.166257 0.073690 0.521274
0.362978 0.073877 0.571749
0.538186 0.068801 0.614093
0.716595 0.041927 0.641015
0.869505 0.064731 0.653799
0.990371 0.122741 0.671298
1.000000 0.208128 0.698677
0.007541 0.245966 0.489370
0.007529 0.244334 0.488541
0.169712 0.220234 0.557180
0.362631 0.212219 0.575170
0.521435 0.208356 0.586391
0.677195 0.204350 0.600827
0.830623 0.198459 0.619474
0.967633 0.201289 0.649552
1.000000 0.210326 0.696696
0.009223 0.400335 0.582210
0.009209 0.399344 0.581606
0.228180 0.387329 0.591312
0.398946 0.376609 0.580576
0.531811 0.369161 0.572579
0.654302 0.367009 0.570032
0.782415 0.372940 0.574882
0.895895 0.393154 0.590826
0.985181 0.425339 0.620389
0.011140 0.529639 0.592672
0.011129 0.529070 0.592250
0.216441 0.518451 0.581488
0.389084 0.507506 0.578241
0.521844 0.500183 0.574263
0.642286 0.497695 0.565564
0.763856 0.501508 0.558499
0.869022 0.514999 0.567119
0.950581 0.540168 0.591481
0.088825 0.664500 0.597790
0.088229 0.664019 0.597317
0.239470 0.650029 0.583129
0.405024 0.633949 0.576084
0.528133 0.624401 0.576853
0.642111 0.621166 0.583319
0.754605 0.627279 0.578163
0.852523 0.642142 0.582787
0.930840 0.666580 0.599625
0.232814 0.805674 0.628791
0.232372 0.805314 0.628252
0.311104 0.792788 0.615771
0.460500 0.771188 0.594104
0.571372 0.758019 0.589066
0.681644 0.753352 0.592000
0.786123 0.756986 0.600130
0.871148 0.770793 0.619566
0.938127 0.794378 0.643075
0.386493 0.932117 0.693717
0.386133 0.931874 0.693161
0.420249 0.924851 0.684519
0.539990 0.901222 0.658849
0.647633 0.885126 0.641952
0.754152 0.878202 0.641514
0.847719 0.879963 0.649002
0.923599 0.889765 0.663877
0.981520 0.906960 0.687316
0.512428 0.998611 0.775024
0.512182 0.998594 0.774513
0.517892 0.998615 0.771920
0.629137 0.999546 0.745956
0.742012 0.991358 0.726503
0.843910 0.982800 0.718936
0.925433 0.981747 0.722766
0.987869 0.987417 0.732409
1.000000 0.996117 0.794079
0.007161 0.191638 0.442347
0.007161 0.191559 0.442166
0.127330 0.117139 0.571916
0.310599 0.114526 0.615262
0.475965 0.121110 0.667710
0.654152 0.116873 0.714986
0.826641 0.112799 0.746656
0.956782 0.153538 0.766941
1.000000 0.233765 0.789423
0.007161 0.191561 0.442169
0.007160 0.191479 0.442000
0.125235 0.117183 0.571539
0.309543 0.114365 0.614772
0.475368 0.120966 0.667352
0.653693 0.116733 0.714675
0.826362 0.112583 0.746369
0.956636 0.153312 0.766649
1.000000 0.233585 0.789132
0.007523 0.236358 0.508487
0.007512 0.235113 0.506857
0.120925 0.201558 0.592329
0.308136 0.198741 0.620741
0.467904 0.201109 0.655461
0.636100 0.202314 0.693571
0.808866 0.194994 0.728195
0.949665 0.187387 0.759236
1.000000 0.233084 0.788398
0.009126 0.378952 0.633466
0.009112 0.377908 0.632651
0.142904 0.370416 0.660910
0.336768 0.368085 0.673510
0.490720 0.362916 0.678541
0.630324 0.363921 0.677685
0.769837 0.374888 0.684142
0.887209 0.393458 0.699316
0.983922 0.417591 0.727926
0.011335 0.521811 0.694714
0.011324 0.521236 0.694340
0.218535 0.514276 0.690437
0.393133 0.505011 0.677519
0.523341 0.498717 0.671177
0.639853 0.497392 0.664847
0.758023 0.502153 0.663803
0.863249 0.515233 0.674230
0.948261 0.538136 0.695738
0.121806 0.654758 0.700836
0.121276 0.654265 0.700521
0.239120 0.645602 0.691322
0.407087 0.630813 0.681442
0.529765 0.621697 0.679078
0.644053 0.618973 0.678125
0.757602 0.623837 0.675540
0.856635 0.637854 0.679134
0.935266 0.662024 0.694343
0.250161 0.795982 0.724414
0.249660 0.795609 0.724048
0.309549 0.788227 0.716531
0.458284 0.768548 0.699068
0.567594 0.756076 0.695642
0.676547 0.751649 0.700416
0.779180 0.755394 0.712078
0.866790 0.769629 0.718361
0.937002 0.792394 0.734737
0.401289 0.924002 0.779489
0.400846 0.923751 0.779108
0.419234 0.920402 0.775244
0.540065 0.898442 0.751869
0.643976 0.883327 0.741322
0.748663 0.876692 0.743346
0.841317 0.878428 0.751755
0.917269 0.888051 0.765295
0.974567 0.905349 0.786946
0.535624 1.000000 0.852789
0.535358 1.000000 0.852459
0.534680 1.000000 0.851617
0.632931 1.000000 0.829442
0.740882 0.989288 0.813345
0.838679 0.981084 0.811917
0.919246 0.980049 0.816349
0.981570 0.985634 0.825443
1.000000 0.996513 0.842124
0.007406 0.218652 0.501485
0.007405 0.218595 0.501353
0.084450 0.157236 0.621522
0.272997 0.151305 0.652656
0.427484 0.159830 0.704329
0.594300 0.167998 0.759320
0.771637 0.171466 0.806029
0.918000 0.194300 0.835831
1.000000 0.255776 0.857976
0.007405 0.218596 0.501356
0.007405 0.218539 0.501224
0.081586 0.157317 0.621325
0.271967 0.151197 0.652249
0.426896 0.159704 0.704020
0.593796 0.167884 0.759052
0.771302 0.171323 0.805822
0.917829 0.194096 0.835652
1.000000 0.255385 0.857855
0.007701 0.247671 0.552239
0.007693 0.246898 0.551151
0.076923 0.204484 0.634857
0.267700 0.194641 0.654901
0.422248 0.201364 0.699998
0.587021 0.208036 0.751761
0.766728 0.197718 0.801038
0.917392 0.193575 0.835195
1.000000 0.254357 0.857553
0.008986 0.358347 0.660233
0.008973 0.357346 0.659320
0.092923 0.345608 0.695495
0.292637 0.341866 0.707642
0.443267 0.345526 0.728233
0.587819 0.356080 0.746773
0.740181 0.374321 0.765488
0.873653 0.394586 0.786995
0.973842 0.420805 0.812425
0.011306 0.505900 0.756373
0.011294 0.505280 0.755941
0.158222 0.503010 0.756242
0.348144 0.507308 0.761692
0.522393 0.498604 0.761936
0.635806 0.498676 0.755845
0.745452 0.504446 0.757403
0.855204 0.518707 0.761820
0.940893 0.542431 0.779040
0.167125 0.646990 0.783191
0.166620 0.646489 0.782987
0.241059 0.642312 0.778309
0.415392 0.628989 0.764903
0.535581 0.620954 0.758943
0.647065 0.619330 0.755487
0.757294 0.625255 0.753486
0.854397 0.640090 0.756882
0.932779 0.664486 0.769964
0.285190 0.787838 0.798202
0.284695 0.787455 0.797970
0.313890 0.784272 0.795100
0.464860 0.766740 0.779172
0.571936 0.755234 0.775123
0.679894 0.751332 0.777327
0.782489 0.755595 0.782137
0.871103 0.768945 0.788191
0.941626 0.791390 0.802021
0.432145 0.916483 0.840747
0.431702 0.916221 0.840491
0.430573 0.915555 0.839840
0.546398 0.896641 0.820399
0.647474 0.882656 0.813597
0.749907 0.876533 0.816149
0.840253 0.878508 0.825337
0.914115 0.888264 0.839927
0.971801 0.905997 0.853141
0.564766 1.000000 0.902424
0.564518 1.000000 0.902203
0.563887 1.000000 0.901639
0.642728 1.000000 0.885418
0.744919 0.988179 0.874885
0.839664 0.980474 0.874932
0.917940 0.979673 0.880376
0.978895 0.985311 0.889871
1.000000 0.996287 0.902728
0.007649 0.239650 0.552242
0.007649 0.239617 0.552145
0.021944 0.189143 0.661322
0.247416 0.181616 0.682897
0.394500 0.189458 0.729834
0.548361 0.202718 0.784432
0.721189 0.215818 0.838092
0.874019 0.239027 0.875379
0.983110 0.290169 0.899797
0.007649 0.239618 0.552147
0.007648 0.239581 0.552062
0.017343 0.189254 0.661253
0.246389 0.181554 0.682578
0.393935 0.189354 0.729572
0.547843 0.202612 0.784190
0.720811 0.215704 0.837917
0.873806 0.238863 0.875257
0.983012 0.289968 0.899696
0.007863 0.257434 0.587468
0.007855 0.256743 0.586281
0.014418 0.216564 0.672180
0.244983 0.204684 0.687423
0.392296 0.206753 0.729990
0.546130 0.207488 0.783245
0.719846 0.215412 0.837472
0.873261 0.238446 0.874944
0.982762 0.289458 0.899437
0.008851 0.341061 0.673187
0.008842 0.340330 0.672593
0.015260 0.325192 0.713494
0.258743 0.322821 0.723887
0.404218 0.330679 0.750544
0.545664 0.346195 0.781428
0.703497 0.368473 0.814495
0.847196 0.393719 0.843472
0.956848 0.423357 0.869759
0.011159 0.487407 0.791065
0.011147 0.486767 0.790569
0.108879 0.484291 0.790748
0.315950 0.483383 0.795133
0.456186 0.487855 0.808746
0.587664 0.492857 0.817489
0.722688 0.502154 0.819619
0.840764 0.520850 0.825250
0.932077 0.547609 0.839216
0.196679 0.638984 0.836414
0.196065 0.638448 0.836240
0.217172 0.636806 0.835152
0.422511 0.628256 0.832563
0.541091 0.621963 0.821614
0.650819 0.621700 0.814482
0.758289 0.628734 0.811614
0.852883 0.644490 0.815311
0.929488 0.669670 0.827741
0.328281 0.781770 0.851166
0.327809 0.781380 0.851028
0.326607 0.780388 0.850678
0.476272 0.766223 0.836293
0.580699 0.756037 0.831071
0.686897 0.753066 0.830626
0.787075 0.758259 0.832654
0.873157 0.772349 0.837954
0.942145 0.795235 0.850098
0.469432 0.910611 0.881919
0.469011 0.910342 0.881746
0.467939 0.909655 0.881304
0.557387 0.895961 0.867846
0.656628 0.883318 0.862631
0.756491 0.877924 0.864641
0.844819 0.880317 0.871723
0.918037 0.890316 0.881336
0.976342 0.907266 0.893081
0.595942 1.000000 0.925882
0.595701 1.000000 0.925881
0.595087 1.000000 0.925881
0.656669 1.000000 0.921310
0.754358 0.988101 0.914588
0.845439 0.981088 0.915550
0.920919 0.980646 0.921311
0.979812 0.986418 0.931203
1.000000 0.997402 0.944491
