tono/assets/cubes/pellicola_gold_33.cube
TITLE "Gold 200"
LUT_3D_SIZE 5
DOMAIN_MIN 0.0 0.0 0.0
DOMAIN_MAX 1.0 1.0 1.0
0.009724 0.005374 0.000000
0.298456 0.055544 0.000000
0.618768 0.179406 0.079535
0.882153 0.344258 0.235317
0.894354 0.360488 0.263414
0.106384 0.266440 0.000000
0.277765 0.258445 0.000000
0.540113 0.261679 0.000000
0.798571 0.333460 0.155161
0.906483 0.394724 0.257741
0.195820 0.545222 0.000000
0.306473 0.525057 0.000000
0.539708 0.517064 0.000000
0.768776 0.529647 0.000000
0.935770 0.577724 0.179478
0.382695 0.841343 0.224528
0.424467 0.811247 0.180390
0.592329 0.783702 0.110700
0.812075 0.782080 0.074108
0.964125 0.816104 0.230381
0.548433 0.978315 0.410784
0.579735 0.979966 0.404462
0.751782 0.996349 0.401415
0.941107 1.000000 0.403801
1.000000 1.000000 0.518646
0.006879 0.078048 0.197742
0.315194 0.002584 0.255657
0.633056 0.102418 0.246676
0.894811 0.321590 0.317638
0.903541 0.351692 0.309320
0.007318 0.270086 0.228237
0.266152 0.253570 0.228137
0.553713 0.238506 0.181069
0.798297 0.316049 0.238848
0.910360 0.385368 0.295487
0.111994 0.545905 0.164434
0.261888 0.527888 0.126889
0.543769 0.510214 0.047036
0.768670 0.520544 0.108105
0.934949 0.575144 0.199630
0.353397 0.831509 0.293842
0.401362 0.804173 0.257174
0.584050 0.776870 0.201181
0.808837 0.778014 0.140905
0.963480 0.814727 0.228782
0.541736 0.980113 0.440398
0.570864 0.981188 0.430471
0.748436 0.996505 0.412576
0.939959 1.000000 0.403069
1.000000 1.000000 0.517867
0.006907 0.150576 0.347106
0.228340 0.049516 0.492223
0.611080 0.002574 0.540877
0.906210 0.083589 0.540734
1.000000 0.217425 0.578457
0.007572 0.261539 0.454942
0.220547 0.247310 0.500145
0.553449 0.212345 0.481519
0.837547 0.219549 0.494797
0.997422 0.262374 0.564412
0.011050 0.541055 0.480416
0.219735 0.522688 0.466813
0.521026 0.503806 0.471605
0.760778 0.508227 0.449814
0.944749 0.550057 0.481434
0.256902 0.814689 0.518225
0.328554 0.796937 0.500063
0.581323 0.760911 0.464681
0.795636 0.760302 0.471248
0.948442 0.797390 0.516285
0.509165 0.993825 0.666680
0.527205 0.994033 0.660161
0.748054 0.994558 0.615305
0.933759 0.985147 0.606126
1.000000 0.997343 0.736107
0.007161 0.191638 0.442347
0.127330 0.117139 0.571916
0.475965 0.121110 0.667710
0.826641 0.112799 0.746656
1.000000 0.233765 0.789423
0.007523 0.236358 0.508487
0.120925 0.201558 0.592329
0.467904 0.201109 0.655461
0.808866 0.194994 0.728195
1.000000 0.233084 0.788398
0.011335 0.521811 0.694714
0.218535 0.514276 0.690437
0.523341 0.498717 0.671177
0.758023 0.502153 0.663803
0.948261 0.538136 0.695738
0.250161 0.795982 0.724414
0.309549 0.788227 0.716531
0.567594 0.756076 0.695642
0.779180 0.755394 0.712078
0.937002 0.792394 0.734737
0.535624 1.000000 0.852789
0.534680 1.000000 0.851617
0.740882 0.989288 0.813345
0.919246 0.980049 0.816349
1.000000 0.996513 0.842124
0.007649 0.239650 0.552242
0.021944 0.189143 0.661322
0.394500 0.189458 0.729834
0.721189 0.215818 0.838092
0.983110 0.290169 0.899797
0.007863 0.257434 0.587468
0.014418 0.216564 0.672180
0.392296 0.206753 0.729990
0.719846 0.215412 0.837472
0.982762 0.289458 0.899437
0.011159 0.487407 0.791065
0.108879 0.484291 0.790748
0.456186 0.487855 0.808746
0.722688 0.502154 0.819619
0.932077 0.547609 0.839216
0.328281 0.781770 0.851166
0.326607 0.780388 0.850678
0.580699 0.756037 0.831071
0.787075 0.758259 0.832654
0.942145 0.795235 0.850098
0.595942 1.000000 0.925882
0.595087 1.000000 0.925881
0.754358 0.988101 0.914588
0.920919 0.980646 0.921311
1.000000 0.997402 0.944491
