tono/assets/cubes/pellicola_gold_33.cube
TITLE "Gold 200"
LUT_3D_SIZE 33
DOMAIN_MIN 0.0 0.0 0.0
DOMAIN_MAX 1.0 1.0 1.0
0.009724 0.005374 0.000000
0.037318 0.005852 0.000000
0.066680 0.006794 0.000000
0.098985 0.009311 0.000000
0.134007 0.015214 0.000000
0.172278 0.023500 0.000000
0.212298 0.034329 0.000000
0.254881 0.045154 0.000000
0.298456 0.055544 0.000000
0.342166 0.065428 0.000000
0.385378 0.074738 0.000000
0.427380 0.083405 0.000000
0.462990 0.099685 0.000000
0.496576 0.116560 0.014010
0.533569 0.135792 0.034897
0.574563 0.156676 0.056972
0.618768 0.179406 0.079535
0.665255 0.204056 0.103205
0.713224 0.230188 0.127740
0.761582 0.257415 0.152943
0.806097 0.288781 0.182325
0.848578 0.319159 0.210463
0.880720 0.342423 0.231867
0.881332 0.343199 0.233355
0.882153 0.344258 0.235317
0.882891 0.345214 0.237068
0.883699 0.346257 0.238992
0.884700 0.347557 0.241358
0.885935 0.349172 0.244253
0.887458 0.351178 0.247789
0.889327 0.353664 0.252082
0.891604 0.356731 0.257251
0.894354 0.360488 0.263414
0.013253 0.032551 0.000000
0.040701 0.031804 0.000000
0.075294 0.029891 0.000000
0.111276 0.030579 0.000000
0.147476 0.033025 0.000000
0.182714 0.038623 0.000000
0.219768 0.046259 0.000000
0.259322 0.053178 0.000000
0.300412 0.059266 0.000000
0.341902 0.065365 0.000000
0.385148 0.074689 0.000000
0.427184 0.083361 0.000000
0.462844 0.099613 0.000000
0.496438 0.116490 0.013941
0.533430 0.135719 0.034814
0.574423 0.156605 0.056900
0.618631 0.179334 0.079465
0.665122 0.203984 0.103138
0.713098 0.230118 0.127676
0.761472 0.257338 0.152870
0.805997 0.288710 0.182259
0.848490 0.319096 0.210405
0.880720 0.342423 0.231867
0.881330 0.343197 0.233351
0.882152 0.344256 0.235314
0.882889 0.345212 0.237065
0.883697 0.346255 0.238988
0.884698 0.347555 0.241354
0.885933 0.349169 0.244249
0.887456 0.351175 0.247784
0.889324 0.353661 0.252075
0.891600 0.356726 0.257244
0.894350 0.360483 0.263406
0.020296 0.060998 0.000000
0.041695 0.061713 0.000000
0.071162 0.060469 0.000000
0.113488 0.057373 0.000000
0.155192 0.057756 0.000000
0.194805 0.061431 0.000000
0.234261 0.067242 0.000000
0.272289 0.073323 0.000000
0.312289 0.078230 0.000000
0.352656 0.082908 0.000000
0.392746 0.087333 0.000000
0.431864 0.091434 0.000000
0.464910 0.103089 0.000000
0.496283 0.116411 0.013864
0.533273 0.135636 0.034721
0.574264 0.156525 0.056818
0.618475 0.179252 0.079385
0.664972 0.203904 0.103061
0.712955 0.230039 0.127602
0.761348 0.257251 0.152788
0.805885 0.288630 0.182185
0.848391 0.319025 0.210339
0.880720 0.342423 0.231867
0.881329 0.343195 0.233347
0.882150 0.344254 0.235310
0.882888 0.345210 0.237062
0.883696 0.346253 0.238985
0.884697 0.347552 0.241350
0.885931 0.349166 0.244243
0.887453 0.351171 0.247777
0.889321 0.353656 0.252068
0.891597 0.356721 0.257235
0.894346 0.360477 0.263396
0.030823 0.091861 0.000000
0.048827 0.092788 0.000000
0.070540 0.092961 0.000000
0.102959 0.090838 0.000000
0.145468 0.087998 0.000000
0.187898 0.087628 0.000000
0.230253 0.089785 0.000000
0.273210 0.094095 0.000000
0.318652 0.098046 0.000000
0.365391 0.101886 0.000000
0.406147 0.105798 0.000000
0.444052 0.109465 0.000000
0.475926 0.119644 0.000000
0.507397 0.131728 0.015309
0.542153 0.146566 0.036782
0.580304 0.163283 0.058536
0.621276 0.182156 0.080247
0.664756 0.203788 0.102951
0.712750 0.229926 0.127497
0.761170 0.257127 0.152671
0.805723 0.288515 0.182078
0.848249 0.318922 0.210244
0.880720 0.342423 0.231867
0.881326 0.343192 0.233341
0.882148 0.344251 0.235305
0.882886 0.345208 0.237057
0.883693 0.346250 0.238979
0.884694 0.347549 0.241343
0.885928 0.349162 0.244236
0.887449 0.351166 0.247768
0.889316 0.353650 0.252058
0.891592 0.356714 0.257224
0.894340 0.360469 0.263383
0.045599 0.124371 0.000000
0.060057 0.125053 0.000000
0.077246 0.125819 0.000000
0.101324 0.124975 0.000000
0.135944 0.122690 0.000000
0.174573 0.120961 0.000000
0.214590 0.120379 0.000000
0.255079 0.121302 0.000000
0.295903 0.123747 0.000000
0.338079 0.126389 0.000000
0.381422 0.128565 0.000000
0.424761 0.130702 0.000000
0.466807 0.133327 0.000000
0.502990 0.143342 0.006592
0.543433 0.157655 0.031549
0.588760 0.176080 0.059397
0.637355 0.197247 0.085610
0.680325 0.217788 0.108412
0.724359 0.240011 0.131731
0.767914 0.264018 0.156253
0.808429 0.291241 0.183552
0.848057 0.318785 0.210117
0.880720 0.342423 0.231867
0.881323 0.343188 0.233334
0.882145 0.344247 0.235298
0.882883 0.345204 0.237051
0.883690 0.346246 0.238971
0.884690 0.347544 0.241334
0.885923 0.349156 0.244226
0.887444 0.351159 0.247757
0.889310 0.353642 0.252044
0.891585 0.356705 0.257208
0.894332 0.360458 0.263365
0.063069 0.158203 0.000000
0.073163 0.158664 0.000000
0.087567 0.159580 0.000000
0.106782 0.159259 0.000000
0.135813 0.157319 0.000000
0.170248 0.155629 0.000000
0.207603 0.154374 0.000000
0.246128 0.153856 0.000000
0.284870 0.154334 0.000000
0.323401 0.155876 0.000000
0.362117 0.157748 0.000000
0.401053 0.159179 0.000000
0.438974 0.160562 0.000000
0.475193 0.161748 0.000000
0.507749 0.166317 0.000000
0.541594 0.175456 0.017808
0.578209 0.187690 0.043962
0.617612 0.202340 0.068461
0.659322 0.219044 0.091783
0.702188 0.237977 0.115377
0.745429 0.258529 0.139006
0.785870 0.282720 0.165582
0.824097 0.307603 0.191818
0.858037 0.329870 0.216311
0.882775 0.345926 0.235102
0.882880 0.345200 0.237043
0.883686 0.346241 0.238962
0.884685 0.347538 0.241323
0.885918 0.349149 0.244212
0.887437 0.351151 0.247741
0.889303 0.353632 0.252027
0.891576 0.356693 0.257188
0.894322 0.360444 0.263342
0.079584 0.193280 0.000000
0.086979 0.193452 0.000000
0.100104 0.194166 0.000000
0.115450 0.194438 0.000000
0.140330 0.192426 0.000000
0.171004 0.190751 0.000000
0.205524 0.189407 0.000000
0.242187 0.188431 0.000000
0.279651 0.187998 0.000000
0.317046 0.188274 0.000000
0.353864 0.189321 0.000000
0.390288 0.190623 0.000000
0.426255 0.191649 0.000000
0.460775 0.192630 0.000000
0.493301 0.193462 0.000000
0.526195 0.195477 0.000000
0.558412 0.202699 0.011781
0.592466 0.212381 0.038240
0.627989 0.224465 0.064008
0.665500 0.237673 0.086222
0.703652 0.252707 0.108207
0.741917 0.269180 0.129939
0.777617 0.289057 0.154592
0.810639 0.308839 0.179156
0.841060 0.327439 0.202413
0.869563 0.345329 0.223837
0.887500 0.356268 0.237997
0.887188 0.354272 0.240535
0.886830 0.351690 0.243829
0.887429 0.351140 0.247723
0.889293 0.353620 0.252005
0.891565 0.356678 0.257163
0.894309 0.360426 0.263314
0.093150 0.229603 0.000000
0.097878 0.229636 0.000000
0.110163 0.230229 0.000000
0.123752 0.230982 0.000000
0.147268 0.228278 0.000000
0.175232 0.226271 0.000000
0.206913 0.224866 0.000000
0.241462 0.223767 0.000000
0.277501 0.222998 0.000000
0.313946 0.222660 0.000000
0.350028 0.222854 0.000000
0.385218 0.223624 0.000000
0.419649 0.224528 0.000000
0.452991 0.225340 0.000000
0.484540 0.226130 0.000000
0.515333 0.226952 0.000000
0.549024 0.228113 0.000000
0.581652 0.233427 0.004836
0.614601 0.241668 0.032812
0.648449 0.251959 0.060292
0.683424 0.263553 0.083798
0.719009 0.276344 0.105423
0.753454 0.291486 0.128348
0.785168 0.308489 0.153209
0.814736 0.324939 0.177099
0.843041 0.341430 0.199256
0.869558 0.357440 0.219597
0.892254 0.371550 0.237249
0.894666 0.372261 0.241576
0.894887 0.371261 0.245167
0.895169 0.369882 0.249742
0.895442 0.367752 0.255504
0.895595 0.364285 0.262644
0.106384 0.266440 0.000000
0.108753 0.266349 0.000000
0.119992 0.266893 0.000000
0.132364 0.267630 0.000000
0.152691 0.265405 0.000000
0.180184 0.262566 0.000000
0.210943 0.260560 0.000000
0.243380 0.259340 0.000000
0.277765 0.258445 0.000000
0.313063 0.257855 0.000000
0.348375 0.257625 0.000000
0.383019 0.257814 0.000000
0.416486 0.258447 0.000000
0.448924 0.259102 0.000000
0.479711 0.259826 0.000000
0.508902 0.260604 0.000000
0.540113 0.261679 0.000000
0.573863 0.263094 0.000000
0.608352 0.266128 0.000000
0.640649 0.273404 0.024059
0.673385 0.282463 0.054817
0.706501 0.292962 0.080587
0.739402 0.304992 0.104371
0.770017 0.319332 0.130197
0.798571 0.333460 0.155161
0.826132 0.348051 0.178142
0.852352 0.362735 0.199196
0.875778 0.376559 0.217846
0.896764 0.389394 0.234826
0.903694 0.393674 0.242383
0.904443 0.394060 0.246392
0.905365 0.394433 0.251446
0.906483 0.394724 0.257741
0.119255 0.303486 0.000000
0.119518 0.303276 0.000000
0.129702 0.303785 0.000000
0.141172 0.304484 0.000000
0.158320 0.303024 0.000000
0.184792 0.299413 0.000000
0.214432 0.296991 0.000000
0.246520 0.295193 0.000000
0.280091 0.293910 0.000000
0.314139 0.293174 0.000000
0.348495 0.292754 0.000000
0.382481 0.292648 0.000000
0.415495 0.292888 0.000000
0.447220 0.293384 0.000000
0.477379 0.294016 0.000000
0.505668 0.294756 0.000000
0.535073 0.295773 0.000000
0.566821 0.297149 0.000000
0.600599 0.298869 0.000000
0.636079 0.300912 0.000000
0.668945 0.306638 0.010491
0.700802 0.314782 0.045479
0.731175 0.325552 0.078773
0.760953 0.337541 0.106939
0.788677 0.349420 0.133737
0.815471 0.362022 0.157991
0.841156 0.375106 0.179940
0.865053 0.388125 0.199825
0.885914 0.400362 0.217210
0.905363 0.412177 0.233690
0.914029 0.418045 0.242772
0.915274 0.419730 0.247307
0.916738 0.421596 0.252967
0.131700 0.340422 0.000000
0.131637 0.340213 0.000000
0.139215 0.340575 0.000000
0.150010 0.341247 0.000000
0.164093 0.340798 0.000000
0.189740 0.336222 0.000000
0.199534 0.337528 0.000000
0.237007 0.334566 0.000000
0.282611 0.329600 0.000000
0.316285 0.328471 0.000000
0.350070 0.327766 0.000000
0.383405 0.327452 0.000000
0.415873 0.327470 0.000000
0.447105 0.327764 0.000000
0.476761 0.328274 0.000000
0.504497 0.328955 0.000000
0.532541 0.329911 0.000000
0.562768 0.331240 0.000000
0.594878 0.332932 0.000000
0.628557 0.334975 0.000000
0.663479 0.337361 0.000000
0.698073 0.341045 0.000000
0.727285 0.349997 0.042545
0.755871 0.360424 0.079908
0.782658 0.370545 0.111248
0.808872 0.381220 0.137393
0.834067 0.392648 0.160573
0.857946 0.404432 0.181646
0.878983 0.415929 0.199967
0.898283 0.427176 0.216882
0.916356 0.438181 0.233038
0.925231 0.444652 0.242741
0.926899 0.447526 0.247945
0.143680 0.376898 0.000000
0.143621 0.376716 0.000000
0.148551 0.376912 0.000000
0.158781 0.377558 0.000000
0.170098 0.378244 0.000000
0.194860 0.372650 0.000000
0.222766 0.369306 0.000000
0.235198 0.371074 0.000000
0.273358 0.368312 0.000000
0.311041 0.366004 0.000000
0.352283 0.362519 0.000000
0.385237 0.361950 0.000000
0.417312 0.361743 0.000000
0.448135 0.361850 0.000000
0.477377 0.362221 0.000000
0.504723 0.362817 0.000000
0.531754 0.363689 0.000000
0.560803 0.364952 0.000000
0.591599 0.366593 0.000000
0.623845 0.368605 0.000000
0.657226 0.370986 0.000000
0.691347 0.373803 0.000000
0.725102 0.377617 0.000000
0.753458 0.386014 0.042379
0.779592 0.394598 0.083628
0.804735 0.404040 0.115613
0.829593 0.413861 0.140443
0.853172 0.424247 0.162682
0.874812 0.434856 0.182637
0.893811 0.445332 0.200049
0.911721 0.455783 0.216677
0.928553 0.466123 0.232701
0.936744 0.472701 0.242577
0.155118 0.412538 0.000000
0.155071 0.412378 0.000000
0.157618 0.412415 0.000000
0.167355 0.413040 0.000000
0.177409 0.413854 0.000000
0.200043 0.408311 0.000000
0.227297 0.404470 0.000000
0.257337 0.401642 0.000000
0.271919 0.403748 0.000000
0.310167 0.401200 0.000000
0.347370 0.399104 0.000000
0.383125 0.397476 0.000000
0.419550 0.395348 0.000000
0.450044 0.395271 0.000000
0.478942 0.395493 0.000000
0.505953 0.395977 0.000000
0.532246 0.396752 0.000000
0.560373 0.397926 0.000000
0.590128 0.399488 0.000000
0.621195 0.401447 0.000000
0.653252 0.403822 0.000000
0.686046 0.406588 0.000000
0.719287 0.409745 0.000000
0.752147 0.413650 0.000000
0.778072 0.420549 0.047331
0.802980 0.428425 0.087658
0.826902 0.437280 0.118363
0.850010 0.446503 0.143092
0.872079 0.456018 0.164804
0.891079 0.465658 0.183192
0.908709 0.475391 0.200372
0.925348 0.485167 0.216925
0.941027 0.494923 0.233044
0.165933 0.446927 0.000000
0.165887 0.446790 0.000000
0.166300 0.446673 0.000000
0.175581 0.447270 0.000000
0.184719 0.448045 0.000000
0.205196 0.442778 0.000000
0.231922 0.438450 0.000000
0.261520 0.435319 0.000000
0.270388 0.437997 0.000000
0.309315 0.435246 0.000000
0.347087 0.432936 0.000000
0.383326 0.431074 0.000000
0.417718 0.429673 0.000000
0.450006 0.428748 0.000000
0.479989 0.428302 0.000000
0.507510 0.428316 0.000000
0.533655 0.428794 0.000000
0.561146 0.429818 0.000000
0.590038 0.431295 0.000000
0.620134 0.433174 0.000000
0.651155 0.435452 0.000000
0.682832 0.438123 0.000000
0.714893 0.441188 0.000000
0.747028 0.444525 0.000000
0.777115 0.447473 0.000000
0.801950 0.454011 0.053525
0.825755 0.461521 0.091199
0.848305 0.469751 0.120852
0.869665 0.478477 0.146233
0.889427 0.487225 0.166641
0.906713 0.496161 0.184495
0.923054 0.505238 0.201675
0.938490 0.514396 0.218406
0.176031 0.479609 0.000000
0.175991 0.479491 0.000000
0.175954 0.479355 0.000000
0.183158 0.479795 0.000000
0.191680 0.480528 0.000000
0.210231 0.475573 0.000000
0.236552 0.470816 0.000000
0.265838 0.467435 0.000000
0.297214 0.464771 0.000000
0.308584 0.467746 0.000000
0.346998 0.465267 0.000000
0.383755 0.463220 0.000000
0.418561 0.461615 0.000000
0.451182 0.460460 0.000000
0.481427 0.459758 0.000000
0.509147 0.459501 0.000000
0.535329 0.459691 0.000000
0.562706 0.460400 0.000000
0.591124 0.461661 0.000000
0.620454 0.463414 0.000000
0.650612 0.465563 0.000000
0.681341 0.468102 0.000000
0.712388 0.471026 0.000000
0.743268 0.473897 0.000000
0.773425 0.476019 0.000000
0.801303 0.479783 0.006202
0.825015 0.486144 0.059667
0.847442 0.493228 0.095581
0.868590 0.500890 0.124594
0.888499 0.508999 0.149793
0.905351 0.517271 0.169636
0.921319 0.525580 0.187577
0.936412 0.534026 0.205033
0.185579 0.511054 0.000000
0.185556 0.510940 0.000000
0.185510 0.510815 0.000000
0.190218 0.511084 0.000000
0.198488 0.511837 0.000000
0.215231 0.506706 0.000000
0.241165 0.501282 0.000000
0.270223 0.497599 0.000000
0.301519 0.494750 0.000000
0.308096 0.498297 0.000000
0.347232 0.495697 0.000000
0.384550 0.493514 0.000000
0.419777 0.491756 0.000000
0.452707 0.490425 0.000000
0.483166 0.489527 0.000000
0.511024 0.489056 0.000000
0.537281 0.489014 0.000000
0.564656 0.489450 0.000000
0.592978 0.490394 0.000000
0.621958 0.491871 0.000000
0.651411 0.493857 0.000000
0.681335 0.496228 0.000000
0.711501 0.498973 0.000000
0.741109 0.501184 0.000000
0.770265 0.503241 0.000000
0.799191 0.505794 0.000000
0.824557 0.510268 0.019429
0.846849 0.516359 0.068348
0.867853 0.523080 0.102503
0.887620 0.530340 0.130637
0.905177 0.538079 0.154021
0.920520 0.546204 0.173996
0.935125 0.554644 0.192978
0.195820 0.545222 0.000000
0.195782 0.545110 0.000000
0.195750 0.544981 0.000000
0.198136 0.545071 0.000000
0.206218 0.545891 0.000000
0.221265 0.540004 0.000000
0.246587 0.533225 0.000000
0.275322 0.528645 0.000000
0.306473 0.525057 0.000000
0.338866 0.522184 0.000000
0.347950 0.525574 0.000000
0.385872 0.522984 0.000000
0.421540 0.520875 0.000000
0.454764 0.519239 0.000000
0.485400 0.518065 0.000000
0.513338 0.517342 0.000000
0.539708 0.517064 0.000000
0.567151 0.517259 0.000000
0.595451 0.517952 0.000000
0.624312 0.519167 0.000000
0.653478 0.520923 0.000000
0.682765 0.523212 0.000000
0.711968 0.525634 0.000000
0.740428 0.527411 0.000000
0.768776 0.529647 0.000000
0.796839 0.532358 0.000000
0.824297 0.535418 0.000000
0.846983 0.540805 0.035917
0.867942 0.547064 0.078793
0.887663 0.553908 0.110917
0.906219 0.561269 0.138049
0.921394 0.569303 0.159426
0.935770 0.577724 0.179478
0.206768 0.582327 0.000000
0.206730 0.582215 0.000000
0.206698 0.582087 0.000000
0.207050 0.581957 0.000000
0.214904 0.582837 0.000000
0.228559 0.575944 0.000000
0.253149 0.567804 0.000000
0.281556 0.562288 0.000000
0.312572 0.557921 0.000000
0.344928 0.554366 0.000000
0.349259 0.557877 0.000000
0.387868 0.554761 0.000000
0.424014 0.552187 0.000000
0.457545 0.550138 0.000000
0.488348 0.548598 0.000000
0.516333 0.547555 0.000000
0.542895 0.546998 0.000000
0.570499 0.546940 0.000000
0.598867 0.547401 0.000000
0.627699 0.548397 0.000000
0.656742 0.549947 0.000000
0.685777 0.552061 0.000000
0.713696 0.553520 0.000000
0.741443 0.555380 0.000000
0.769064 0.557798 0.000000
0.796371 0.560646 0.000000
0.823073 0.563855 0.000000
0.847985 0.567843 0.000000
0.868925 0.573685 0.052790
0.888608 0.580150 0.090860
0.907115 0.587180 0.121186
0.923281 0.594925 0.145963
0.937365 0.603319 0.167331
0.218302 0.622006 0.000000
0.218263 0.621895 0.000000
0.218233 0.621768 0.000000
0.218184 0.621587 0.000000
0.224272 0.622312 0.000000
0.237041 0.614024 0.000000
0.260865 0.604612 0.000000
0.288936 0.598161 0.000000
0.319834 0.592996 0.000000
0.352174 0.588732 0.000000
0.384830 0.585217 0.000000
0.390598 0.588676 0.000000
0.427259 0.585606 0.000000
0.461109 0.583114 0.000000
0.492055 0.581185 0.000000
0.520048 0.579800 0.000000
0.546915 0.578945 0.000000
0.574773 0.578621 0.000000
0.603287 0.578838 0.000000
0.632165 0.579610 0.000000
0.661152 0.580952 0.000000
0.689112 0.581721 0.000000
0.716756 0.582968 0.000000
0.744115 0.584927 0.000000
0.771090 0.587439 0.000000
0.797716 0.590366 0.000000
0.823707 0.593677 0.000000
0.848884 0.597344 0.000000
0.870532 0.602519 0.027558
0.890196 0.608630 0.073093
0.908658 0.615344 0.106761
0.925750 0.622727 0.136514
0.938861 0.631373 0.162305
0.241637 0.662238 0.030551
0.241564 0.662135 0.030380
0.241481 0.662019 0.030185
0.241361 0.661852 0.029905
0.244866 0.662360 0.029013
0.251240 0.652989 0.004543
0.269659 0.643216 0.000000
0.297470 0.635861 0.000000
0.328294 0.629901 0.000000
0.360648 0.624919 0.000000
0.393318 0.620754 0.000000
0.394146 0.624383 0.000000
0.431345 0.620793 0.000000
0.465503 0.617836 0.000000
0.496564 0.615494 0.000000
0.524526 0.613747 0.000000
0.551847 0.612572 0.000000
0.580046 0.611962 0.000000
0.608782 0.611923 0.000000
0.637483 0.612136 0.000000
0.665526 0.612144 0.000000
0.693385 0.612721 0.000000
0.720988 0.613987 0.000000
0.748164 0.615855 0.000000
0.774802 0.618278 0.000000
0.800823 0.621218 0.000000
0.826155 0.624578 0.000000
0.850654 0.628322 0.000000
0.872561 0.633113 0.015303
0.892215 0.638900 0.063845
0.910551 0.645344 0.099627
0.927606 0.652438 0.130622
0.942003 0.660522 0.157373
0.271411 0.703218 0.085082
0.271338 0.703119 0.084970
0.271255 0.703006 0.084843
0.271137 0.702846 0.084660
0.272675 0.703045 0.084387
0.276520 0.691443 0.065665
0.290356 0.681258 0.041137
0.311401 0.674115 0.010425
0.337946 0.668234 0.000000
0.370357 0.662546 0.000000
0.403070 0.657728 0.000000
0.435130 0.653691 0.000000
0.436353 0.657395 0.000000
0.470792 0.653957 0.000000
0.501918 0.651186 0.000000
0.529911 0.649056 0.000000
0.557799 0.647539 0.000000
0.586264 0.646450 0.000000
0.614474 0.645238 0.000000
0.642710 0.644498 0.000000
0.670927 0.644435 0.000000
0.698893 0.645004 0.000000
0.726444 0.646168 0.000000
0.753461 0.647899 0.000000
0.779846 0.650176 0.000000
0.805530 0.652976 0.000000
0.830361 0.656274 0.000000
0.854233 0.660035 0.000000
0.875299 0.664854 0.025078
0.894697 0.670428 0.069609
0.912983 0.676581 0.102514
0.930167 0.683313 0.130917
0.946005 0.690707 0.157419
0.302747 0.745054 0.128814
0.302675 0.744959 0.128722
0.302594 0.744853 0.128617
0.302478 0.744700 0.128467
0.302567 0.744567 0.128279
0.303702 0.730225 0.110032
0.315094 0.719609 0.091594
0.333747 0.711908 0.071872
0.357452 0.705646 0.047522
0.384548 0.700383 0.013337
0.414091 0.695754 0.000000
0.446118 0.691128 0.000000
0.444635 0.694291 0.014955
0.477034 0.691121 0.000000
0.508022 0.687778 0.000000
0.535638 0.684651 0.000000
0.563494 0.682045 0.000000
0.591874 0.680006 0.000000
0.620549 0.678623 0.000000
0.649220 0.677864 0.000000
0.677661 0.677710 0.000000
0.705697 0.678146 0.000000
0.733193 0.679155 0.000000
0.760050 0.680723 0.000000
0.786185 0.682836 0.000000
0.811554 0.685476 0.000000
0.836019 0.688625 0.000000
0.859037 0.692379 0.000000
0.879327 0.697128 0.046307
0.898348 0.702517 0.084744
0.916247 0.708489 0.115616
0.933099 0.715023 0.142763
0.948970 0.722102 0.167753
0.333338 0.784227 0.166692
0.333288 0.784169 0.166631
0.333232 0.784104 0.166561
0.333151 0.784011 0.166461
0.333043 0.783886 0.166326
0.331477 0.768202 0.148826
0.341084 0.757400 0.132977
0.357680 0.749227 0.116908
0.379299 0.742428 0.099001
0.404368 0.736592 0.078248
0.431453 0.731509 0.053294
0.459303 0.727038 0.020806
0.486890 0.723079 0.000000
0.486695 0.725103 0.057305
0.514680 0.721883 0.026558
0.541262 0.719116 0.000000
0.569671 0.716517 0.000000
0.598842 0.714360 0.000000
0.628067 0.712823 0.000000
0.657101 0.711892 0.000000
0.685745 0.711556 0.000000
0.713847 0.711805 0.000000
0.741289 0.712627 0.000000
0.767988 0.714010 0.000000
0.793879 0.715941 0.000000
0.818930 0.718404 0.000000
0.842821 0.721422 0.000000
0.864325 0.725234 0.037138
0.884430 0.729708 0.075821
0.903231 0.734820 0.107138
0.920825 0.740544 0.134780
0.937310 0.746853 0.160212
0.952805 0.753710 0.184185
0.356889 0.811423 0.195077
0.356839 0.811365 0.195020
0.356783 0.811299 0.194954
0.356703 0.811205 0.194861
0.356595 0.811079 0.194735
0.356913 0.802775 0.185666
0.365618 0.792153 0.171553
0.380804 0.783812 0.157488
0.400870 0.776771 0.142431
0.424379 0.770682 0.125984
0.449955 0.765366 0.107957
0.476373 0.760704 0.088225
0.502608 0.756612 0.066616
0.499137 0.758745 0.112048
0.525719 0.755470 0.093188
0.551883 0.752679 0.073365
0.579505 0.750387 0.050817
0.608081 0.748561 0.024380
0.637150 0.747184 0.000000
0.666332 0.746216 0.000000
0.695201 0.745653 0.000000
0.723385 0.745683 0.000000
0.750784 0.746292 0.000000
0.777331 0.747469 0.000000
0.802832 0.749193 0.000000
0.826897 0.751506 0.019901
0.849583 0.754455 0.053961
0.870809 0.758045 0.083478
0.890645 0.762267 0.110442
0.909178 0.767107 0.135688
0.926503 0.772543 0.159694
0.942716 0.778551 0.182778
0.957913 0.785108 0.205177
0.382695 0.841343 0.224528
0.382646 0.841286 0.224472
0.382589 0.841221 0.224409
0.382508 0.841129 0.224318
0.382400 0.841005 0.224196
0.383096 0.837126 0.219944
0.391531 0.826835 0.206889
0.405691 0.818447 0.193949
0.424467 0.811247 0.180390
0.446574 0.804956 0.166023
0.470711 0.799423 0.150890
0.495681 0.794546 0.135188
0.520472 0.790249 0.119236
0.513864 0.792366 0.155972
0.539035 0.788946 0.141252
0.564977 0.786062 0.126235
0.592329 0.783702 0.110700
0.620586 0.781826 0.095092
0.649290 0.780412 0.080103
0.678035 0.779455 0.066755
0.706473 0.778965 0.056426
0.734314 0.778958 0.050816
0.761315 0.779452 0.052335
0.787274 0.780480 0.061032
0.812075 0.782080 0.074108
0.835669 0.784271 0.089448
0.857919 0.787058 0.107608
0.878745 0.790449 0.127293
0.898208 0.794440 0.147706
0.916385 0.799020 0.168399
0.933368 0.804171 0.189138
0.949250 0.809874 0.209812
0.964125 0.816104 0.230381
0.409442 0.871432 0.254137
0.409394 0.871379 0.254084
0.409339 0.871319 0.254025
0.409261 0.871232 0.253939
0.409156 0.871116 0.253824
0.409229 0.870441 0.253088
0.417796 0.860625 0.240884
0.431358 0.852333 0.228753
0.449162 0.845082 0.216200
0.470093 0.838668 0.203147
0.492932 0.832972 0.189723
0.516528 0.827910 0.176192
0.539890 0.823419 0.162917
0.562222 0.819455 0.150332
0.554594 0.821920 0.183078
0.580362 0.818933 0.170327
0.607474 0.816484 0.157622
0.635423 0.814534 0.145417
0.663754 0.813058 0.134296
0.692067 0.812044 0.124953
0.720022 0.811497 0.118122
0.747336 0.811431 0.114451
0.773787 0.811862 0.114621
0.799193 0.812804 0.119296
0.823420 0.814287 0.128084
0.846386 0.816332 0.140233
0.868019 0.818953 0.154778
0.888331 0.822155 0.169704
0.907313 0.825924 0.186120
0.925041 0.830250 0.203534
0.941598 0.835119 0.221600
0.957068 0.840501 0.240075
0.971515 0.846341 0.258770
0.436414 0.900629 0.283437
0.436368 0.900581 0.283387
0.436317 0.900526 0.283331
0.436242 0.900447 0.283251
0.436143 0.900342 0.283144
0.436016 0.900207 0.283006
0.443807 0.892968 0.273843
0.457206 0.884926 0.262385
0.474364 0.877753 0.250618
0.494366 0.871320 0.238537
0.516080 0.865543 0.226315
0.538406 0.860357 0.214234
0.560387 0.855715 0.202646
0.581253 0.851583 0.191935
0.572156 0.854062 0.221738
0.597826 0.850987 0.210385
0.624754 0.848455 0.199338
0.652433 0.846427 0.189002
0.680411 0.844877 0.179852
0.708294 0.843793 0.172399
0.735749 0.843174 0.167132
0.762505 0.843031 0.164450
0.788352 0.843378 0.164602
0.813131 0.844226 0.168002
0.836723 0.845591 0.174685
0.859056 0.847491 0.184255
0.880067 0.849938 0.196210
0.899708 0.852933 0.210028
